aqua.cube
LUT_3D_SIZE 6
-0.076611 -0.101224 -0.106153
0.108502 -0.101224 -0.106153
0.299105 -0.101224 -0.106153
0.536296 -0.101224 -0.106153
0.775622 -0.101224 -0.106153
0.955748 -0.101224 -0.106153
-0.076611 0.128471 -0.106153
0.108502 0.128471 -0.106153
0.299105 0.156950 -0.106153
0.536296 0.186297 -0.106153
0.775622 0.198390 -0.106153
0.955748 0.196265 -0.106153
-0.076611 0.343253 -0.106153
0.131076 0.343253 -0.106153
0.299105 0.343253 -0.106153
0.536296 0.388781 -0.106153
0.775622 0.408815 -0.106153
0.955748 0.404771 -0.106153
-0.076611 0.566782 -0.106153
0.155105 0.566782 -0.106153
0.344760 0.566782 -0.106153
0.536296 0.566782 -0.106153
0.775622 0.594872 -0.106153
0.955748 0.588955 -0.106153
-0.076611 0.769690 -0.106153
0.165023 0.769690 -0.106153
0.365528 0.769690 -0.106153
0.568229 0.769690 -0.106153
0.775622 0.769977 -0.106153
0.955748 0.762207 -0.106153
-0.076611 0.950236 -0.106153
0.162808 0.950236 -0.106153
0.361157 0.950236 -0.106153
0.561480 0.950236 -0.106153
0.767735 0.950236 -0.106153
0.955748 0.950236 -0.106153
-0.076611 -0.101224 0.104908
0.108502 -0.101224 0.104908
0.299105 -0.101224 0.135629
0.536296 -0.101224 0.167643
0.775622 -0.101224 0.180917
0.955748 -0.101224 0.178501
-0.076611 0.128471 0.104908
0.108502 0.128471 0.104908
0.299105 0.128471 0.104908
0.536296 0.128471 0.104908
0.775622 0.128471 0.104908
0.955748 0.128471 0.104908
-0.076611 0.343253 0.135629
0.108502 0.343253 0.105363
0.299105 0.343253 0.104908
0.536296 0.379538 0.104908
0.775622 0.395462 0.104908
0.955748 0.390205 0.104908
-0.076611 0.566782 0.167643
0.108502 0.566782 0.104718
0.335314 0.566782 0.104908
0.536296 0.566782 0.104908
0.775622 0.590664 0.104908
0.955748 0.582972 0.104908
-0.076611 0.769690 0.181368
0.108502 0.769690 0.105174
0.351194 0.769690 0.104908
0.563194 0.769690 0.104908
0.775622 0.769748 0.104908
0.955748 0.759970 0.104908
-0.076611 0.950236 0.178501
0.108502 0.950236 0.104533
0.346156 0.950236 0.104908
0.554677 0.950236 0.104908
0.763097 0.950236 0.104908
0.955748 0.950236 0.104908
-0.076611 -0.101224 0.336910
0.131076 -0.101224 0.336910
0.299105 -0.101224 0.336910
0.536296 -0.101224 0.385714
0.775622 -0.101224 0.408145
0.955748 -0.101224 0.402809
-0.076611 0.156950 0.336910
0.108502 0.128447 0.336910
0.299105 0.128471 0.336910
0.536296 0.128471 0.375769
0.775622 0.128471 0.392836
0.955748 0.128471 0.387179
-0.076611 0.343253 0.336910
0.108502 0.343253 0.336910
0.299105 0.343253 0.336910
0.536296 0.343253 0.336910
0.775622 0.343253 0.336910
0.955748 0.343253 0.336910
-0.076611 0.566782 0.385714
0.108502 0.566782 0.375974
0.299105 0.566782 0.336910
0.536296 0.566782 0.336910
0.775622 0.575660 0.336910
0.955748 0.565641 0.336910
-0.076611 0.769690 0.407397
0.108502 0.769690 0.392218
0.299105 0.769690 0.336910
0.546576 0.769690 0.336910
0.775622 0.769900 0.336910
0.955748 0.753677 0.336910
-0.076611 0.950236 0.402809
0.108502 0.950236 0.387718
0.299105 0.950236 0.336910
0.535064 0.950236 0.336910
0.755897 0.950236 0.336910
0.955748 0.950236 0.336910
-0.076611 -0.101224 0.575732
0.155105 -0.101224 0.575732
0.344760 -0.101224 0.575732
0.536296 -0.101224 0.575732
0.775622 -0.101224 0.605878
0.955748 -0.101224 0.599347
-0.076611 0.186297 0.575732
0.108502 0.128491 0.575732
0.335314 0.128471 0.575732
0.536296 0.128471 0.575732
0.775622 0.128471 0.600476
0.955748 0.128471 0.592977
-0.076611 0.388781 0.575732
0.108502 0.380164 0.575732
0.299105 0.343253 0.575732
0.536296 0.343253 0.575732
0.775622 0.343253 0.585134
0.955748 0.343253 0.574585
-0.076611 0.566782 0.575732
0.108502 0.566782 0.575732
0.299105 0.566782 0.575732
0.536296 0.566782 0.575732
0.775622 0.566782 0.575732
0.955748 0.566782 0.575732
-0.076611 0.769690 0.605681
0.108502 0.769690 0.600686
0.299105 0.769690 0.585393
0.536296 0.769690 0.575732
0.775622 0.769417 0.575732
0.955748 0.754102 0.575732
-0.076611 0.950236 0.599347
0.108502 0.950236 0.593526
0.299105 0.950236 0.574585
0.536296 0.950236 0.575732
0.757272 0.950236 0.575732
0.955748 0.950236 0.575732
-0.076611 -0.101224 0.791682
0.165023 -0.101224 0.791682
0.365528 -0.101224 0.791682
0.568229 -0.101224 0.791682
0.775622 -0.101224 0.791488
0.955748 -0.101224 0.783761
-0.076611 0.198881 0.791682
0.108502 0.128327 0.791682
0.351194 0.128471 0.791682
0.563194 0.128471 0.791682
0.775622 0.128471 0.791191
0.955748 0.128471 0.781446
-0.076611 0.409024 0.791682
0.108502 0.395042 0.791682
0.299105 0.343253 0.791682
0.546576 0.343253 0.791682
0.775622 0.343253 0.791009
0.955748 0.343253 0.774814
-0.076611 0.594860 0.791682
0.108502 0.590758 0.791682
0.299105 0.575848 0.791682
0.536296 0.566782 0.791682
0.775622 0.566782 0.791243
0.955748 0.566782 0.775169
-0.076611 0.769690 0.791682
0.108502 0.769690 0.791682
0.299105 0.769690 0.791682
0.536296 0.769690 0.791682
0.775622 0.769690 0.791682
0.955748 0.769690 0.791682
-0.076611 0.950236 0.783761
0.108502 0.950236 0.781407
0.299105 0.950236 0.774814
0.536296 0.950236 0.775169
0.775572 0.950236 0.791682
0.955748 0.950236 0.791682
-0.076611 -0.101224 1.001637
0.162808 -0.101224 1.001637
0.361157 -0.101224 1.001637
0.561480 -0.101224 1.001637
0.767735 -0.101224 1.001637
0.955748 -0.101224 1.001637
-0.076611 0.196265 1.001637
0.108502 0.127822 1.001637
0.346156 0.128471 1.001637
0.554677 0.128471 1.001637
0.763097 0.128471 1.001637
0.955748 0.128471 1.001637
-0.076611 0.404771 1.001637
0.108502 0.389970 1.001637
0.299105 0.343253 1.001637
0.535064 0.343253 1.001637
0.755897 0.343253 1.001637
0.955748 0.343253 1.001637
-0.076611 0.588955 1.001637
0.108502 0.582411 1.001637
0.299105 0.565641 1.001637
0.536296 0.566782 1.001637
0.757272 0.566782 1.001637
0.955748 0.566782 1.001637
-0.076611 0.762207 1.001637
0.108502 0.760590 1.001637
0.299105 0.753677 1.001637
0.536296 0.754102 1.001637
0.775572 0.769690 1.001637
0.955748 0.769690 1.001637
-0.076611 0.950236 1.001637
0.108502 0.950236 1.001637
0.299105 0.950236 1.001637
0.536296 0.950236 1.001637
0.775622 0.950236 1.001637
0.955748 0.950236 1.001637
