aqua.cube
LUT_3D_SIZE 16
-0.076611 -0.101224 -0.106153
-0.060987 -0.101224 -0.106153
0.056516 -0.101224 -0.106153
0.108502 -0.101224 -0.106153
0.165014 -0.101224 -0.106153
0.228704 -0.101224 -0.106153
0.299105 -0.101224 -0.106153
0.375205 -0.101224 -0.106153
0.455548 -0.101224 -0.106153
0.536296 -0.101224 -0.106153
0.616846 -0.101224 -0.106153
0.695794 -0.101224 -0.106153
0.775622 -0.101224 -0.106153
0.853807 -0.101224 -0.106153
0.920021 -0.101224 -0.106153
0.955748 -0.101224 -0.106153
-0.076611 -0.080680 -0.106153
-0.060987 -0.080680 -0.106153
0.056516 -0.089328 -0.106153
0.108502 -0.092059 -0.106153
0.165014 -0.091571 -0.106153
0.228704 -0.090231 -0.106153
0.299105 -0.088367 -0.106153
0.375205 -0.086446 -0.106153
0.455548 -0.084548 -0.106153
0.536296 -0.082989 -0.106153
0.616846 -0.081804 -0.106153
0.695794 -0.080806 -0.106153
0.775622 -0.080036 -0.106153
0.853807 -0.079525 -0.106153
0.920021 -0.079655 -0.106153
0.955748 -0.080681 -0.106153
-0.076611 0.061205 -0.106153
-0.067513 0.061205 -0.106153
0.057526 0.061205 -0.106153
0.108502 0.029559 -0.106153
0.165014 0.037639 -0.106153
0.228704 0.052814 -0.106153
0.299105 0.067859 -0.106153
0.375205 0.079797 -0.106153
0.455548 0.089561 -0.106153
0.536296 0.096580 -0.106153
0.616846 0.102038 -0.106153
0.695794 0.104939 -0.106153
0.775622 0.108322 -0.106153
0.853807 0.109899 -0.106153
0.920021 0.109374 -0.106153
0.955748 0.105695 -0.106153
-0.076611 0.128471 -0.106153
-0.069634 0.128471 -0.106153
0.031868 0.128471 -0.106153
0.108502 0.128471 -0.106153
0.165014 0.131969 -0.106153
0.228704 0.143985 -0.106153
0.299105 0.156950 -0.106153
0.375205 0.168625 -0.106153
0.455548 0.178764 -0.106153
0.536296 0.186297 -0.106153
0.616846 0.191732 -0.106153
0.695794 0.195212 -0.106153
0.775622 0.198390 -0.106153
0.853807 0.200198 -0.106153
0.920021 0.200369 -0.106153
0.955748 0.196265 -0.106153
-0.076611 0.197898 -0.106153
-0.069269 0.197898 -0.106153
0.038647 0.197898 -0.106153
0.111707 0.197898 -0.106153
0.165014 0.197645 -0.106153
0.228704 0.210387 -0.106153
0.299105 0.224932 -0.106153
0.375205 0.238347 -0.106153
0.455548 0.250164 -0.106153
0.536296 0.259023 -0.106153
0.616846 0.265228 -0.106153
0.695794 0.270258 -0.106153
0.775622 0.273876 -0.106153
0.853807 0.276451 -0.106153
0.920021 0.275733 -0.106153
0.955748 0.270858 -0.106153
-0.076611 0.269470 -0.106153
-0.068189 0.269470 -0.106153
0.051496 0.269470 -0.106153
0.120284 0.269470 -0.106153
0.176085 0.269153 -0.106153
0.228704 0.269063 -0.106153
0.299105 0.285893 -0.106153
0.375205 0.301426 -0.106153
0.455548 0.315238 -0.106153
0.536296 0.325618 -0.106153
0.616846 0.332429 -0.106153
0.695794 0.339115 -0.106153
0.775622 0.343453 -0.106153
0.853807 0.345792 -0.106153
0.920021 0.345242 -0.106153
0.955748 0.339519 -0.106153
-0.076611 0.343253 -0.106153
-0.066831 0.343253 -0.106153
0.062595 0.343253 -0.106153
0.131076 0.343253 -0.106153
0.188354 0.343253 -0.106153
0.244667 0.343263 -0.106153
0.299105 0.343253 -0.106153
0.375205 0.361088 -0.106153
0.455548 0.376918 -0.106153
0.536296 0.388781 -0.106153
0.616846 0.397077 -0.106153
0.695794 0.404503 -0.106153
0.775622 0.408815 -0.106153
0.853807 0.411732 -0.106153
0.920021 0.411441 -0.106153
0.955748 0.404771 -0.106153
-0.076611 0.418366 -0.106153
-0.065373 0.418366 -0.106153
0.071798 0.418366 -0.106153
0.139769 0.418366 -0.106153
0.199755 0.418366 -0.106153
0.259558 0.418366 -0.106153
0.316795 0.418366 -0.106153
0.375205 0.418366 -0.106153
0.455548 0.436250 -0.106153
0.536296 0.449689 -0.106153
0.616846 0.459331 -0.106153
0.695794 0.466731 -0.106153
0.775622 0.472713 -0.106153
0.853807 0.476244 -0.106153
0.920021 0.475240 -0.106153
0.955748 0.467765 -0.106153
-0.076611 0.493915 -0.106153
-0.063928 0.493915 -0.106153
0.079034 0.493915 -0.106153
0.148513 0.493915 -0.106153
0.211634 0.493915 -0.106153
0.271871 0.493915 -0.106153
0.332653 0.493915 -0.106153
0.393849 0.493915 -0.106153
0.455548 0.493915 -0.106153
0.536296 0.508914 -0.106153
0.616846 0.519864 -0.106153
0.695794 0.528087 -0.106153
0.775622 0.534053 -0.106153
0.853807 0.538178 -0.106153
0.920021 0.537395 -0.106153
0.955748 0.529037 -0.106153
-0.076611 0.566782 -0.106153
-0.062740 0.566782 -0.106153
0.084242 0.566782 -0.106153
0.155105 0.566782 -0.106153
0.218747 0.566782 -0.106153
0.282118 0.566782 -0.106153
0.344760 0.566782 -0.106153
0.408019 0.566782 -0.106153
0.471931 0.566782 -0.106153
0.536296 0.566782 -0.106153
0.616288 0.578242 -0.106153
0.695794 0.587227 -0.106153
0.775622 0.594872 -0.106153
0.853807 0.599523 -0.106153
0.920021 0.598105 -0.106153
0.955748 0.588955 -0.106153
-0.076611 0.636702 -0.106153
-0.061801 0.636702 -0.106153
0.088418 0.636702 -0.106153
0.159499 0.636702 -0.106153
0.225113 0.636702 -0.106153
0.288895 0.636702 -0.106153
0.353745 0.636702 -0.106153
0.418607 0.636702 -0.106153
0.484046 0.636702 -0.106153
0.550029 0.636702 -0.106153
0.616293 0.636702 -0.106153
0.696136 0.646339 -0.106153
0.775622 0.653629 -0.106153
0.853807 0.659603 -0.106153
0.920021 0.657670 -0.106153
0.955748 0.647583 -0.106153
-0.076611 0.704307 -0.106153
-0.061065 0.704307 -0.106153
0.090507 0.704307 -0.106153
0.162808 0.704307 -0.106153
0.229292 0.704307 -0.106153
0.295363 0.704307 -0.106153
0.360403 0.704307 -0.106153
0.426488 0.704307 -0.106153
0.493151 0.704307 -0.106153
0.560444 0.704307 -0.106153
0.628103 0.704307 -0.106153
0.696714 0.704307 -0.106153
0.775622 0.712276 -0.106153
0.853807 0.717164 -0.106153
0.920021 0.716200 -0.106153
0.955748 0.705399 -0.106153
-0.076611 0.769690 -0.106153
-0.060486 0.769690 -0.106153
0.092619 0.769690 -0.106153
0.165023 0.769690 -0.106153
0.233035 0.769690 -0.106153
0.298831 0.769690 -0.106153
0.365528 0.769690 -0.106153
0.432442 0.769690 -0.106153
0.500036 0.769690 -0.106153
0.568229 0.769690 -0.106153
0.637633 0.769690 -0.106153
0.705919 0.769690 -0.106153
0.775622 0.769977 -0.106153
0.853807 0.775441 -0.106153
0.920021 0.773864 -0.106153
0.955748 0.762207 -0.106153
-0.076611 0.831986 -0.106153
-0.060134 0.831986 -0.106153
0.094726 0.831986 -0.106153
0.167218 0.831986 -0.106153
0.234818 0.831986 -0.106153
0.302288 0.831986 -0.106153
0.368517 0.831986 -0.106153
0.436022 0.831986 -0.106153
0.504138 0.831986 -0.106153
0.572910 0.831986 -0.106153
0.641822 0.831986 -0.106153
0.711926 0.831986 -0.106153
0.781952 0.832416 -0.106153
0.853807 0.832258 -0.106153
0.920021 0.830848 -0.106153
0.955748 0.818348 -0.106153
-0.076611 0.887331 -0.106153
-0.060202 0.887331 -0.106153
0.093672 0.887331 -0.106153
0.167218 0.887331 -0.106153
0.234251 0.887331 -0.106153
0.300503 0.887331 -0.106153
0.367946 0.887331 -0.106153
0.435354 0.887331 -0.106153
0.503358 0.887331 -0.106153
0.571987 0.887331 -0.106153
0.641032 0.887331 -0.106153
0.711044 0.887331 -0.106153
0.780667 0.887331 -0.106153
0.852546 0.887331 -0.106153
0.920021 0.887331 -0.106153
0.955748 0.873678 -0.106153
-0.076611 0.950236 -0.106153
-0.060987 0.950236 -0.106153
0.091567 0.950236 -0.106153
0.162808 0.950236 -0.106153
0.229973 0.950236 -0.106153
0.295046 0.950236 -0.106153
0.361157 0.950236 -0.106153
0.427328 0.950236 -0.106153
0.494108 0.950236 -0.106153
0.561480 0.950236 -0.106153
0.630343 0.950236 -0.106153
0.697843 0.950236 -0.106153
0.767735 0.950236 -0.106153
0.837257 0.950236 -0.106153
0.905420 0.950236 -0.106153
0.955748 0.950236 -0.106153
-0.076611 -0.101224 -0.084614
-0.060987 -0.101224 -0.084614
0.056516 -0.101224 -0.093687
0.108502 -0.101224 -0.096534
0.165014 -0.101224 -0.096028
0.228704 -0.101224 -0.094611
0.299105 -0.101224 -0.092656
0.375205 -0.101224 -0.090651
0.455548 -0.101224 -0.088671
0.536296 -0.101224 -0.087025
0.616846 -0.101224 -0.085787
0.695794 -0.101224 -0.084740
0.775622 -0.101224 -0.083937
0.853807 -0.101224 -0.083394
0.920021 -0.101224 -0.083531
0.955748 -0.101224 -0.084614
-0.076611 -0.080680 -0.084614
-0.060987 -0.080680 -0.084614
0.056516 -0.080680 -0.084614
0.108502 -0.080680 -0.084614
0.165014 -0.080680 -0.084614
0.228704 -0.080680 -0.084614
0.299105 -0.080680 -0.084614
0.375205 -0.080680 -0.084614
0.455548 -0.080680 -0.084614
0.536296 -0.080680 -0.084614
0.616846 -0.080680 -0.084614
0.695794 -0.080680 -0.084614
0.775622 -0.080680 -0.084614
0.853807 -0.080680 -0.084614
0.920021 -0.080680 -0.084614
0.955748 -0.080680 -0.084614
-0.076611 0.061205 -0.093606
-0.060987 0.061205 -0.084614
0.057526 0.061205 -0.084614
0.108502 0.048463 -0.084614
0.165014 0.055249 -0.084614
0.228704 0.065923 -0.084614
0.299105 0.076225 -0.084614
0.375205 0.085180 -0.084614
0.455548 0.092780 -0.084614
0.536296 0.098344 -0.084614
0.616846 0.102143 -0.084614
0.695794 0.105668 -0.084614
0.775622 0.107642 -0.084614
0.853807 0.108844 -0.084614
0.920021 0.108701 -0.084614
0.955748 0.105695 -0.084614
-0.076611 0.128471 -0.096529
-0.060987 0.128471 -0.084614
0.046515 0.128471 -0.084614
0.108502 0.128471 -0.084614
0.165014 0.135851 -0.084614
0.228704 0.147016 -0.084614
0.299105 0.159704 -0.084614
0.375205 0.170560 -0.084614
0.455548 0.179983 -0.084614
0.536296 0.186964 -0.084614
0.616846 0.191943 -0.084614
0.695794 0.195886 -0.084614
0.775622 0.198095 -0.084614
0.853807 0.200198 -0.084614
0.920021 0.200061 -0.084614
0.955748 0.196265 -0.084614
-0.076611 0.197898 -0.096027
-0.060987 0.197898 -0.084614
0.052497 0.197898 -0.084614
0.113846 0.197898 -0.084614
0.165014 0.197894 -0.084614
0.228704 0.211365 -0.084614
0.299105 0.226143 -0.084614
0.375205 0.239312 -0.084614
0.455548 0.250817 -0.084614
0.536296 0.259391 -0.084614
0.616846 0.265872 -0.084614
0.695794 0.270651 -0.084614
0.775622 0.273709 -0.084614
0.853807 0.275508 -0.084614
0.920021 0.275571 -0.084614
0.955748 0.270858 -0.084614
-0.076611 0.269470 -0.094534
-0.060987 0.269470 -0.084614
0.060562 0.269470 -0.084614
0.123511 0.269470 -0.084614
0.176085 0.269634 -0.084614
0.228704 0.269571 -0.084614
0.299105 0.286358 -0.084614
0.375205 0.301933 -0.084614
0.455548 0.315630 -0.084614
0.536296 0.325843 -0.084614
0.616846 0.333716 -0.084614
0.695794 0.338463 -0.084614
0.775622 0.343352 -0.084614
0.853807 0.345792 -0.084614
0.920021 0.345141 -0.084614
0.955748 0.339519 -0.084614
-0.076611 0.343253 -0.092656
-0.060987 0.343253 -0.084614
0.068721 0.343253 -0.084614
0.133247 0.343253 -0.084614
0.189486 0.343253 -0.084614
0.244667 0.343451 -0.084614
0.299105 0.343253 -0.084614
0.375205 0.361255 -0.084614
0.455548 0.377135 -0.084614
0.536296 0.388954 -0.084614
0.616846 0.397279 -0.084614
0.695794 0.404646 -0.084614
0.775622 0.408724 -0.084614
0.853807 0.411732 -0.084614
0.920021 0.411305 -0.084614
0.955748 0.404771 -0.084614
-0.076611 0.418366 -0.090651
-0.060987 0.418366 -0.084614
0.075926 0.418366 -0.084614
0.141949 0.418366 -0.084614
0.201072 0.418366 -0.084614
0.259558 0.418366 -0.084614
0.316983 0.418366 -0.084614
0.375205 0.418366 -0.084614
0.455548 0.436339 -0.084614
0.536296 0.449784 -0.084614
0.616846 0.459432 -0.084614
0.695794 0.466807 -0.084614
0.775622 0.472669 -0.084614
0.853807 0.476244 -0.084614
0.920021 0.475223 -0.084614
0.955748 0.467765 -0.084614
-0.076611 0.493915 -0.088671
-0.060987 0.493915 -0.084614
0.081116 0.493915 -0.084614
0.149599 0.493915 -0.084614
0.211844 0.493915 -0.084614
0.271977 0.493915 -0.084614
0.332867 0.493915 -0.084614
0.393967 0.493915 -0.084614
0.455548 0.493915 -0.084614
0.536296 0.508976 -0.084614
0.616846 0.519864 -0.084614
0.695794 0.528164 -0.084614
0.775622 0.534044 -0.084614
0.853807 0.538178 -0.084614
0.920021 0.537340 -0.084614
0.955748 0.529037 -0.084614
-0.076611 0.566782 -0.087025
-0.060987 0.566782 -0.084614
0.085278 0.566782 -0.084614
0.155105 0.566782 -0.084614
0.218871 0.566782 -0.084614
0.282240 0.566782 -0.084614
0.344889 0.566782 -0.084614
0.408163 0.566782 -0.084614
0.471941 0.566782 -0.084614
0.536296 0.566782 -0.084614
0.616296 0.578242 -0.084614
0.695794 0.587227 -0.084614
0.775622 0.594840 -0.084614
0.853807 0.598711 -0.084614
0.920021 0.598087 -0.084614
0.955748 0.588955 -0.084614
-0.076611 0.636702 -0.085737
-0.060987 0.636702 -0.084614
0.088418 0.636702 -0.084614
0.159499 0.636702 -0.084614
0.225166 0.636702 -0.084614
0.288936 0.636702 -0.084614
0.353807 0.636702 -0.084614
0.418630 0.636702 -0.084614
0.484082 0.636702 -0.084614
0.550050 0.636702 -0.084614
0.616368 0.636702 -0.084614
0.696155 0.646339 -0.084614
0.775622 0.653590 -0.084614
0.853807 0.658772 -0.084614
0.920021 0.657631 -0.084614
0.955748 0.647583 -0.084614
-0.076611 0.704307 -0.084718
-0.060987 0.704307 -0.084614
0.091567 0.704307 -0.084614
0.162808 0.704307 -0.084614
0.229302 0.704307 -0.084614
0.295372 0.704307 -0.084614
0.360412 0.704307 -0.084614
0.426496 0.704307 -0.084614
0.493153 0.704307 -0.084614
0.560448 0.704307 -0.084614
0.628104 0.704307 -0.084614
0.696717 0.704307 -0.084614
0.775622 0.712246 -0.084614
0.853807 0.717164 -0.084614
0.920021 0.716170 -0.084614
0.955748 0.705399 -0.084614
-0.076611 0.769690 -0.083926
-0.060987 0.769690 -0.084614
0.092619 0.769690 -0.084614
0.165023 0.769690 -0.084614
0.232997 0.769690 -0.084614
0.298823 0.769690 -0.084614
0.365486 0.769690 -0.084614
0.432435 0.769690 -0.084614
0.500007 0.769690 -0.084614
0.568209 0.769690 -0.084614
0.637576 0.769690 -0.084614
0.705894 0.769690 -0.084614
0.775622 0.769963 -0.084614
0.853807 0.775441 -0.084614
0.920021 0.773850 -0.084614
0.955748 0.762207 -0.084614
-0.076611 0.831986 -0.083440
-0.060987 0.831986 -0.084614
0.093672 0.831986 -0.084614
0.167218 0.831986 -0.084614
0.234732 0.831986 -0.084614
0.302268 0.831986 -0.084614
0.368438 0.831986 -0.084614
0.436004 0.831986 -0.084614
0.504127 0.831986 -0.084614
0.572870 0.831986 -0.084614
0.641775 0.831986 -0.084614
0.711928 0.831986 -0.084614
0.781952 0.832409 -0.084614
0.853807 0.832258 -0.084614
0.920021 0.830841 -0.084614
0.955748 0.818348 -0.084614
-0.076611 0.887331 -0.083531
-0.060987 0.887331 -0.084614
0.093672 0.887331 -0.084614
0.166118 0.887331 -0.084614
0.234171 0.887331 -0.084614
0.300404 0.887331 -0.084614
0.367841 0.887331 -0.084614
0.435262 0.887331 -0.084614
0.503346 0.887331 -0.084614
0.571954 0.887331 -0.084614
0.640986 0.887331 -0.084614
0.710986 0.887331 -0.084614
0.780667 0.887331 -0.084614
0.852546 0.887331 -0.084614
0.920021 0.887331 -0.084614
0.955748 0.873678 -0.084614
-0.076611 0.950236 -0.084614
-0.060987 0.950236 -0.084614
0.091567 0.950236 -0.084614
0.162808 0.950236 -0.084614
0.229973 0.950236 -0.084614
0.295046 0.950236 -0.084614
0.361157 0.950236 -0.084614
0.427328 0.950236 -0.084614
0.494108 0.950236 -0.084614
0.561480 0.950236 -0.084614
0.630343 0.950236 -0.084614
0.697843 0.950236 -0.084614
0.767735 0.950236 -0.084614
0.837257 0.950236 -0.084614
0.905420 0.950236 -0.084614
0.955748 0.950236 -0.084614
-0.076611 -0.101224 0.041552
-0.067513 -0.101224 0.041552
0.057526 -0.101224 0.041552
0.108502 -0.101224 0.015886
0.165014 -0.101224 0.022310
0.228704 -0.101224 0.034791
0.299105 -0.101224 0.047271
0.375205 -0.101224 0.057856
0.455548 -0.101224 0.066855
0.536296 -0.101224 0.073462
0.616846 -0.101224 0.078118
0.695794 -0.101224 0.082073
0.775622 -0.101224 0.084818
0.853807 -0.101224 0.086123
0.920021 -0.101224 0.085802
0.955748 -0.101224 0.082208
-0.076611 -0.089256 0.041552
-0.060987 -0.080680 0.041552
0.057526 -0.080680 0.041552
0.108502 -0.080680 0.030038
0.165014 -0.080680 0.036577
0.228704 -0.080680 0.044698
0.299105 -0.080680 0.054647
0.375205 -0.080680 0.062781
0.455548 -0.080680 0.069860
0.536296 -0.080680 0.075133
0.616846 -0.080680 0.079318
0.695794 -0.080680 0.081851
0.775622 -0.080680 0.084155
0.853807 -0.080680 0.086123
0.920021 -0.080680 0.085134
0.955748 -0.080680 0.082208
-0.076611 0.061205 0.041552
-0.060987 0.061205 0.041552
0.056516 0.061205 0.040750
0.108502 0.061205 0.041552
0.165014 0.061205 0.041552
0.228704 0.061205 0.041552
0.299105 0.061205 0.041552
0.375205 0.061205 0.041552
0.455548 0.061205 0.041552
0.536296 0.061205 0.041552
0.616846 0.061205 0.041552
0.695794 0.061205 0.041552
0.775622 0.061205 0.041552
0.853807 0.061205 0.041552
0.920021 0.061205 0.041552
0.955748 0.061205 0.041552
-0.076611 0.128471 0.016508
-0.060987 0.128471 0.030546
0.056516 0.128471 0.040758
0.108502 0.128471 0.042107
0.165014 0.137333 0.041552
0.228704 0.146370 0.041552
0.299105 0.154992 0.041552
0.375205 0.162831 0.041552
0.455548 0.169664 0.041552
0.536296 0.174772 0.041552
0.616846 0.178748 0.041552
0.695794 0.181784 0.041552
0.775622 0.183325 0.041552
0.853807 0.184369 0.041552
0.920021 0.184321 0.041552
0.955748 0.181363 0.041552
-0.076611 0.197898 0.022299
-0.060987 0.197898 0.036583
0.056516 0.197898 0.040736
0.114919 0.197898 0.042109
0.165014 0.197736 0.041552
0.228704 0.211415 0.041552
0.299105 0.224067 0.041552
0.375205 0.235521 0.041552
0.455548 0.245494 0.041552
0.536296 0.252904 0.041552
0.616846 0.257780 0.041552
0.695794 0.261385 0.041552
0.775622 0.265782 0.041552
0.853807 0.267122 0.041552
0.920021 0.266715 0.041552
0.955748 0.262447 0.041552
-0.076611 0.269470 0.035141
-0.060987 0.269470 0.045687
0.056516 0.269470 0.040606
0.122434 0.269470 0.041621
0.176085 0.269755 0.041552
0.228704 0.269499 0.041552
0.299105 0.285543 0.041552
0.375205 0.300029 0.041552
0.455548 0.312594 0.041552
0.536296 0.321951 0.041552
0.616846 0.328012 0.041552
0.695794 0.333693 0.041552
0.775622 0.337557 0.041552
0.853807 0.339335 0.041552
0.920021 0.339337 0.041552
0.955748 0.333947 0.041552
-0.076611 0.343253 0.047271
-0.060987 0.343253 0.054647
0.056516 0.343253 0.040753
0.128919 0.343253 0.042105
0.187233 0.343253 0.041552
0.243521 0.343522 0.041552
0.299105 0.343253 0.041552
0.375205 0.360476 0.041552
0.455548 0.375464 0.041552
0.536296 0.386568 0.041552
0.616846 0.394802 0.041552
0.695794 0.400530 0.041552
0.775622 0.404650 0.041552
0.853807 0.408635 0.041552
0.920021 0.407259 0.041552
0.955748 0.400825 0.041552
-0.076611 0.418366 0.057856
-0.060987 0.418366 0.062781
0.056516 0.418366 0.041039
0.135417 0.418366 0.041455
0.198062 0.418366 0.041552
0.257269 0.418366 0.041552
0.316193 0.418366 0.041552
0.375205 0.418366 0.041552
0.455548 0.435641 0.041552
0.536296 0.448418 0.041552
0.616846 0.457887 0.041552
0.695794 0.464613 0.041552
0.775622 0.469700 0.041552
0.853807 0.472512 0.041552
0.920021 0.472236 0.041552
0.955748 0.464869 0.041552
-0.076611 0.493915 0.066855
-0.060987 0.493915 0.069860
0.056516 0.493915 0.041046
0.140856 0.493915 0.042045
0.206874 0.493915 0.041552
0.270085 0.493915 0.041552
0.331229 0.493915 0.041552
0.393177 0.493915 0.041552
0.455548 0.493915 0.041552
0.536296 0.508368 0.041552
0.616846 0.518183 0.041552
0.695794 0.526700 0.041552
0.775622 0.532707 0.041552
0.853807 0.536847 0.041552
0.920021 0.535177 0.041552
0.955748 0.526886 0.041552
-0.076611 0.566782 0.073462
-0.060987 0.566782 0.075133
0.056516 0.566782 0.041125
0.145228 0.566782 0.041742
0.213193 0.566782 0.041552
0.278530 0.566782 0.041552
0.342496 0.566782 0.041552
0.406694 0.566782 0.041552
0.471320 0.566782 0.041552
0.536296 0.566782 0.041552
0.615675 0.577425 0.041552
0.695794 0.586390 0.041552
0.775622 0.593232 0.041552
0.853807 0.597902 0.041552
0.920021 0.596486 0.041552
0.955748 0.587346 0.041552
-0.076611 0.636702 0.078262
-0.060987 0.636702 0.079005
0.056516 0.636702 0.041167
0.148513 0.636702 0.041786
0.217744 0.636702 0.041552
0.284721 0.636702 0.041552
0.350781 0.636702 0.041552
0.416663 0.636702 0.041552
0.482884 0.636702 0.041552
0.549540 0.636702 0.041552
0.616370 0.636702 0.041552
0.695564 0.645517 0.041552
0.775622 0.653282 0.041552
0.853807 0.657635 0.041552
0.920021 0.656471 0.041552
0.955748 0.646374 0.041552
-0.076611 0.704307 0.081841
-0.060987 0.704307 0.081913
0.056516 0.704307 0.040934
0.150698 0.704307 0.041790
0.222527 0.704307 0.041552
0.290736 0.704307 0.041552
0.356909 0.704307 0.041552
0.424062 0.704307 0.041552
0.491527 0.704307 0.041552
0.559390 0.704307 0.041552
0.627687 0.704307 0.041552
0.696930 0.704307 0.041552
0.775622 0.711598 0.041552
0.853807 0.717209 0.041552
0.920021 0.715526 0.041552
0.955748 0.704548 0.041552
-0.076611 0.769690 0.084513
-0.060987 0.769690 0.084087
0.056516 0.769690 0.040724
0.152896 0.769690 0.041976
0.224753 0.769690 0.041552
0.293793 0.769690 0.041552
0.361586 0.769690 0.041552
0.429651 0.769690 0.041552
0.498044 0.769690 0.041552
0.566837 0.769690 0.041552
0.635567 0.769690 0.041552
0.705752 0.769690 0.041552
0.775622 0.769481 0.041552
0.853807 0.774848 0.041552
0.920021 0.773385 0.041552
0.955748 0.761577 0.041552
-0.076611 0.831986 0.086100
-0.060987 0.831986 0.085378
0.056516 0.831986 0.041215
0.152896 0.831986 0.041426
0.226234 0.831986 0.041552
0.295825 0.831986 0.041552
0.364344 0.831986 0.041552
0.432934 0.831986 0.041552
0.501844 0.831986 0.041552
0.571242 0.831986 0.041552
0.640692 0.831986 0.041552
0.711492 0.831986 0.041552
0.781952 0.832229 0.041552
0.853807 0.832616 0.041552
0.920021 0.830675 0.041552
0.955748 0.818010 0.041552
-0.076611 0.887331 0.085802
-0.060987 0.887331 0.085134
0.056516 0.887331 0.040969
0.152896 0.887331 0.042026
0.225565 0.887331 0.041552
0.295020 0.887331 0.041552
0.363651 0.887331 0.041552
0.432097 0.887331 0.041552
0.500892 0.887331 0.041552
0.570148 0.887331 0.041552
0.639724 0.887331 0.041552
0.709162 0.887331 0.041552
0.779420 0.887331 0.041552
0.852546 0.887331 0.041552
0.920021 0.887331 0.041552
0.955748 0.873553 0.041552
-0.076611 0.950236 0.082208
-0.060987 0.950236 0.082208
0.056516 0.950236 0.041234
0.150698 0.950236 0.042034
0.222676 0.950236 0.041552
0.290837 0.950236 0.041552
0.357105 0.950236 0.041552
0.424188 0.950236 0.041552
0.491716 0.950236 0.041552
0.559583 0.950236 0.041552
0.627873 0.950236 0.041552
0.697121 0.950236 0.041552
0.766272 0.950236 0.041552
0.836023 0.950236 0.041552
0.905284 0.950236 0.041552
0.955748 0.950236 0.041552
-0.076611 -0.101224 0.104908
-0.069634 -0.101224 0.104908
0.031868 -0.101224 0.104908
0.108502 -0.101224 0.104908
0.165014 -0.101224 0.108723
0.228704 -0.101224 0.120481
0.299105 -0.101224 0.135629
0.375205 -0.101224 0.148396
0.455548 -0.101224 0.159454
0.536296 -0.101224 0.167643
0.616846 -0.101224 0.173941
0.695794 -0.101224 0.177927
0.775622 -0.101224 0.180917
0.853807 -0.101224 0.182601
0.920021 -0.101224 0.182956
0.955748 -0.101224 0.178501
-0.076611 -0.092040 0.104908
-0.060987 -0.080680 0.104908
0.046515 -0.080680 0.104908
0.108502 -0.080680 0.104908
0.165014 -0.080680 0.112748
0.228704 -0.080680 0.124835
0.299105 -0.080680 0.138629
0.375205 -0.080680 0.150514
0.455548 -0.080680 0.160812
0.536296 -0.080680 0.168416
0.616846 -0.080680 0.174235
0.695794 -0.080680 0.177669
0.775622 -0.080680 0.180588
0.853807 -0.080680 0.182601
0.920021 -0.080680 0.182640
0.955748 -0.080680 0.178501
-0.076611 0.029228 0.104908
-0.060987 0.047843 0.104908
0.056516 0.060845 0.104908
0.108502 0.060569 0.104908
0.165014 0.061205 0.114025
0.228704 0.061205 0.122670
0.299105 0.061205 0.133482
0.375205 0.061205 0.142061
0.455548 0.061205 0.149548
0.536296 0.061205 0.155086
0.616846 0.061205 0.158983
0.695794 0.061205 0.162404
0.775622 0.061205 0.164467
0.853807 0.061205 0.165411
0.920021 0.061205 0.165501
0.955748 0.061205 0.162301
-0.076611 0.128471 0.104908
-0.060987 0.128471 0.104908
0.056516 0.128471 0.104908
0.108502 0.128471 0.104908
0.165014 0.128471 0.104908
0.228704 0.128471 0.104908
0.299105 0.128471 0.104908
0.375205 0.128471 0.104908
0.455548 0.128471 0.104908
0.536296 0.128471 0.104908
0.616846 0.128471 0.104908
0.695794 0.128471 0.104908
0.775622 0.128471 0.104908
0.853807 0.128471 0.104908
0.920021 0.128471 0.104908
0.955748 0.128471 0.104908
-0.076611 0.197898 0.109377
-0.060987 0.197898 0.112753
0.056516 0.197898 0.114683
0.108502 0.197898 0.105368
0.165014 0.197917 0.104908
0.228704 0.205314 0.104908
0.299105 0.213595 0.104908
0.375205 0.220891 0.104908
0.455548 0.227393 0.104908
0.536296 0.232256 0.104908
0.616846 0.235053 0.104908
0.695794 0.237994 0.104908
0.775622 0.240143 0.104908
0.853807 0.241663 0.104908
0.920021 0.241095 0.104908
0.955748 0.237852 0.104908
-0.076611 0.269470 0.121819
-0.060987 0.269470 0.125557
0.056516 0.269470 0.124002
0.108502 0.269470 0.105227
0.171653 0.269535 0.104908
0.228704 0.269673 0.104908
0.299105 0.281623 0.104908
0.375205 0.292837 0.104908
0.455548 0.302782 0.104908
0.536296 0.310124 0.104908
0.616846 0.315543 0.104908
0.695794 0.319235 0.104908
