autumn.cube
LUT_3D_SIZE 6
-0.082152 -0.082739 -0.079060
0.150616 -0.068935 -0.053464
0.403441 -0.063041 -0.036932
0.645432 -0.071741 -0.058164
0.831317 -0.081199 -0.076105
1.008178 -0.084098 -0.081441
-0.050874 0.135749 -0.036658
0.154296 0.138360 -0.034086
0.403334 0.179162 -0.042785
0.645283 0.193623 -0.063256
0.831305 0.187971 -0.078180
1.008179 0.178718 -0.081416
-0.068575 0.368599 -0.062114
0.193241 0.369831 -0.063044
0.400499 0.373965 -0.068995
0.644714 0.410498 -0.078474
0.832258 0.405235 -0.081499
1.008179 0.386164 -0.081413
-0.084324 0.629587 -0.081631
0.211092 0.629587 -0.081583
0.438025 0.629594 -0.081458
0.644071 0.629009 -0.081413
0.832258 0.621519 -0.081413
1.008179 0.592870 -0.081413
-0.084195 0.841033 -0.081413
0.209202 0.841033 -0.081413
0.431848 0.841033 -0.081413
0.635506 0.841033 -0.081413
0.830585 0.840747 -0.081413
1.008179 0.802755 -0.081413
-0.084330 1.056889 -0.084349
0.199926 1.056847 -0.086154
0.413547 1.056829 -0.087322
0.607042 1.056852 -0.086399
0.792225 1.056901 -0.084831
1.008796 1.057875 -0.084090
-0.066752 -0.428965 0.169509
0.155862 -0.428410 0.172522
0.403089 -0.428082 0.220219
0.646622 -0.428794 0.238028
0.833231 -0.429748 0.232428
1.008493 -0.430064 0.219949
-0.051506 0.139475 0.165675
0.154042 0.134816 0.163784
0.403259 0.134615 0.176831
0.645372 0.131575 0.177763
0.831305 0.129125 0.173074
1.008179 0.128446 0.169781
-0.069091 0.368556 0.204778
0.148788 0.368556 0.165478
0.400912 0.372125 0.161838
0.644718 0.395213 0.159913
0.832258 0.387765 0.159211
1.008179 0.369702 0.159211
-0.084238 0.629588 0.224534
0.144257 0.629588 0.164169
0.425181 0.629594 0.159203
0.644225 0.628711 0.159211
0.832258 0.616397 0.159211
1.008179 0.585751 0.159211
-0.084068 0.841033 0.221537
0.143360 0.841033 0.162865
0.415820 0.841033 0.159211
0.630098 0.841033 0.159211
0.830248 0.840920 0.159211
1.008179 0.800015 0.159211
-0.086128 1.056848 0.201447
0.143360 1.056835 0.144920
0.399359 1.056830 0.144374
0.600959 1.056853 0.142671
0.789212 1.056909 0.143328
1.008809 1.057896 0.143834
-0.049882 -0.428228 0.416932
0.203990 -0.428087 0.418227
0.406295 -0.428163 0.417886
0.646911 -0.428927 0.451927
0.833257 -0.429813 0.444462
1.008499 -0.430063 0.425053
-0.051304 0.180094 0.408724
0.161111 0.134324 0.408722
0.403473 0.134977 0.407823
0.645254 0.132557 0.432179
0.831305 0.129507 0.422942
1.008179 0.129508 0.404885
-0.070705 0.375767 0.406487
0.149700 0.373564 0.406536
0.401640 0.367989 0.406800
0.644714 0.366969 0.405253
0.832258 0.367312 0.402381
1.008179 0.367576 0.399924
-0.084183 0.629586 0.441314
0.145158 0.629586 0.430287
0.400381 0.629594 0.405522
0.644490 0.628421 0.406004
0.832258 0.611877 0.406004
1.008179 0.587756 0.406004
-0.084068 0.841033 0.434890
0.145158 0.841033 0.420255
0.400415 0.841033 0.405049
0.625498 0.841033 0.406004
0.830872 0.841900 0.406004
1.008179 0.800735 0.406004
-0.087021 1.056829 0.407728
0.142460 1.056827 0.393431
0.398813 1.056834 0.393829
0.600812 1.056858 0.392310
0.790973 1.056886 0.392671
1.008816 1.057908 0.393295
-0.045702 -0.428083 0.632839
0.221045 -0.428153 0.632914
0.441643 -0.428421 0.632958
0.645640 -0.429145 0.631663
0.833225 -0.429909 0.622186
1.008483 -0.430063 0.596245
-0.055706 0.195898 0.624960
0.160868 0.132210 0.624960
0.429229 0.134101 0.624766
0.644754 0.131918 0.623748
0.832258 0.129508 0.612724
1.008179 0.129508 0.584551
-0.075432 0.410817 0.624396
0.147879 0.397426 0.624396
0.400682 0.367270 0.624306
0.644601 0.367157 0.622531
0.832258 0.366994 0.605163
1.008179 0.366994 0.582199
-0.084091 0.629130 0.623790
0.145158 0.629133 0.623659
0.400568 0.629508 0.623636
0.644665 0.629512 0.624058
0.832258 0.629525 0.624456
1.008179 0.629603 0.624631
-0.084068 0.841033 0.614750
0.145158 0.841033 0.609545
0.400568 0.841033 0.604788
0.643006 0.841033 0.624141
0.830786 0.840769 0.624072
1.008179 0.816794 0.624072
-0.087001 1.056830 0.581048
0.141566 1.056833 0.574897
0.397883 1.056844 0.575387
0.640837 1.056868 0.616357
0.806500 1.056909 0.616568
1.008745 1.057819 0.617169
-0.054833 -0.428406 0.785648
0.218353 -0.428456 0.785648
0.438587 -0.428856 0.785611
0.641293 -0.429487 0.785025
0.832045 -0.430035 0.778269
1.008408 -0.430063 0.745739
-0.063759 0.193697 0.778608
0.160330 0.130498 0.778608
0.423692 0.132782 0.778567
0.637313 0.130944 0.778354
0.832258 0.129508 0.772609
1.008179 0.129508 0.738337
-0.079409 0.408457 0.778337
0.146972 0.391553 0.778338
0.398083 0.366886 0.778320
0.630048 0.367017 0.778212
0.832258 0.366994 0.771746
1.008179 0.366994 0.737323
-0.084068 0.626458 0.778216
0.145158 0.621401 0.778216
0.400568 0.615039 0.778216
0.643959 0.629783 0.778216
0.832258 0.629595 0.775859
1.008179 0.629595 0.758286
-0.084068 0.841061 0.771661
0.145158 0.841062 0.770698
0.400568 0.841146 0.770294
0.644665 0.841104 0.775371
0.831692 0.841279 0.778544
1.008179 0.838787 0.778666
-0.086366 1.056845 0.732612
0.142460 1.056847 0.729459
0.398087 1.056860 0.730097
0.644279 1.056879 0.752334
0.828021 1.056914 0.771881
1.008536 1.057491 0.773430
-0.065796 -0.428927 1.017678
0.206004 -0.429037 1.017712
0.415279 -0.429301 1.017706
0.608229 -0.429782 1.017595
0.793523 -0.430067 1.017287
1.009102 -0.430063 1.016842
-0.071591 0.182069 1.000022
0.155786 0.129299 1.000022
0.402274 0.131457 1.000022
0.604212 0.130174 1.000022
0.793144 0.129508 1.000022
1.009435 0.129508 0.999420
-0.082125 0.387200 1.000022
0.146972 0.371838 1.000022
0.396021 0.367841 1.000022
0.601337 0.367032 1.000022
0.793806 0.366994 1.000022
1.009447 0.366994 0.999419
-0.084068 0.594209 1.000022
0.145158 0.587910 1.000022
0.400568 0.588123 1.000022
0.643738 0.630924 1.000022
0.809506 0.629595 1.000022
1.009296 0.629595 0.999464
-0.084068 0.804517 1.000022
0.145158 0.801720 1.000022
0.400568 0.802138 1.000022
0.644665 0.819112 1.000022
0.831796 0.841604 1.000022
1.008875 0.841033 0.999505
-0.084068 1.006687 0.999425
0.145158 1.006759 0.999419
0.400568 1.006749 0.999422
0.644665 1.006547 0.999467
0.832258 1.006022 0.999506
1.008179 1.005267 1.000022
