autumn.cube
LUT_3D_SIZE 16
-0.082152 -0.082739 -0.079060
-0.065300 -0.083555 -0.080661
0.082872 -0.073993 -0.063725
0.150616 -0.068935 -0.053464
0.229337 -0.065428 -0.044719
0.312313 -0.062761 -0.036476
0.403441 -0.063041 -0.036932
0.490891 -0.064973 -0.042389
0.572355 -0.068096 -0.050185
0.645432 -0.071741 -0.058164
0.710347 -0.075363 -0.065371
0.773762 -0.078797 -0.071776
0.831317 -0.081199 -0.076105
0.888195 -0.083252 -0.079768
0.938403 -0.084120 -0.081387
1.008178 -0.084098 -0.081441
-0.084091 -0.063397 -0.081541
-0.067392 -0.064125 -0.082728
0.082085 -0.058483 -0.065444
0.150616 -0.049527 -0.054550
0.229359 -0.040890 -0.045403
0.312331 -0.032759 -0.036680
0.403466 -0.030709 -0.036752
0.490906 -0.033822 -0.042120
0.572366 -0.039557 -0.049925
0.645440 -0.046020 -0.057925
0.710364 -0.052161 -0.065168
0.773770 -0.057595 -0.071643
0.831317 -0.061144 -0.076015
0.888195 -0.064181 -0.079716
0.938404 -0.065715 -0.081372
1.008178 -0.066607 -0.081433
-0.060309 0.075975 -0.051265
-0.040829 0.075793 -0.052103
0.086044 0.076278 -0.052260
0.151536 0.083690 -0.044508
0.228154 0.093361 -0.038033
0.312277 0.102831 -0.036627
0.403366 0.110769 -0.038019
0.490865 0.115606 -0.044183
0.572222 0.117565 -0.051919
0.645397 0.117120 -0.059552
0.710238 0.114874 -0.067325
0.773727 0.113717 -0.072395
0.831311 0.109821 -0.076911
0.888195 0.106615 -0.080125
0.938397 0.105220 -0.081457
1.008178 0.101797 -0.081426
-0.050874 0.135749 -0.036658
-0.009619 0.135693 -0.036742
0.094468 0.136635 -0.037449
0.154296 0.138360 -0.034086
0.229212 0.151279 -0.033731
0.313236 0.166439 -0.037937
0.403334 0.179162 -0.042785
0.490657 0.187680 -0.049308
0.572137 0.192328 -0.056451
0.645283 0.193623 -0.063256
0.711003 0.191798 -0.069535
0.772737 0.191515 -0.074204
0.831305 0.187971 -0.078180
0.888195 0.186151 -0.080950
0.938390 0.183495 -0.081511
1.008179 0.178718 -0.081416
-0.051157 0.203105 -0.036830
0.008376 0.203078 -0.036830
0.103906 0.203105 -0.036842
0.165448 0.203078 -0.036567
0.227659 0.207246 -0.039480
0.314130 0.228367 -0.044140
0.402807 0.244989 -0.050769
0.490347 0.257047 -0.056594
0.571963 0.263994 -0.062622
0.645055 0.266375 -0.068256
0.711963 0.265597 -0.072765
0.772514 0.264464 -0.076673
0.832258 0.262731 -0.079956
0.888195 0.258859 -0.081492
0.938391 0.255385 -0.081445
1.008179 0.249026 -0.081413
-0.058776 0.281764 -0.048769
-0.032576 0.281764 -0.048769
0.112659 0.281764 -0.048607
0.181007 0.281764 -0.050656
0.244329 0.280514 -0.053534
0.312519 0.287607 -0.055220
0.402073 0.310021 -0.060122
0.489939 0.325862 -0.064794
0.571681 0.335043 -0.069446
0.644871 0.338388 -0.073656
0.711626 0.339013 -0.077006
0.772302 0.335265 -0.079904
0.832258 0.334181 -0.081359
0.888195 0.329984 -0.081494
0.938391 0.325795 -0.081417
1.008179 0.317779 -0.081413
-0.068575 0.368599 -0.062114
-0.049503 0.368599 -0.062114
0.117823 0.368599 -0.061983
0.193241 0.369831 -0.063044
0.262828 0.368237 -0.064955
0.328148 0.367652 -0.066724
0.400499 0.373965 -0.068995
0.489330 0.394534 -0.072527
0.571377 0.406113 -0.075758
0.644714 0.410498 -0.078474
0.711408 0.411138 -0.080319
0.772241 0.409383 -0.081557
0.832258 0.405235 -0.081499
0.888195 0.400823 -0.081423
0.938391 0.395848 -0.081413
1.008179 0.386164 -0.081413
-0.077326 0.459170 -0.073136
-0.061625 0.459170 -0.073134
0.120774 0.459170 -0.073045
0.204419 0.459170 -0.073585
0.276083 0.458749 -0.075219
0.349117 0.458915 -0.076140
0.417184 0.458749 -0.077222
0.488067 0.462594 -0.078567
0.571006 0.477483 -0.080368
0.644651 0.483074 -0.081448
0.711006 0.482351 -0.081628
0.772155 0.480957 -0.081464
0.832258 0.476453 -0.081418
0.888195 0.471740 -0.081413
0.938391 0.466070 -0.081413
1.008179 0.454669 -0.081413
-0.083209 0.547952 -0.080306
-0.068958 0.547952 -0.080296
0.122784 0.547952 -0.080540
0.209145 0.547952 -0.080689
0.286888 0.547886 -0.080864
0.360651 0.547716 -0.081168
0.432111 0.547886 -0.081599
0.501381 0.547716 -0.081753
0.570200 0.548694 -0.081621
0.644536 0.556045 -0.081484
0.710377 0.555419 -0.081424
0.772038 0.553168 -0.081413
0.832258 0.549662 -0.081413
0.888195 0.542989 -0.081413
0.938391 0.536735 -0.081413
1.008179 0.523580 -0.081413
-0.084324 0.629587 -0.081631
-0.070047 0.629587 -0.081625
0.123056 0.629587 -0.081605
0.211092 0.629587 -0.081583
0.291039 0.629594 -0.081545
0.365937 0.629594 -0.081504
0.438025 0.629594 -0.081458
0.508513 0.629594 -0.081425
0.577139 0.629469 -0.081414
0.644071 0.629009 -0.081413
0.710259 0.628524 -0.081413
0.772503 0.626304 -0.081413
0.832258 0.621519 -0.081413
0.888195 0.616133 -0.081413
0.938391 0.607645 -0.081413
1.008179 0.592870 -0.081413
-0.084178 0.704641 -0.081413
-0.069640 0.704641 -0.081413
0.124050 0.704641 -0.081413
0.211514 0.704641 -0.081413
0.290945 0.704641 -0.081413
0.365807 0.704641 -0.081413
0.438587 0.704641 -0.081413
0.509021 0.704641 -0.081413
0.577910 0.704641 -0.081413
0.645331 0.704618 -0.081413
0.711814 0.704364 -0.081413
0.772819 0.700237 -0.081413
0.831305 0.694582 -0.081413
0.888195 0.688239 -0.081413
0.938391 0.678977 -0.081413
1.008179 0.662538 -0.081413
-0.084189 0.774807 -0.081413
-0.069552 0.774807 -0.081413
0.122781 0.774807 -0.081413
0.211151 0.774807 -0.081413
0.289585 0.774807 -0.081413
0.364078 0.774807 -0.081413
0.435964 0.774807 -0.081413
0.505976 0.774807 -0.081413
0.574453 0.774807 -0.081413
0.641608 0.774807 -0.081413
0.707623 0.774807 -0.081413
0.773037 0.774807 -0.081413
0.831305 0.767372 -0.081413
0.888195 0.760679 -0.081413
0.938391 0.750936 -0.081413
1.008179 0.732629 -0.081413
-0.084195 0.841033 -0.081413
-0.069565 0.841033 -0.081413
0.121642 0.841033 -0.081413
0.209202 0.841033 -0.081413
0.286829 0.841033 -0.081413
0.360621 0.841033 -0.081413
0.431848 0.841033 -0.081413
0.501221 0.841033 -0.081413
0.568995 0.841033 -0.081413
0.635506 0.841033 -0.081413
0.700917 0.841033 -0.081413
0.765917 0.841033 -0.081413
0.830585 0.840747 -0.081413
0.888195 0.833189 -0.081413
0.938391 0.822642 -0.081413
1.008179 0.802755 -0.081413
-0.084173 0.904096 -0.081413
-0.069688 0.904096 -0.081413
0.120788 0.904096 -0.081413
0.206063 0.904096 -0.081413
0.283052 0.904096 -0.081413
0.356023 0.904096 -0.081413
0.426793 0.904096 -0.081413
0.495366 0.904096 -0.081413
0.562362 0.904096 -0.081413
0.628079 0.904096 -0.081413
0.693218 0.904096 -0.081413
0.756168 0.904096 -0.081413
0.820732 0.904596 -0.081413
0.886086 0.905588 -0.081413
0.938588 0.895083 -0.081413
1.008179 0.873199 -0.081413
-0.084131 0.965490 -0.081413
-0.069786 0.965490 -0.081413
0.118713 0.965490 -0.081413
0.203508 0.965490 -0.081413
0.278312 0.965490 -0.081413
0.350220 0.965490 -0.081413
0.421110 0.965490 -0.081413
0.488738 0.965490 -0.081413
0.554933 0.965490 -0.081413
0.619781 0.965490 -0.081413
0.683703 0.965490 -0.081413
0.747010 0.965490 -0.081413
0.810707 0.966011 -0.081413
0.873661 0.965098 -0.081413
0.935972 0.966875 -0.081413
1.008491 0.946062 -0.081413
-0.084330 1.056889 -0.084349
-0.070185 1.056883 -0.084603
0.116702 1.056865 -0.085321
0.199926 1.056847 -0.086154
0.274545 1.056836 -0.086801
0.344860 1.056829 -0.087205
0.413547 1.056829 -0.087322
0.479398 1.056833 -0.087191
0.543828 1.056841 -0.086859
0.607042 1.056852 -0.086399
0.668879 1.056863 -0.085858
0.730824 1.056874 -0.085319
0.792225 1.056901 -0.084831
0.854507 1.056926 -0.084448
0.915674 1.057227 -0.084206
1.008796 1.057875 -0.084090
-0.081901 -0.429900 -0.043543
-0.065586 -0.429979 -0.045668
0.082085 -0.429062 0.016266
0.149700 -0.428589 0.038762
0.226524 -0.428295 0.051226
0.311058 -0.428058 0.061115
0.402723 -0.428066 0.066050
0.490852 -0.428223 0.066519
0.572932 -0.428452 0.062747
0.646535 -0.428766 0.054943
0.712623 -0.429106 0.042963
0.775649 -0.429449 0.020538
0.833226 -0.429728 -0.030221
0.889917 -0.429946 -0.042480
0.939404 -0.430057 -0.047396
1.008491 -0.430064 -0.049373
-0.084216 -0.063397 -0.053943
-0.067712 -0.064479 -0.056216
0.082085 -0.049259 0.015908
0.150616 -0.039575 0.036803
0.229359 -0.031777 0.047644
0.312331 -0.024212 0.055842
0.403466 -0.026187 0.059034
0.490906 -0.032729 0.057850
0.572367 -0.040492 0.052048
0.645440 -0.047773 0.041223
0.710364 -0.054026 0.019797
0.773770 -0.059283 -0.033564
0.831317 -0.062707 -0.044256
0.888195 -0.065614 -0.051519
0.938404 -0.066731 -0.054410
1.008178 -0.066528 -0.054439
-0.060848 0.075975 0.028120
-0.022177 0.075722 0.036850
0.086044 0.076213 0.035615
0.151536 0.083394 0.040605
0.228151 0.092273 0.044044
0.312277 0.100023 0.044051
0.403363 0.106539 0.044044
0.490864 0.111219 0.041082
0.572223 0.113936 0.035771
0.645398 0.114816 0.027366
0.710239 0.114883 -0.013638
0.773727 0.111922 -0.035229
0.831311 0.107986 -0.045835
0.888195 0.106837 -0.052056
0.938397 0.104735 -0.054436
1.008178 0.101859 -0.054390
-0.051677 0.135749 0.042323
0.024169 0.135693 0.047265
0.096026 0.136635 0.044185
0.154511 0.138369 0.045805
0.229209 0.151697 0.045544
0.313235 0.164802 0.044479
0.403330 0.177551 0.041827
0.490657 0.186005 0.037804
0.572138 0.191071 0.031333
0.645283 0.192929 0.020502
0.711003 0.191774 -0.026036
0.772737 0.191325 -0.039866
0.831305 0.187808 -0.048384
0.888195 0.186224 -0.053544
0.938390 0.183236 -0.054541
1.008179 0.178747 -0.054372
-0.051770 0.203105 0.046586
0.022292 0.203078 0.049828
0.103076 0.203105 0.044018
0.166263 0.203078 0.044912
0.227656 0.207192 0.043348
0.314130 0.227759 0.041505
0.402803 0.244395 0.036681
0.490347 0.256468 0.031172
0.571963 0.263662 0.021936
0.645055 0.266238 -0.020030
0.711964 0.265530 -0.036256
0.772515 0.264256 -0.045324
0.832258 0.262564 -0.051750
0.888195 0.258876 -0.054508
0.938391 0.255258 -0.054421
1.008179 0.249041 -0.054369
-0.059115 0.281764 0.043185
-0.023650 0.281764 0.047002
0.110376 0.281764 0.038296
0.180200 0.281764 0.037031
0.244131 0.280551 0.034530
0.312519 0.287530 0.032208
0.402072 0.309940 0.026452
0.489939 0.325814 0.016125
0.571681 0.335022 -0.025649
0.644872 0.338248 -0.038505
0.711626 0.338941 -0.046034
0.772303 0.336610 -0.051651
0.832258 0.334045 -0.054264
0.888195 0.330022 -0.054513
0.938391 0.325710 -0.054374
1.008179 0.317788 -0.054369
-0.068731 0.368599 0.025585
-0.047091 0.368599 0.030394
0.116715 0.368599 0.022534
0.194377 0.369831 0.020403
0.262718 0.368236 0.015245
0.328128 0.367605 -0.002828
0.400496 0.373963 -0.023775
0.489329 0.394523 -0.035616
0.571377 0.406075 -0.043398
0.644714 0.410393 -0.048956
0.711409 0.411070 -0.052414
0.772241 0.409189 -0.054624
0.832258 0.405005 -0.054518
0.888195 0.400788 -0.054381
0.938391 0.395742 -0.054369
1.008179 0.386178 -0.054369
-0.077368 0.459170 -0.038133
-0.061019 0.459170 -0.037092
0.120760 0.459170 -0.036994
0.204366 0.459170 -0.038362
0.276085 0.458751 -0.042209
0.349118 0.458917 -0.044226
0.417172 0.458751 -0.046477
0.488068 0.462596 -0.049139
0.571007 0.477501 -0.052500
0.644651 0.483024 -0.054422
0.711007 0.482374 -0.054743
0.772155 0.480871 -0.054458
0.832258 0.477827 -0.054376
0.888195 0.471678 -0.054369
0.938391 0.466035 -0.054369
1.008179 0.454677 -0.054369
-0.083172 0.547952 -0.051755
-0.069272 0.547953 -0.052427
0.121154 0.547952 -0.052811
0.209199 0.547953 -0.053086
0.286848 0.547886 -0.053392
0.360643 0.547716 -0.053936
0.432077 0.547886 -0.054696
0.501372 0.547716 -0.054964
0.570203 0.548698 -0.054722
0.644537 0.556014 -0.054484
0.710382 0.555427 -0.054384
0.772039 0.553162 -0.054369
0.832258 0.549532 -0.054369
0.888195 0.542967 -0.054369
0.938391 0.536634 -0.054369
1.008179 0.523587 -0.054369
-0.084246 0.629587 -0.053358
-0.070953 0.629587 -0.054882
0.123259 0.629587 -0.054703
0.211138 0.629587 -0.054659
0.290999 0.629594 -0.054603
0.365896 0.629594 -0.054526
0.437994 0.629594 -0.054442
0.508472 0.629594 -0.054387
0.577129 0.629470 -0.054372
0.644077 0.629011 -0.054369
0.710226 0.628523 -0.054369
0.772509 0.626309 -0.054369
0.832258 0.621506 -0.054369
0.888195 0.616137 -0.054369
0.938391 0.607610 -0.054369
1.008179 0.592872 -0.054369
-0.084068 0.704641 -0.052469
-0.070919 0.704641 -0.054566
0.122546 0.704641 -0.054369
0.211619 0.704641 -0.054369
0.290830 0.704641 -0.054369
0.365797 0.704641 -0.054369
0.438445 0.704641 -0.054369
0.508998 0.704641 -0.054369
0.577851 0.704641 -0.054369
0.645288 0.704618 -0.054369
0.711772 0.704455 -0.054369
0.773625 0.701075 -0.054369
0.831305 0.694638 -0.054369
0.888195 0.688238 -0.054369
0.938391 0.679032 -0.054369
1.008179 0.662538 -0.054369
-0.084068 0.774807 -0.052258
-0.071069 0.774807 -0.054590
0.123155 0.774807 -0.054369
0.209815 0.774807 -0.054369
0.289619 0.774807 -0.054369
0.364059 0.774807 -0.054369
0.435855 0.774807 -0.054369
0.505915 0.774807 -0.054369
0.574394 0.774807 -0.054369
0.641481 0.774807 -0.054369
0.708712 0.774807 -0.054369
0.772956 0.774807 -0.054369
0.831305 0.767332 -0.054369
0.888195 0.760681 -0.054369
0.938391 0.750898 -0.054369
1.008179 0.732631 -0.054369
-0.084068 0.841033 -0.052276
-0.071069 0.841033 -0.054592
0.122008 0.841033 -0.054369
0.207925 0.841033 -0.054369
0.285345 0.841033 -0.054369
0.360601 0.841033 -0.054369
0.431732 0.841033 -0.054369
0.501148 0.841033 -0.054369
0.568997 0.841033 -0.054369
0.635469 0.841033 -0.054369
0.700846 0.841033 -0.054369
0.765876 0.841033 -0.054369
0.830587 0.840730 -0.054369
0.888195 0.833192 -0.054369
0.938391 0.822627 -0.054369
1.008179 0.802756 -0.054369
-0.084068 0.904096 -0.052542
-0.070919 0.904097 -0.054557
0.119323 0.904096 -0.054369
0.206233 0.904097 -0.054369
0.283001 0.904097 -0.054369
0.355891 0.904097 -0.054369
0.426669 0.904097 -0.054369
0.495276 0.904097 -0.054369
0.562301 0.904097 -0.054369
0.628014 0.904097 -0.054369
0.693185 0.904097 -0.054369
0.756089 0.904097 -0.054369
0.820736 0.904586 -0.054369
0.886086 0.905589 -0.054369
0.938588 0.895074 -0.054369
1.008179 0.873200 -0.054369
-0.084068 0.965490 -0.053058
-0.070692 0.965490 -0.054483
0.118833 0.965490 -0.054369
0.203540 0.965490 -0.054369
0.278106 0.965490 -0.054369
0.351573 0.965490 -0.054369
0.420967 0.965490 -0.054369
0.488693 0.965490 -0.054369
0.554921 0.965490 -0.054369
0.619733 0.965490 -0.054369
0.683648 0.965490 -0.054369
0.747045 0.965490 -0.054369
0.810711 0.966012 -0.054369
0.873661 0.965099 -0.054369
0.935972 0.966876 -0.054369
1.008491 0.946062 -0.054369
-0.085016 1.056872 -0.072755
-0.070692 1.056868 -0.072923
0.116597 1.056858 -0.073627
0.199913 1.056844 -0.074803
0.274493 1.056834 -0.076171
0.344785 1.056829 -0.077321
0.413521 1.056829 -0.078012
0.479407 1.056834 -0.078358
0.543835 1.056841 -0.078440
0.607047 1.056852 -0.078330
0.668884 1.056863 -0.078024
0.730829 1.056873 -0.077444
0.792226 1.056901 -0.076875
0.854507 1.056927 -0.076423
0.915674 1.057227 -0.075896
1.008796 1.057875 -0.075432
-0.073518 -0.429352 0.098991
-0.061689 -0.429412 0.098734
0.084164 -0.428998 0.101441
0.148788 -0.428532 0.108752
0.226510 -0.428220 0.122579
0.311089 -0.428072 0.136288
0.402749 -0.428069 0.146548
0.490881 -0.428230 0.153299
0.572920 -0.428460 0.156241
0.646530 -0.428774 0.155897
0.712738 -0.429115 0.155267
0.775644 -0.429435 0.150661
0.833226 -0.429770 0.147401
0.889917 -0.429943 0.145184
0.939403 -0.430058 0.141759
1.008491 -0.430064 0.137831
-0.076398 -0.062987 0.092390
-0.055558 -0.055195 0.092115
0.084649 -0.047460 0.095601
0.150616 -0.035989 0.105788
0.228259 -0.023320 0.117226
0.312313 -0.012919 0.131564
0.403445 -0.011860 0.140648
0.490890 -0.023094 0.146843
0.572352 -0.033143 0.149411
0.645434 -0.041749 0.148934
0.710343 -0.048823 0.147131
0.773764 -0.053834 0.144111
0.831316 -0.059060 0.141025
0.888195 -0.061680 0.137934
0.938403 -0.063124 0.135509
1.008178 -0.063145 0.132031
-0.061207 0.077250 0.098137
-0.021437 0.077036 0.098085
0.087151 0.075331 0.097330
0.152451 0.075886 0.100198
0.228182 0.077656 0.105757
0.312262 0.077112 0.109227
0.403409 0.076874 0.112984
0.490850 0.075554 0.114358
0.572268 0.073792 0.113863
0.645409 0.071628 0.112014
0.710307 0.069921 0.110096
0.773739 0.067005 0.106432
0.831312 0.065352 0.104058
0.888195 0.064929 0.102922
0.938398 0.063825 0.101273
1.008178 0.064161 0.100686
-0.051613 0.135774 0.105096
0.026413 0.135776 0.106905
0.088433 0.135774 0.100660
0.154572 0.136338 0.100991
0.229097 0.144075 0.100979
0.313262 0.151360 0.101430
0.403222 0.159913 0.100163
0.490681 0.165035 0.098974
0.572158 0.168041 0.097359
0.645359 0.168839 0.095505
0.710141 0.169240 0.092516
0.772801 0.167805 0.090668
0.831305 0.164072 0.090118
0.888195 0.164723 0.087745
0.938390 0.162366 0.088523
1.008179 0.158952 0.088545
-0.051879 0.203089 0.114676
0.026163 0.203089 0.116436
0.088433 0.203089 0.102081
0.161994 0.203089 0.101230
0.227667 0.206003 0.101101
0.314149 0.222832 0.098103
0.402803 0.235694 0.098643
0.490365 0.245311 0.097295
0.571979 0.250918 0.095642
0.645137 0.252683 0.093863
0.710988 0.253347 0.092409
0.772599 0.251987 0.090653
0.832258 0.248429 0.089348
0.888195 0.245738 0.088548
0.938391 0.242964 0.088548
1.008179 0.237335 0.088548
-0.059252 0.281748 0.123742
0.006197 0.281747 0.125847
0.086044 0.281748 0.101457
0.170936 0.281747 0.097494
0.241577 0.280552 0.098734
0.312528 0.287068 0.097353
0.402147 0.305955 0.096298
0.489947 0.319641 0.094922
0.571692 0.327468 0.093409
0.644914 0.330049 0.091831
0.711642 0.329888 0.090192
0.772345 0.327205 0.088632
0.832258 0.325505 0.087747
0.888195 0.322016 0.088548
0.938391 0.317319 0.088548
1.008179 0.309798 0.088548
-0.068833 0.368566 0.130569
-0.041491 0.368566 0.132601
0.082085 0.368566 0.100985
0.178695 0.369798 0.096422
0.256535 0.368365 0.095063
0.326806 0.369212 0.093834
0.400755 0.373395 0.093455
0.489362 0.391724 0.092216
0.571382 0.401886 0.090963
0.644716 0.405368 0.089846
0.711415 0.405093 0.089362
0.772243 0.402662 0.088245
0.832258 0.400439 0.088548
0.888195 0.394904 0.088548
0.938391 0.389659 0.088548
1.008179 0.380317 0.088548
-0.077437 0.459161 0.134850
-0.056416 0.459161 0.136776
0.076594 0.459161 0.098623
0.185801 0.459161 0.090897
0.267718 0.458762 0.091117
0.344172 0.459039 0.092173
0.415636 0.458762 0.090313
0.488173 0.462230 0.089770
0.571027 0.475526 0.089004
0.644651 0.480021 0.088542
0.711037 0.479765 0.088196
0.772155 0.477462 0.088542
0.832258 0.473291 0.088548
0.888195 0.467308 0.088548
0.938391 0.461488 0.088548
1.008179 0.450287 0.088548
-0.083205 0.547948 0.137192
-0.064901 0.547948 0.138916
0.072707 0.547948 0.096179
0.188694 0.549033 0.089938
0.275561 0.547885 0.087650
0.354299 0.547748 0.088378
0.428875 0.547885 0.088455
0.500150 0.547748 0.088378
0.570259 0.548481 0.088464
0.644492 0.554684 0.088527
0.710468 0.552776 0.088464
0.772026 0.551191 0.088527
0.832258 0.546088 0.088548
0.888195 0.541159 0.088548
0.938391 0.533186 0.088548
1.008179 0.520224 0.088548
-0.084243 0.629587 0.138936
-0.066436 0.629587 0.140421
0.072707 0.629587 0.098139
0.190768 0.629587 0.088032
0.280447 0.629594 0.088531
0.358337 0.629594 0.088539
0.433719 0.629594 0.088531
0.506064 0.629594 0.088539
0.576185 0.629481 0.088547
0.644090 0.628930 0.088548
0.711772 0.628555 0.088547
0.772557 0.625445 0.088548
0.832258 0.620518 0.088548
0.888195 0.613700 0.088548
0.938391 0.605157 0.088548
1.008179 0.590328 0.088548
-0.084068 0.704641 0.139449
-0.066251 0.704641 0.140780
0.072707 0.704641 0.097564
0.191084 0.704641 0.088666
0.279798 0.704641 0.088548
0.359146 0.704641 0.088548
0.433563 0.704641 0.088548
0.505800 0.704641 0.088548
0.576017 0.704641 0.088548
0.644562 0.704618 0.088548
0.710125 0.703608 0.088548
0.772496 0.699887 0.088548
0.831305 0.694308 0.088548
0.888195 0.686375 0.088548
0.938391 0.677180 0.088548
1.008179 0.660556 0.088548
-0.084068 0.774807 0.138748
-0.066251 0.774807 0.139996
0.072707 0.774807 0.097953
0.190091 0.774807 0.088125
0.276879 0.774807 0.088548
0.355650 0.774807 0.088548
0.430589 0.774807 0.088548
0.502268 0.774807 0.088548
0.571979 0.774807 0.088548
0.640128 0.774807 0.088548
0.705939 0.774807 0.088548
0.773719 0.774807 0.088548
0.831305 0.767844 0.088548
0.888195 0.759389 0.088548
0.938391 0.749607 0.088548
1.008179 0.731173 0.088548
-0.084068 0.841033 0.137419
-0.066251 0.841033 0.138661
0.072707 0.841033 0.097330
0.188656 0.841033 0.088097
0.274129 0.841033 0.088548
0.352104 0.841033 0.088548
0.426273 0.841033 0.088548
0.497256 0.841033 0.088548
0.566190 0.841033 0.088548
0.633603 0.841033 0.088548
0.700242 0.841033 0.088548
0.764557 0.841033 0.088548
0.829874 0.839653 0.088548
0.888195 0.833906 0.088548
0.938391 0.821910 0.088548
1.008179 0.801632 0.088548
-0.084068 0.904096 0.135664
-0.066251 0.904097 0.136986
0.072707 0.904096 0.095871
0.185164 0.904097 0.088590
0.271756 0.904096 0.088548
0.348770 0.904096 0.088548
0.421088 0.904096 0.088548
0.491210 0.904096 0.088548
0.559362 0.904096 0.088548
0.625929 0.904096 0.088548
0.690945 0.904096 0.088548
0.755824 0.904096 0.088548
0.820469 0.904511 0.088548
0.886053 0.905427 0.088548
0.938587 0.894822 0.088548
1.008179 0.872713 0.088548
-0.084068 0.965490 0.133580
-0.066251 0.965490 0.134983
0.072707 0.965490 0.095679
0.184684 0.965490 0.087980
0.268531 0.965490 0.088548
0.342920 0.965490 0.088548
0.415423 0.965490 0.088548
0.484574 0.965490 0.088548
0.551780 0.965490 0.088548
0.617488 0.965490 0.088548
0.681169 0.965490 0.088548
0.745241 0.965490 0.088548
0.810237 0.966058 0.088548
0.873367 0.964954 0.088548
0.935859 0.966830 0.088548
1.008493 0.945818 0.088548
-0.085622 1.056858 0.116752
-0.068541 1.056856 0.118329
0.074339 1.056849 0.071563
0.185453 1.056840 0.072039
0.265535 1.056832 0.071181
0.339289 1.056828 0.070314
0.409320 1.056829 0.068860
0.476323 1.056834 0.068000
0.541431 1.056842 0.067443
0.605270 1.056852 0.067131
0.668171 1.056863 0.066674
0.730602 1.056874 0.067901
0.790584 1.056904 0.067928
0.854390 1.056931 0.068496
0.915424 1.057231 0.068692
1.008800 1.057881 0.069264
-0.066752 -0.428965 0.169509
-0.050526 -0.429014 0.169634
0.095007 -0.428713 0.171436
0.155862 -0.428410 0.172522
0.227878 -0.428157 0.187201
0.312467 -0.428008 0.204302
0.403089 -0.428082 0.220219
0.491046 -0.428243 0.230846
0.573036 -0.428480 0.236589
0.646622 -0.428794 0.238028
0.712789 -0.429126 0.237784
0.775738 -0.429467 0.234157
0.833231 -0.429748 0.232428
0.889917 -0.429962 0.228554
0.939409 -0.430059 0.225363
1.008493 -0.430064 0.219949
-0.070223 -0.056649 0.162744
-0.046041 -0.048441 0.162603
0.095989 -0.041856 0.163681
0.154754 -0.032524 0.164498
0.228276 -0.020054 0.179078
0.312283 0.005803 0.196324
0.403492 -0.013950 0.212681
0.490863 -0.023880 0.222627
0.572326 -0.033725 0.228046
0.645424 -0.042067 0.229348
0.710304 -0.048824 0.229075
0.773754 -0.054740 0.225660
0.831315 -0.058730 0.222625
0.888195 -0.061929 0.220682
0.938401 -0.063133 0.217314
1.008178 -0.063142 0.212215
-0.059651 0.083904 0.164898
-0.010125 0.085677 0.164889
0.088093 0.075809 0.165841
0.155339 0.076759 0.165833
0.228190 0.078107 0.176973
0.312268 0.079633 0.189730
0.403418 0.078107 0.201539
0.490856 0.077286 0.209351
0.572217 0.075866 0.213423
0.645396 0.074156 0.214315
0.710230 0.071211 0.212430
0.773726 0.070283 0.211971
0.831311 0.068132 0.208839
0.888195 0.067389 0.206664
0.938397 0.066597 0.203889
1.008178 0.066623 0.199741
-0.051506 0.139475 0.165675
0.026637 0.139377 0.165669
0.089233 0.137915 0.165675
0.154042 0.134816 0.163784
0.229157 0.136383 0.169917
0.312113 0.136367 0.174494
0.403259 0.134615 0.176831
0.490706 0.133720 0.178681
0.572185 0.132654 0.178783
0.645372 0.131575 0.177763
0.710182 0.130035 0.175327
0.774649 0.129819 0.174744
0.831305 0.129125 0.173074
0.888195 0.127580 0.170793
0.938391 0.128258 0.170480
1.008179 0.128446 0.169781
-0.052145 0.203063 0.175695
0.025846 0.203063 0.176267
0.088433 0.203063 0.173641
0.153862 0.203063 0.166045
0.228803 0.204141 0.165687
0.314161 0.210497 0.165923
0.402875 0.217837 0.164726
0.490377 0.222260 0.164030
0.571997 0.224827 0.163105
0.645120 0.225401 0.162148
0.711015 0.224547 0.161227
0.772581 0.224376 0.160272
0.831305 0.222829 0.159211
0.888195 0.218813 0.159211
0.938391 0.218201 0.159211
1.008179 0.214379 0.159211
-0.059579 0.281707 0.191171
0.002782 0.281707 0.192003
0.086835 0.281707 0.184095
0.151364 0.281707 0.166342
0.236429 0.282468 0.164378
0.312527 0.284612 0.163622
0.402173 0.298223 0.163426
0.489947 0.307572 0.162689
0.571699 0.312657 0.161834
0.644918 0.313909 0.160986
0.711654 0.311499 0.160901
0.772350 0.309885 0.158164
0.832258 0.307813 0.159211
0.888195 0.303960 0.159211
0.938391 0.301481 0.159211
