cold.cube
LUT_3D_SIZE 6
-0.069494 -0.069494 -0.069494
0.142096 -0.069494 -0.069494
0.358222 -0.069494 -0.069494
0.576290 -0.069494 -0.069494
0.763376 -0.069494 -0.069494
0.935550 -0.069494 -0.069494
-0.069494 0.147072 -0.069494
0.142096 0.147072 -0.069494
0.358222 0.179472 -0.069494
0.576290 0.191389 -0.069494
0.763376 0.189935 -0.069494
0.935550 0.186001 -0.069494
-0.069494 0.368859 -0.069494
0.173684 0.368859 -0.069494
0.358222 0.368859 -0.069494
0.576290 0.393986 -0.069494
0.763376 0.390985 -0.069494
0.935550 0.383059 -0.069494
-0.069494 0.593378 -0.069494
0.185743 0.593378 -0.069494
0.382592 0.593378 -0.069494
0.576290 0.593378 -0.069494
0.763376 0.588863 -0.069494
0.935550 0.577030 -0.069494
-0.069494 0.785261 -0.069494
0.183901 0.785261 -0.069494
0.379293 0.785261 -0.069494
0.571308 0.785261 -0.069494
0.763376 0.785987 -0.069494
0.935550 0.770285 -0.069494
-0.069494 0.963333 -0.069494
0.180167 0.963333 -0.069494
0.371996 0.963333 -0.069494
0.560412 0.963333 -0.069494
0.747629 0.963333 -0.069494
0.935550 0.963333 -0.069494
-0.069494 -0.069494 0.204682
0.142096 -0.069494 0.204682
0.358222 -0.069494 0.249788
0.576290 -0.069494 0.266373
0.763376 -0.069494 0.264339
0.935550 -0.069494 0.258857
-0.069494 0.147072 0.204682
0.142096 0.147072 0.204682
0.358222 0.147072 0.204682
0.576290 0.147072 0.204682
0.763376 0.147072 0.204682
0.935551 0.147072 0.204682
-0.069494 0.368859 0.249788
0.142096 0.368859 0.203928
0.358222 0.368859 0.204682
0.576290 0.384690 0.204682
0.763376 0.379441 0.204682
0.935551 0.371805 0.204682
-0.069494 0.593378 0.266373
0.142096 0.593378 0.204827
0.373591 0.593378 0.204682
0.576290 0.593378 0.204682
0.763376 0.584971 0.204682
0.935551 0.572061 0.204682
-0.069494 0.785261 0.263863
0.142096 0.785261 0.203835
0.368396 0.785261 0.204682
0.567550 0.785261 0.204682
0.763376 0.785547 0.204682
0.935551 0.768350 0.204682
-0.069494 0.963333 0.258857
0.142096 0.963333 0.204095
0.361094 0.963333 0.204682
0.555568 0.963333 0.204682
0.746137 0.963333 0.204682
0.935551 0.963333 0.204682
-0.069494 -0.069494 0.513361
0.173684 -0.069494 0.513361
0.358222 -0.069494 0.513361
0.576290 -0.069494 0.548302
0.763376 -0.069494 0.544178
0.935550 -0.069494 0.533110
-0.069494 0.179472 0.513361
0.142096 0.146533 0.513361
0.358222 0.147072 0.513361
0.576290 0.147072 0.535423
0.763376 0.147072 0.528067
0.935551 0.147072 0.517470
-0.069494 0.368859 0.513361
0.142096 0.368859 0.513361
0.358222 0.368859 0.513361
0.576290 0.368859 0.513361
0.763376 0.368859 0.513361
0.935551 0.368859 0.513361
-0.069494 0.593378 0.548302
0.142096 0.593378 0.536312
0.358222 0.593378 0.513361
0.576290 0.593378 0.513361
0.763376 0.581275 0.513361
0.935551 0.570764 0.513361
-0.069494 0.785261 0.543535
0.142096 0.785261 0.527512
0.358222 0.785261 0.513361
0.564195 0.785261 0.513361
0.763376 0.785600 0.513361
0.935551 0.767878 0.513361
-0.069494 0.963333 0.533110
0.142096 0.963333 0.517136
0.358222 0.963333 0.513361
0.554295 0.963333 0.513361
0.745106 0.963333 0.513361
0.935551 0.963333 0.513361
-0.069494 -0.069494 0.825894
0.185743 -0.069494 0.825894
0.382592 -0.069494 0.825894
0.576290 -0.069494 0.825894
0.763376 -0.069494 0.819550
0.935550 -0.069494 0.803077
-0.069494 0.191389 0.825894
0.142096 0.147175 0.825894
0.373591 0.147072 0.825894
0.576290 0.147072 0.825894
0.763376 0.147072 0.814179
0.935551 0.147072 0.796186
-0.069494 0.393986 0.825894
0.142096 0.385345 0.825894
0.358222 0.368859 0.825894
0.576290 0.368859 0.825894
0.763376 0.368859 0.808981
0.935551 0.368859 0.794322
-0.069494 0.593378 0.825894
0.142096 0.593378 0.825894
0.358222 0.593378 0.825894
0.576290 0.593378 0.825894
0.763376 0.593378 0.825894
0.935551 0.593378 0.825894
-0.069494 0.785261 0.818702
0.142096 0.785261 0.813352
0.358222 0.785261 0.808541
0.576290 0.785261 0.825894
0.763376 0.785464 0.825894
0.935551 0.776763 0.825894
-0.069494 0.963333 0.803077
0.142096 0.963333 0.796407
0.358222 0.963333 0.794322
0.576290 0.963333 0.825894
0.754205 0.963333 0.825894
0.935551 0.963333 0.825894
-0.069494 -0.069494 0.991784
0.183901 -0.069494 0.991784
0.379293 -0.069494 0.991784
0.571308 -0.069494 0.991784
0.763376 -0.069494 0.991890
0.935550 -0.069494 0.988367
-0.069494 0.189602 0.991784
0.142096 0.146459 0.991784
0.368396 0.147072 0.991784
0.567550 0.147072 0.991784
0.763376 0.147072 0.991751
0.935551 0.147072 0.987893
-0.069494 0.390551 0.991784
0.142096 0.378996 0.991784
0.358222 0.368859 0.991785
0.564195 0.368859 0.991785
0.763376 0.368859 0.991763
0.935551 0.368859 0.987694
-0.069494 0.588275 0.991784
0.142096 0.584389 0.991784
0.358222 0.580941 0.991785
0.576290 0.593378 0.991784
0.763376 0.593378 0.991838
0.935551 0.593378 0.989918
-0.069494 0.785261 0.991784
0.142096 0.785261 0.991784
0.358222 0.785261 0.991785
0.576290 0.785261 0.991784
0.763376 0.785261 0.991784
0.935550 0.785261 0.991784
-0.069494 0.963333 0.988367
0.142096 0.963333 0.987893
0.358222 0.963333 0.987694
0.576290 0.963333 0.989918
0.762319 0.963333 0.991613
0.935550 0.963333 0.991784
-0.069494 -0.069494 1.000038
0.180167 -0.069494 1.000038
0.371996 -0.069494 1.000038
0.560412 -0.069494 1.000038
0.747629 -0.069494 1.000038
0.935550 -0.069494 1.000038
-0.069494 0.186001 1.000038
0.142096 0.146656 1.000038
0.361094 0.147072 1.000038
0.555568 0.147072 1.000038
0.746137 0.147072 1.000038
0.935551 0.147072 1.000038
-0.069494 0.383059 1.000038
0.142096 0.371558 1.000038
0.358222 0.368859 1.000038
0.554295 0.368859 1.000038
0.745106 0.368859 1.000038
0.935551 0.368859 1.000038
-0.069494 0.577030 1.000038
0.142096 0.572237 1.000038
0.358222 0.570764 1.000038
0.576290 0.593378 1.000038
0.754205 0.593378 1.000038
0.935551 0.593378 1.000038
-0.069494 0.770285 1.000038
0.142096 0.768348 1.000038
0.358222 0.767878 1.000038
0.576290 0.776763 1.000038
0.762319 0.784323 1.000038
0.935550 0.785261 1.000038
-0.069494 0.963333 1.000038
0.142096 0.963333 1.000038
0.358222 0.963333 1.000038
0.576290 0.963333 1.000038
0.763376 0.963333 1.000038
0.935551 0.963333 1.000038
