cold.cube
LUT_3D_SIZE 16
-0.069494 -0.069494 -0.069494
-0.031715 -0.069494 -0.069494
0.078944 -0.069494 -0.069494
0.142096 -0.069494 -0.069494
0.209634 -0.069494 -0.069494
0.282733 -0.069494 -0.069494
0.358222 -0.069494 -0.069494
0.434127 -0.069494 -0.069494
0.507796 -0.069494 -0.069494
0.576290 -0.069494 -0.069494
0.640638 -0.069494 -0.069494
0.702638 -0.069494 -0.069494
0.763376 -0.069494 -0.069494
0.823153 -0.069494 -0.069494
0.882212 -0.069494 -0.069494
0.935550 -0.069494 -0.069494
-0.069494 -0.031715 -0.069494
-0.031715 -0.031715 -0.069494
0.078944 -0.033281 -0.069494
0.142096 -0.021417 -0.069494
0.209634 -0.017395 -0.069494
0.282733 -0.019269 -0.069494
0.358222 -0.022729 -0.069494
0.434127 -0.025352 -0.069494
0.507796 -0.027032 -0.069494
0.576290 -0.028466 -0.069494
0.640638 -0.029665 -0.069494
0.702638 -0.030302 -0.069494
0.763376 -0.030323 -0.069494
0.823153 -0.029907 -0.069494
0.882212 -0.029301 -0.069494
0.935550 -0.029994 -0.069494
-0.069494 0.082153 -0.069494
-0.032604 0.082153 -0.069494
0.078944 0.082153 -0.069494
0.142096 0.092678 -0.069494
0.209634 0.100100 -0.069494
0.282733 0.107796 -0.069494
0.358222 0.112524 -0.069494
0.434127 0.116402 -0.069494
0.507796 0.118785 -0.069494
0.576290 0.119514 -0.069494
0.640638 0.118785 -0.069494
0.702638 0.119514 -0.069494
0.763376 0.118280 -0.069494
0.823153 0.117899 -0.069494
0.882212 0.117321 -0.069494
0.935550 0.115993 -0.069494
-0.069494 0.147072 -0.069494
-0.021349 0.147072 -0.069494
0.089157 0.147072 -0.069494
0.142096 0.147072 -0.069494
0.209634 0.159390 -0.069494
0.282733 0.170657 -0.069494
0.358222 0.179472 -0.069494
0.434127 0.185950 -0.069494
0.507796 0.189980 -0.069494
0.576290 0.191389 -0.069494
0.640638 0.190940 -0.069494
0.702638 0.190430 -0.069494
0.763376 0.189935 -0.069494
0.823153 0.188867 -0.069494
0.882212 0.188009 -0.069494
0.935550 0.186001 -0.069494
-0.069494 0.215920 -0.069494
-0.017204 0.215920 -0.069494
0.096593 0.215920 -0.069494
0.154175 0.215920 -0.069494
0.209634 0.215654 -0.069494
0.282733 0.232209 -0.069494
0.358222 0.243398 -0.069494
0.434127 0.252283 -0.069494
0.507796 0.257863 -0.069494
0.576290 0.259832 -0.069494
0.640638 0.259772 -0.069494
0.702638 0.258870 -0.069494
0.763376 0.258159 -0.069494
0.823153 0.256412 -0.069494
0.882212 0.255294 -0.069494
0.935550 0.252594 -0.069494
-0.069494 0.290817 -0.069494
-0.019383 0.290817 -0.069494
0.103090 0.290817 -0.069494
0.165312 0.290817 -0.069494
0.224490 0.290098 -0.069494
0.282733 0.290807 -0.069494
0.358222 0.306363 -0.069494
0.434127 0.317569 -0.069494
0.507796 0.324620 -0.069494
0.576290 0.327160 -0.069494
0.640638 0.326530 -0.069494
0.702638 0.325231 -0.069494
0.763376 0.324330 -0.069494
0.823153 0.322842 -0.069494
0.882212 0.321456 -0.069494
0.935550 0.318075 -0.069494
-0.069494 0.368859 -0.069494
-0.022729 0.368859 -0.069494
0.108663 0.368859 -0.069494
0.173684 0.368859 -0.069494
0.236562 0.368859 -0.069494
0.296663 0.368055 -0.069494
0.358222 0.368859 -0.069494
0.434127 0.382375 -0.069494
0.507796 0.390905 -0.069494
0.576290 0.393986 -0.069494
0.640638 0.393801 -0.069494
0.702638 0.393022 -0.069494
0.763376 0.390985 -0.069494
0.823153 0.388789 -0.069494
0.882212 0.387151 -0.069494
0.935550 0.383059 -0.069494
-0.069494 0.447013 -0.069494
-0.025352 0.447013 -0.069494
0.112384 0.447013 -0.069494
0.180167 0.447013 -0.069494
0.245071 0.447013 -0.069494
0.308749 0.447013 -0.069494
0.371414 0.447013 -0.069494
0.434127 0.447013 -0.069494
0.507796 0.456965 -0.069494
0.576290 0.460559 -0.069494
0.640638 0.460789 -0.069494
0.702638 0.458660 -0.069494
0.763376 0.456411 -0.069494
0.823153 0.454545 -0.069494
0.882212 0.452579 -0.069494
0.935550 0.447853 -0.069494
-0.069494 0.522884 -0.069494
-0.027032 0.522884 -0.069494
0.115167 0.522884 -0.069494
0.183901 0.522884 -0.069494
0.250531 0.522884 -0.069494
0.315621 0.522884 -0.069494
0.379612 0.522884 -0.069494
0.443783 0.522884 -0.069494
0.507796 0.522884 -0.069494
0.576290 0.527055 -0.069494
0.640638 0.526711 -0.069494
0.702638 0.524187 -0.069494
0.763376 0.522708 -0.069494
0.823153 0.521101 -0.069494
0.882212 0.517939 -0.069494
0.935550 0.512472 -0.069494
-0.069494 0.593378 -0.069494
-0.028466 0.593378 -0.069494
0.115167 0.593378 -0.069494
0.185743 0.593378 -0.069494
0.252580 0.593378 -0.069494
0.318192 0.593378 -0.069494
0.382592 0.593378 -0.069494
0.447273 0.593378 -0.069494
0.511878 0.593378 -0.069494
0.576290 0.593378 -0.069494
0.640027 0.593378 -0.069494
0.702638 0.591485 -0.069494
0.763376 0.588863 -0.069494
0.823153 0.585636 -0.069494
0.882212 0.583119 -0.069494
0.935550 0.577030 -0.069494
-0.069494 0.659558 -0.069494
-0.029585 0.659558 -0.069494
0.115167 0.659558 -0.069494
0.184812 0.659558 -0.069494
0.252490 0.659558 -0.069494
0.317139 0.659558 -0.069494
0.382502 0.659558 -0.069494
0.447174 0.659558 -0.069494
0.511724 0.659558 -0.069494
0.576172 0.659558 -0.069494
0.639934 0.659558 -0.069494
0.701563 0.656690 -0.069494
0.763376 0.653978 -0.069494
0.823153 0.651977 -0.069494
0.882212 0.648263 -0.069494
0.935550 0.641456 -0.069494
-0.069494 0.723146 -0.069494
-0.030222 0.723146 -0.069494
0.115167 0.723146 -0.069494
0.184812 0.723146 -0.069494
0.251064 0.723146 -0.069494
0.316422 0.723146 -0.069494
0.381107 0.723146 -0.069494
0.445508 0.723146 -0.069494
0.509807 0.723146 -0.069494
0.574031 0.723146 -0.069494
0.638904 0.723146 -0.069494
0.702126 0.723146 -0.069494
0.763376 0.719171 -0.069494
0.823153 0.716494 -0.069494
0.882212 0.713394 -0.069494
0.935550 0.705946 -0.069494
-0.069494 0.785261 -0.069494
-0.030342 0.785261 -0.069494
0.114237 0.785261 -0.069494
0.183901 0.785261 -0.069494
0.250179 0.785261 -0.069494
0.315223 0.785261 -0.069494
0.379293 0.785261 -0.069494
0.443381 0.785261 -0.069494
0.507400 0.785261 -0.069494
0.571308 0.785261 -0.069494
0.634607 0.785261 -0.069494
0.698555 0.785261 -0.069494
0.763376 0.785987 -0.069494
0.823153 0.782667 -0.069494
0.882212 0.778349 -0.069494
0.935550 0.770285 -0.069494
-0.069494 0.847340 -0.069494
-0.029894 0.847340 -0.069494
0.114237 0.847340 -0.069494
0.182956 0.847340 -0.069494
0.249532 0.847340 -0.069494
0.313378 0.847340 -0.069494
0.377698 0.847340 -0.069494
0.441544 0.847340 -0.069494
0.505257 0.847340 -0.069494
0.568884 0.847340 -0.069494
0.631564 0.847340 -0.069494
0.696117 0.847340 -0.069494
0.760557 0.847333 -0.069494
0.823153 0.848086 -0.069494
0.882212 0.843562 -0.069494
0.935550 0.834754 -0.069494
-0.069494 0.908475 -0.069494
-0.029301 0.908475 -0.069494
0.113307 0.908475 -0.069494
0.182024 0.908475 -0.069494
0.247840 0.908475 -0.069494
0.312292 0.908475 -0.069494
0.375972 0.908475 -0.069494
0.439519 0.908475 -0.069494
0.502985 0.908475 -0.069494
0.566313 0.908475 -0.069494
0.629303 0.908475 -0.069494
0.693562 0.908475 -0.069494
0.755975 0.908475 -0.069494
0.818536 0.907635 -0.069494
0.882212 0.908475 -0.069494
0.935550 0.899004 -0.069494
-0.069494 0.963333 -0.069494
-0.029994 0.963333 -0.069494
0.112384 0.963333 -0.069494
0.180167 0.963333 -0.069494
0.245702 0.963333 -0.069494
0.308610 0.963333 -0.069494
0.371996 0.963333 -0.069494
0.434946 0.963333 -0.069494
0.497704 0.963333 -0.069494
0.560412 0.963333 -0.069494
0.623051 0.963333 -0.069494
0.685804 0.963333 -0.069494
0.747629 0.963333 -0.069494
0.810226 0.963333 -0.069494
0.873063 0.963333 -0.069494
0.935550 0.963333 -0.069494
-0.069494 -0.069494 -0.031715
-0.031715 -0.069494 -0.031715
0.078944 -0.069494 -0.033281
0.142096 -0.069494 -0.021417
0.209634 -0.069494 -0.017395
0.282733 -0.069494 -0.019269
0.358222 -0.069494 -0.022729
0.434127 -0.069494 -0.025352
0.507796 -0.069494 -0.027032
0.576290 -0.069494 -0.028466
0.640638 -0.069494 -0.029665
0.702638 -0.069494 -0.030302
0.763376 -0.069494 -0.030323
0.823153 -0.069494 -0.029907
0.882212 -0.069494 -0.029301
0.935550 -0.069494 -0.029994
-0.069494 -0.031715 -0.031715
-0.031715 -0.031715 -0.031715
0.078944 -0.031715 -0.031715
0.142096 -0.031715 -0.031715
0.209634 -0.031715 -0.031715
0.282733 -0.031715 -0.031715
0.358222 -0.031715 -0.031715
0.434127 -0.031715 -0.031715
0.507796 -0.031715 -0.031715
0.576290 -0.031715 -0.031715
0.640638 -0.031715 -0.031715
0.702638 -0.031715 -0.031715
0.763376 -0.031715 -0.031715
0.823153 -0.031715 -0.031715
0.882212 -0.031715 -0.031715
0.935550 -0.031715 -0.031715
-0.069494 0.082153 -0.032604
-0.031715 0.082153 -0.031715
0.078944 0.082153 -0.031715
0.142096 0.091717 -0.031715
0.209634 0.099150 -0.031715
0.282733 0.107015 -0.031715
0.358222 0.111579 -0.031715
0.434127 0.115619 -0.031715
0.507796 0.118159 -0.031715
0.576290 0.119058 -0.031715
0.640638 0.119111 -0.031715
0.702638 0.118106 -0.031715
0.763376 0.117925 -0.031715
0.823153 0.116683 -0.031715
0.882212 0.116969 -0.031715
0.935550 0.115729 -0.031715
-0.069494 0.147072 -0.021349
-0.031715 0.147072 -0.031715
0.088231 0.147072 -0.031715
0.142096 0.147072 -0.031715
0.209634 0.158968 -0.031715
0.282733 0.170288 -0.031715
0.358222 0.179041 -0.031715
0.434127 0.185576 -0.031715
0.507796 0.189675 -0.031715
0.576290 0.191176 -0.031715
0.640638 0.190634 -0.031715
0.702638 0.191176 -0.031715
0.763376 0.189755 -0.031715
0.823153 0.188740 -0.031715
0.882212 0.187830 -0.031715
0.935550 0.185845 -0.031715
-0.069494 0.215920 -0.017204
-0.031715 0.215920 -0.031715
0.095662 0.215920 -0.031715
0.154175 0.215920 -0.031715
0.209634 0.215445 -0.031715
0.282733 0.231045 -0.031715
0.358222 0.243182 -0.031715
0.434127 0.252081 -0.031715
0.507796 0.257677 -0.031715
0.576290 0.259701 -0.031715
0.640638 0.259586 -0.031715
0.702638 0.258741 -0.031715
0.763376 0.258039 -0.031715
0.823153 0.256327 -0.031715
0.882212 0.255174 -0.031715
0.935550 0.252507 -0.031715
-0.069494 0.290817 -0.019383
-0.031715 0.290817 -0.031715
0.102160 0.290817 -0.031715
0.164385 0.290817 -0.031715
0.224490 0.290953 -0.031715
0.282733 0.291657 -0.031715
0.358222 0.306231 -0.031715
0.434127 0.317467 -0.031715
0.507796 0.324506 -0.031715
0.576290 0.327053 -0.031715
0.640638 0.326416 -0.031715
0.702638 0.326107 -0.031715
0.763376 0.324239 -0.031715
0.823153 0.322793 -0.031715
0.882212 0.321365 -0.031715
0.935550 0.318028 -0.031715
-0.069494 0.368859 -0.022729
-0.031715 0.368859 -0.031715
0.107733 0.368859 -0.031715
0.173684 0.368859 -0.031715
0.236562 0.368859 -0.031715
0.297579 0.368978 -0.031715
0.358222 0.368859 -0.031715
0.434127 0.382395 -0.031715
0.507796 0.390849 -0.031715
0.576290 0.393976 -0.031715
0.640638 0.393711 -0.031715
0.702638 0.393013 -0.031715
0.763376 0.390933 -0.031715
0.823153 0.388763 -0.031715
0.882212 0.387114 -0.031715
0.935550 0.383034 -0.031715
-0.069494 0.447013 -0.025352
-0.031715 0.447013 -0.031715
0.111451 0.447013 -0.031715
0.180167 0.447013 -0.031715
0.245035 0.447013 -0.031715
0.307816 0.447013 -0.031715
0.371357 0.447013 -0.031715
0.434127 0.447013 -0.031715
0.507796 0.456928 -0.031715
0.576290 0.460514 -0.031715
0.640638 0.460752 -0.031715
0.702638 0.458614 -0.031715
0.763376 0.456351 -0.031715
0.823153 0.454501 -0.031715
0.882212 0.452533 -0.031715
0.935550 0.447809 -0.031715
-0.069494 0.522884 -0.027032
-0.031715 0.522884 -0.031715
0.114237 0.522884 -0.031715
0.183901 0.522884 -0.031715
0.250475 0.522884 -0.031715
0.315594 0.522884 -0.031715
0.379581 0.522884 -0.031715
0.443747 0.522884 -0.031715
0.507796 0.522884 -0.031715
0.576290 0.527029 -0.031715
0.640638 0.526711 -0.031715
0.702638 0.524160 -0.031715
0.763376 0.522649 -0.031715
0.823153 0.521056 -0.031715
0.882212 0.517871 -0.031715
0.935550 0.512428 -0.031715
-0.069494 0.593378 -0.028466
-0.031715 0.593378 -0.031715
0.115167 0.593378 -0.031715
0.184812 0.593378 -0.031715
0.252573 0.593378 -0.031715
0.317221 0.593378 -0.031715
0.382583 0.593378 -0.031715
0.447230 0.593378 -0.031715
0.511853 0.593378 -0.031715
0.576290 0.593378 -0.031715
0.640006 0.593378 -0.031715
0.702638 0.591485 -0.031715
0.763376 0.588851 -0.031715
0.823153 0.585617 -0.031715
0.882212 0.583107 -0.031715
0.935550 0.577012 -0.031715
-0.069494 0.659558 -0.029585
-0.031715 0.659558 -0.031715
0.115167 0.659558 -0.031715
0.184812 0.659558 -0.031715
0.252460 0.659558 -0.031715
0.317110 0.659558 -0.031715
0.382489 0.659558 -0.031715
0.447152 0.659558 -0.031715
0.511722 0.659558 -0.031715
0.576165 0.659558 -0.031715
0.640813 0.659558 -0.031715
0.701554 0.656690 -0.031715
0.763376 0.653957 -0.031715
0.823153 0.651959 -0.031715
0.882212 0.648242 -0.031715
0.935550 0.641439 -0.031715
-0.069494 0.723146 -0.030222
-0.031715 0.723146 -0.031715
0.114237 0.723146 -0.031715
0.184812 0.723146 -0.031715
0.251014 0.723146 -0.031715
0.316417 0.723146 -0.031715
0.381031 0.723146 -0.031715
0.445502 0.723146 -0.031715
0.509788 0.723146 -0.031715
0.574022 0.723146 -0.031715
0.638865 0.723146 -0.031715
0.702115 0.723146 -0.031715
0.763376 0.720059 -0.031715
0.823153 0.716464 -0.031715
0.882212 0.713359 -0.031715
0.935550 0.705925 -0.031715
-0.069494 0.785261 -0.030342
-0.031715 0.785261 -0.031715
0.114237 0.785261 -0.031715
0.183901 0.785261 -0.031715
0.250134 0.785261 -0.031715
0.315199 0.785261 -0.031715
0.379247 0.785261 -0.031715
0.443351 0.785261 -0.031715
0.507373 0.785261 -0.031715
0.571276 0.785261 -0.031715
0.634584 0.785261 -0.031715
0.698517 0.785261 -0.031715
0.763376 0.785976 -0.031715
0.823153 0.782656 -0.031715
0.882212 0.778338 -0.031715
0.935550 0.770274 -0.031715
-0.069494 0.847340 -0.029894
-0.031715 0.847340 -0.031715
0.113307 0.847340 -0.031715
0.182956 0.847340 -0.031715
0.249462 0.847340 -0.031715
0.313331 0.847340 -0.031715
0.377639 0.847340 -0.031715
0.441502 0.847340 -0.031715
0.505219 0.847340 -0.031715
0.568885 0.847340 -0.031715
0.632446 0.847340 -0.031715
0.696118 0.847340 -0.031715
0.760557 0.847327 -0.031715
0.823153 0.848078 -0.031715
0.882212 0.843556 -0.031715
0.935550 0.834746 -0.031715
-0.069494 0.908475 -0.029301
-0.031715 0.908475 -0.031715
0.113307 0.908475 -0.031715
0.182024 0.908475 -0.031715
0.247783 0.908475 -0.031715
0.312257 0.908475 -0.031715
0.375930 0.908475 -0.031715
0.439496 0.908475 -0.031715
0.502930 0.908475 -0.031715
0.566302 0.908475 -0.031715
0.629258 0.908475 -0.031715
0.692638 0.908475 -0.031715
0.755975 0.908475 -0.031715
0.818536 0.907631 -0.031715
0.882212 0.908475 -0.031715
0.935550 0.899000 -0.031715
-0.069494 0.963333 -0.029994
-0.031715 0.963333 -0.031715
0.112384 0.963333 -0.031715
0.180167 0.963333 -0.031715
0.245684 0.963333 -0.031715
0.308590 0.963333 -0.031715
0.372011 0.963333 -0.031715
0.434905 0.963333 -0.031715
0.497663 0.963333 -0.031715
0.560386 0.963333 -0.031715
0.623042 0.963333 -0.031715
0.685784 0.963333 -0.031715
0.747623 0.963333 -0.031715
0.810226 0.963333 -0.031715
0.873059 0.963333 -0.031715
0.935550 0.963333 -0.031715
-0.069494 -0.069494 0.114336
-0.032604 -0.069494 0.114336
0.078944 -0.069494 0.114336
0.142096 -0.069494 0.128972
0.209634 -0.069494 0.139304
0.282733 -0.069494 0.150024
0.358222 -0.069494 0.156604
0.434127 -0.069494 0.162003
0.507796 -0.069494 0.165312
0.576290 -0.069494 0.166338
0.640638 -0.069494 0.165312
0.702638 -0.069494 0.166338
0.763376 -0.069494 0.164619
0.823153 -0.069494 0.164091
0.882212 -0.069494 0.163284
0.935550 -0.069494 0.161422
-0.069494 -0.032604 0.114336
-0.031715 -0.031715 0.114336
0.078944 -0.031715 0.114336
0.142096 -0.031715 0.127649
0.209634 -0.031715 0.137983
0.282733 -0.031715 0.148933
0.358222 -0.031715 0.155290
0.434127 -0.031715 0.160916
0.507796 -0.031715 0.164450
0.576290 -0.031715 0.165698
0.640638 -0.031715 0.165774
0.702638 -0.031715 0.164373
0.763376 -0.031715 0.164122
0.823153 -0.031715 0.162393
0.882212 -0.031715 0.162787
0.935550 -0.031715 0.161072
-0.069494 0.082153 0.114336
-0.031715 0.082153 0.114336
0.078944 0.082153 0.114336
0.142096 0.082153 0.114336
0.209634 0.082153 0.114336
0.282733 0.082153 0.114336
0.358222 0.082153 0.114336
0.434127 0.082153 0.114336
0.507796 0.082153 0.114336
0.576290 0.082153 0.114336
0.640638 0.082153 0.114336
0.702638 0.082153 0.114336
0.763376 0.082153 0.114336
0.823153 0.082153 0.114336
0.882212 0.082153 0.114336
0.935551 0.082153 0.114336
-0.069494 0.147072 0.128424
-0.031715 0.147072 0.127567
0.078944 0.147072 0.113785
0.142096 0.147072 0.114259
0.209634 0.154262 0.114336
0.282733 0.161680 0.114336
0.358222 0.167639 0.114336
0.434127 0.172200 0.114336
0.507796 0.175038 0.114336
0.576290 0.175963 0.114336
0.640638 0.175038 0.114336
0.702638 0.175963 0.114336
0.763376 0.174789 0.114336
0.823153 0.173251 0.114336
0.882212 0.172868 0.114336
0.935551 0.171334 0.114336
-0.069494 0.215920 0.139368
-0.031715 0.215920 0.137962
0.078944 0.215920 0.114083
0.149526 0.215920 0.114000
0.209634 0.215641 0.114336
0.282733 0.227690 0.114336
0.358222 0.237654 0.114336
0.434127 0.244900 0.114336
0.507796 0.249401 0.114336
0.576290 0.250835 0.114336
0.640638 0.250354 0.114336
0.702638 0.248919 0.114336
0.763376 0.247888 0.114336
0.823153 0.247349 0.114336
0.882212 0.245973 0.114336
0.935551 0.243522 0.114336
-0.069494 0.290817 0.148986
-0.031715 0.290817 0.147509
0.078944 0.290817 0.114382
0.156032 0.290817 0.115569
0.221693 0.291586 0.114336
0.282733 0.291609 0.114336
0.358222 0.303990 0.114336
0.434127 0.313634 0.114336
0.507796 0.319571 0.114336
0.576290 0.321465 0.114336
0.640638 0.320535 0.114336
0.702638 0.319555 0.114336
0.763376 0.317924 0.114336
0.823153 0.316575 0.114336
0.882212 0.315054 0.114336
0.935551 0.311782 0.114336
-0.069494 0.368859 0.156604
-0.031715 0.368859 0.155290
0.078944 0.368859 0.114017
0.162518 0.368859 0.114023
0.230990 0.368859 0.114336
0.294793 0.368301 0.114336
0.358222 0.368859 0.114336
0.434127 0.380721 0.114336
0.507796 0.388064 0.114336
0.576290 0.390358 0.114336
0.640638 0.389990 0.114336
0.702638 0.387541 0.114336
0.763376 0.386274 0.114336
0.823153 0.385137 0.114336
0.882212 0.382453 0.114336
0.935551 0.378428 0.114336
-0.069494 0.447013 0.162003
-0.031715 0.447013 0.160916
0.078944 0.447013 0.114088
0.166240 0.447013 0.114327
0.237872 0.447013 0.114336
0.304083 0.447013 0.114336
0.369751 0.447013 0.114336
0.434127 0.447013 0.114336
0.507796 0.455691 0.114336
0.576290 0.458465 0.114336
0.640638 0.457609 0.114336
0.702638 0.455601 0.114336
0.763376 0.453881 0.114336
0.823153 0.451989 0.114336
0.882212 0.449096 0.114336
0.935551 0.444360 0.114336
-0.069494 0.522884 0.165312
-0.031715 0.522884 0.164450
0.078944 0.522884 0.113411
0.169030 0.522884 0.113869
0.242215 0.522884 0.114336
0.310674 0.522884 0.114336
0.376866 0.522884 0.114336
0.442569 0.522884 0.114336
0.507796 0.522884 0.114336
0.576290 0.526060 0.114336
0.640638 0.525759 0.114336
0.702638 0.522217 0.114336
0.763376 0.520053 0.114336
0.823153 0.517455 0.114336
0.882212 0.515247 0.114336
0.935551 0.509796 0.114336
-0.069494 0.593378 0.166338
-0.031715 0.593378 0.165698
0.078944 0.593378 0.114431
0.169957 0.593378 0.113790
0.243535 0.593378 0.114336
0.312434 0.593378 0.114336
0.379145 0.593378 0.114336
0.445260 0.593378 0.114336
0.510907 0.593378 0.114336
0.576290 0.593378 0.114336
0.639992 0.592424 0.114336
0.702638 0.589566 0.114336
0.763376 0.586895 0.114336
0.823153 0.584527 0.114336
0.882212 0.581141 0.114336
0.935551 0.574974 0.114336
-0.069494 0.659558 0.166065
-0.031715 0.659558 0.165629
0.078944 0.659558 0.114158
0.169957 0.659558 0.115048
0.243010 0.659558 0.114336
0.311805 0.659558 0.114336
0.378612 0.659558 0.114336
0.444623 0.659558 0.114336
0.510186 0.659558 0.114336
0.575472 0.659558 0.114336
0.640195 0.659558 0.114336
0.701770 0.656690 0.114336
0.763376 0.652478 0.114336
0.823153 0.650410 0.114336
0.882212 0.646760 0.114336
0.935551 0.639927 0.114336
-0.069494 0.723146 0.165291
-0.031715 0.723146 0.164985
0.078944 0.723146 0.113389
0.169030 0.723146 0.114412
0.242273 0.723146 0.114336
0.310750 0.723146 0.114336
0.376946 0.723146 0.114336
0.442624 0.723146 0.114336
0.507919 0.723146 0.114336
0.572865 0.723146 0.114336
0.637914 0.723146 0.114336
0.702869 0.723146 0.114336
0.763376 0.720057 0.114336
0.823153 0.717244 0.114336
0.882212 0.712373 0.114336
0.935551 0.704749 0.114336
-0.069494 0.785261 0.164501
-0.031715 0.785261 0.164195
0.078944 0.785261 0.113914
0.169030 0.785261 0.113627
0.241220 0.785261 0.114336
0.308392 0.785261 0.114336
0.374984 0.785261 0.114336
0.440290 0.785261 0.114336
0.505179 0.785261 0.114336
0.569784 0.785261 0.114336
0.634280 0.785261 0.114336
0.697971 0.785261 0.114336
0.763376 0.785424 0.114336
0.823153 0.781839 0.114336
0.882212 0.777765 0.114336
0.935551 0.769422 0.114336
-0.069494 0.847340 0.163905
-0.031715 0.847340 0.163519
0.078944 0.847340 0.113324
0.168097 0.847340 0.114281
0.240424 0.847340 0.114336
0.307320 0.847340 0.114336
0.373215 0.847340 0.114336
0.438268 0.847340 0.114336
0.502883 0.847340 0.114336
0.567151 0.847340 0.114336
0.631053 0.847340 0.114336
0.695323 0.847340 0.114336
0.759661 0.847981 0.114336
0.823153 0.847635 0.114336
0.882212 0.843202 0.114336
0.935551 0.834302 0.114336
-0.069494 0.908475 0.163284
-0.031715 0.908475 0.162787
0.078944 0.908475 0.114036
0.167172 0.908475 0.113549
0.239553 0.908475 0.114336
0.306099 0.908475 0.114336
0.371396 0.908475 0.114336
0.436127 0.908475 0.114336
0.500383 0.908475 0.114336
0.564375 0.908475 0.114336
0.628535 0.908475 0.114336
0.691643 0.908475 0.114336
0.755975 0.908475 0.114336
0.818536 0.908329 0.114336
0.882212 0.908475 0.114336
0.935551 0.898706 0.114336
-0.069494 0.963333 0.161422
-0.031715 0.963333 0.161072
0.078944 0.963333 0.113512
0.166240 0.963333 0.113149
0.236572 0.963333 0.114336
0.303367 0.963333 0.114336
0.367536 0.963333 0.114336
0.431539 0.963333 0.114336
0.495122 0.963333 0.114336
0.558364 0.963333 0.114336
0.621430 0.963333 0.114336
0.683763 0.963333 0.114336
0.747494 0.963333 0.114336
0.810226 0.963333 0.114336
0.872846 0.963333 0.114336
0.935551 0.963333 0.114336
-0.069494 -0.069494 0.204682
-0.021349 -0.069494 0.204682
0.089157 -0.069494 0.204682
0.142096 -0.069494 0.204682
0.209634 -0.069494 0.221844
0.282733 -0.069494 0.237501
0.358222 -0.069494 0.249788
0.434127 -0.069494 0.258795
0.507796 -0.069494 0.264413
0.576290 -0.069494 0.266373
0.640638 -0.069494 0.265746
0.702638 -0.069494 0.265035
0.763376 -0.069494 0.264339
0.823153 -0.069494 0.262851
0.882212 -0.069494 0.261672
0.935550 -0.069494 0.258857
-0.069494 -0.021349 0.204682
-0.031715 -0.031715 0.204682
0.088231 -0.031715 0.204682
0.142096 -0.031715 0.204682
0.209634 -0.031715 0.221247
0.282733 -0.031715 0.236988
0.358222 -0.031715 0.249193
0.434127 -0.031715 0.258287
0.507796 -0.031715 0.263982
0.576290 -0.031715 0.266055
0.640638 -0.031715 0.265318
0.702638 -0.031715 0.266055
0.763376 -0.031715 0.264088
0.823153 -0.031715 0.262662
0.882212 -0.031715 0.261424
0.935550 -0.031715 0.258668
-0.069494 0.092269 0.204682
-0.031715 0.091661 0.204682
0.078944 0.081755 0.204682
0.142096 0.082095 0.204682
0.209634 0.082153 0.214683
0.282733 0.082153 0.225003
0.358222 0.082153 0.233305
0.434127 0.082153 0.239651
0.507796 0.082153 0.243598
0.576290 0.082153 0.244882
0.640638 0.082153 0.243598
0.702638 0.082153 0.244882
0.763376 0.082153 0.243265
0.823153 0.082153 0.241118
0.882212 0.082153 0.240603
0.935551 0.082153 0.238457
-0.069494 0.147072 0.204682
-0.031715 0.147072 0.204682
0.078944 0.147072 0.204682
0.142096 0.147072 0.204682
0.209634 0.147072 0.204682
0.282733 0.147072 0.204682
0.358222 0.147072 0.204682
0.434127 0.147072 0.204682
0.507796 0.147072 0.204682
0.576290 0.147072 0.204682
0.640638 0.147072 0.204682
0.702638 0.147072 0.204682
0.763376 0.147072 0.204682
0.823153 0.147072 0.204682
0.882212 0.147072 0.204682
0.935551 0.147072 0.204682
-0.069494 0.215920 0.221741
-0.031715 0.215920 0.221286
0.078944 0.215920 0.215086
0.142096 0.215920 0.203982
0.209634 0.216085 0.204682
0.282733 0.223167 0.204682
0.358222 0.228531 0.204682
0.434127 0.232718 0.204682
0.507796 0.235255 0.204682
0.576290 0.235801 0.204682
0.640638 0.235255 0.204682
0.702638 0.234840 0.204682
0.763376 0.232577 0.204682
0.823153 0.232763 0.204682
0.882212 0.231607 0.204682
0.935551 0.229892 0.204682
-0.069494 0.290817 0.237251
-0.031715 0.290817 0.236640
0.078944 0.290817 0.223941
0.142096 0.290817 0.204708
0.216130 0.289885 0.204682
0.282733 0.291032 0.204682
0.358222 0.300409 0.204682
0.434127 0.307308 0.204682
0.507796 0.311416 0.204682
0.576290 0.312311 0.204682
0.640638 0.311416 0.204682
0.702638 0.310401 0.204682
