forest.cube
TITLE "Generated by Resolve"
LUT_3D_SIZE 33
0 0.00483711 0.0429847
0 0.00540169 0.0435492
0 0.00723278 0.0453803
0.00631724 0.00982681 0.0479744
0.0204776 0.0113985 0.049546
0.0363928 0.0125277 0.0506905
0.0536049 0.0133516 0.0514992
0.0719921 0.0138705 0.052018
0.0916915 0.0140688 0.0522164
0.112932 0.0138552 0.052018
0.136095 0.0131685 0.0513161
0.161715 0.011841 0.0499886
0.190143 0.00978103 0.0479286
0.221637 0.0069276 0.0450752
0.256367 0.00325017 0.0413977
0.293904 0 0.0370031
0.333471 0 0.032105
0.374228 0 0.026978
0.418296 0 0.027985
0.467994 0 0.0391546
0.522606 0 0.0594492
0.580468 0 0.0876631
0.639719 0 0.122133
0.698375 0 0.160784
0.75436 0 0.201129
0.806012 0 0.240085
0.85211 0 0.274083
0.891447 0 0.299031
0.923735 0 0.311604
0.953414 0 0.321355
0.9823 0 0.331334
1 0 0.34136
1 0 0.300908
0 0.0251469 0.038941
0 0.0264591 0.0402533
0 0.0284428 0.0422522
0.00329595 0.0311589 0.0449531
0.0175174 0.0328069 0.0466011
0.0335088 0.0339971 0.0478065
0.050782 0.0348821 0.0486915
0.0692454 0.035462 0.0492714
0.0890059 0.0357366 0.0495308
0.110323 0.0355993 0.0494087
0.133577 0.0350042 0.0487984
0.159289 0.0337682 0.0475624
0.187839 0.0318151 0.0456245
0.219455 0.0290837 0.0428931
0.254322 0.0255436 0.0393378
0.291997 0.0213016 0.035111
0.334859 0.015198 0.0349279
0.383886 0.00648508 0.0428473
0.437079 0 0.0586252
0.494194 0 0.0812238
0.554192 0 0.109117
0.615381 0 0.140734
0.6757 0 0.173983
0.733043 0 0.206424
0.785229 0 0.235142
0.830533 0 0.256733
0.868009 0 0.268116
0.90161 0 0.276875
0.933211 0 0.285817
0.963333 0 0.295857
0.99263 0 0.306127
1 0 0.316396
1 0 0.326421
0 0.0462654 0.0365301
0 0.0476539 0.0379187
0 0.0497139 0.0399786
0.00108339 0.052491 0.0427405
0.0153811 0.0542 0.0444648
0.0314488 0.0554818 0.0457313
0.0487984 0.0564431 0.0466926
0.0673533 0.0571145 0.0473793
0.0872206 0.0574807 0.0477302
0.108644 0.0574655 0.0477302
0.132021 0.0569924 0.0472419
0.157885 0.0558938 0.0461585
0.186587 0.0540932 0.044358
0.218357 0.051545 0.0418097
0.256428 0.047013 0.0415198
0.302571 0.0396124 0.046891
0.354757 0.0298619 0.0580148
0.410864 0.0183871 0.0746624
0.46923 0.00582895 0.0963149
0.529519 0 0.121599
0.590295 0 0.148501
0.649943 0 0.175128
0.706188 0 0.199008
0.756893 0 0.21709
0.800107 0 0.226505
0.839185 0 0.234455
0.875761 0 0.243168
0.909834 0 0.252583
0.941863 0 0.262654
0.972488 0 0.273182
1 0 0.28394
1 0 0.294789
1 0 0.305303
0 0.0676738 0.0342412
0 0.0691234 0.0357061
0 0.0712596 0.0378424
0 0.0741131 0.0406958
0.0134279 0.0759289 0.0424964
0.0295872 0.0773022 0.0438849
0.0470588 0.0783856 0.0449683
0.0657359 0.0791943 0.0457618
0.0857557 0.0796979 0.0462806
0.107347 0.0798505 0.0464332
0.130892 0.0795453 0.046128
0.156954 0.078645 0.0452125
0.188571 0.0760967 0.0454261
0.228611 0.0708782 0.0491798
0.276204 0.0631266 0.0568246
0.329427 0.0533303 0.0683604
0.386313 0.0420539 0.0835431
0.444816 0.0299687 0.101823
0.5037 0.0177615 0.12253
0.562295 0.00581369 0.143786
0.618875 0 0.162539
0.671809 0 0.17792
0.718944 0 0.18677
0.763149 0 0.193698
0.805295 0 0.201251
0.844968 0 0.209583
0.882109 0 0.218647
0.916762 0 0.228473
0.949371 0 0.238926
0.980529 0 0.249775
1 0 0.260868
1 0 0.272068
1 0 0.282948
0 0.0895857 0.0315862
0 0.0911421 0.0331426
0 0.0933852 0.0353857
0 0.0963607 0.0383612
0.0112306 0.0983139 0.0403143
0.0275425 0.0998398 0.0418402
0.045182 0.101076 0.0430762
0.0640421 0.102068 0.0440681
0.0842603 0.102785 0.04477
0.106065 0.103136 0.0451362
0.132174 0.102312 0.0459297
0.165911 0.0992142 0.0486458
0.206775 0.0939193 0.0538186
0.25391 0.0866407 0.061677
0.306325 0.0776074 0.0721447
0.361791 0.0673838 0.0847944
0.418555 0.0565499 0.098909
0.474769 0.0458839 0.113771
0.529397 0.0360113 0.128847
0.581353 0.027512 0.141512
0.62887 0.0209659 0.149462
0.675242 0.0151217 0.155764
0.721248 0.00952163 0.162341
0.766079 0.00442512 0.169375
0.808865 1.5259e-05 0.177096
0.84918 0 0.185626
0.886946 0 0.194949
0.922225 0 0.205051
0.955444 0 0.215793
0.987228 0 0.226932
1 0 0.238437
1 0 0.249958
1 0 0.26125
0 0.112322 0.0281834
0 0.114015 0.0298772
0 0.116411 0.0322728
0 0.11957 0.0354314
0.00848402 0.121706 0.0375677
0.0250095 0.12343 0.039292
0.0428626 0.124895 0.0407568
0.0619669 0.126131 0.0419776
0.0843977 0.126467 0.0433051
0.113191 0.125017 0.0455482
0.148119 0.121828 0.0491646
0.1888 0.11696 0.0544442
0.234455 0.110597 0.0615396
0.284108 0.102998 0.070222
0.33666 0.0944533 0.079942
0.389685 0.0855573 0.0905165
0.441779 0.0769207 0.100908
0.491188 0.0693675 0.110155
0.537118 0.0635233 0.117037
0.582528 0.0582742 0.122866
0.628748 0.0529335 0.128649
0.675669 0.0475624 0.13463
0.722255 0.0424353 0.140978
0.767681 0.0377813 0.14786
0.811093 0.0338445 0.15552
0.851942 0.0307774 0.163867
0.890303 0.0285801 0.173053
0.926207 0.0271916 0.18323
0.960052 0.0265507 0.194125
0.992477 0.0264744 0.205493
1 0.0267948 0.217151
1 0.0272984 0.228901
1 0.0280919 0.240345
0 0.136248 0.0236667
0 0.13814 0.0255589
0 0.140749 0.0281682
0 0.144121 0.0315404
0.00483711 0.146502 0.0339208
0.021622 0.148501 0.0359045
0.0414282 0.149722 0.0377813
0.0669718 0.149355 0.0400702
0.0979171 0.147524 0.0431525
0.1337 0.144411 0.0472267
0.173632 0.140246 0.0523384
0.217014 0.135119 0.0582895
0.263081 0.129244 0.0652476
0.310689 0.122881 0.0729229
0.358816 0.116335 0.0805219
0.40499 0.110323 0.0871748
0.448203 0.105364 0.0919509
0.490852 0.100923 0.0960555
0.53521 0.096376 0.100847
0.580987 0.0917067 0.105989
0.627634 0.0869306 0.111208
0.675013 0.0820935 0.116686
0.722103 0.0775006 0.122621
0.768048 0.0733654 0.129168
0.811994 0.0699474 0.136553
0.853468 0.0673686 0.144884
0.892439 0.0656138 0.154086
0.928893 0.0647135 0.164157
0.963272 0.0645151 0.174899
0.996185 0.0648203 0.186191
1 0.0655222 0.197757
1 0.0663767 0.209415
1 0.0675212 0.220523
0 0.161639 0.0179904
0 0.163775 0.0201114
0 0.166659 0.0229953
0 0.170306 0.0266575
0.00161746 0.172595 0.0292973
0.024155 0.173251 0.0317082
0.0519722 0.172519 0.0344701
0.0844587 0.170565 0.0379644
0.120775 0.167681 0.0423438
0.160067 0.164111 0.0475776
0.201343 0.160128 0.0536355
0.243458 0.155962 0.059968
0.285512 0.151919 0.066041
0.326528 0.148257 0.0713207
0.365805 0.145174 0.075227
0.404822 0.142153 0.0782635
0.445991 0.138582 0.081239
0.488762 0.134829 0.084535
0.533303 0.130953 0.0885023
0.579293 0.12694 0.0928817
0.626215 0.122789 0.0974289
0.67393 0.118578 0.102312
0.721386 0.11458 0.107698
0.767727 0.111025 0.113741
0.81207 0.108141 0.120699
0.853941 0.10605 0.128557
0.893309 0.104753 0.137407
0.930129 0.104265 0.147082
0.964889 0.104433 0.157519
0.998154 0.105104 0.16846
1 0.106096 0.179767
1 0.107225 0.19115
1 0.108553 0.202335
0 0.188724 0.0112459
0 0.191165 0.0136873
0 0.194095 0.0168154
0 0.19678 0.0205386
0.00869764 0.197391 0.023331
0.0377966 0.196612 0.026215
0.0709087 0.194842 0.0296941
0.107134 0.192401 0.0340581
0.14522 0.189609 0.039353
0.184039 0.186801 0.0453803
0.222446 0.184268 0.0517281
0.259174 0.182315 0.0577096
0.293156 0.181277 0.062501
0.327672 0.180209 0.0662852
0.364767 0.17847 0.0692454
0.403586 0.176211 0.0715496
0.444602 0.173404 0.0737621
0.487327 0.170382 0.0762951
0.531929 0.167239 0.0795453
0.577966 0.163928 0.0831769
0.624994 0.160449 0.0869764
0.672847 0.156863 0.0911727
0.720455 0.153429 0.0958877
0.766979 0.150408 0.101289
0.811505 0.147997 0.107607
0.85359 0.146349 0.1149
0.893126 0.145464 0.12311
0.930159 0.145327 0.13228
0.965118 0.145815 0.142184
0.998566 0.146761 0.152621
1 0.148013 0.163439
1 0.149355 0.17435
1 0.150866 0.185061
0 0.21767 0.00373846
0 0.219577 0.0062562
0 0.22118 0.0091249
0 0.222538 0.0126802
0.0230411 0.22211 0.0156252
0.0559243 0.220737 0.0189212
0.0910964 0.218952 0.0230411
0.127428 0.217105 0.0280919
0.159197 0.216815 0.0337224
0.19086 0.216739 0.0396124
0.222934 0.216709 0.0454871
0.255604 0.216541 0.0509957
0.289647 0.216098 0.0559548
0.325444 0.215259 0.0602426
0.3635 0.213825 0.0636759
0.402884 0.212009 0.0663615
0.444175 0.209766 0.0686046
0.4869 0.207401 0.0707561
0.531319 0.204974 0.0732738
0.577188 0.202319 0.0761425
0.624094 0.199451 0.0792096
0.671885 0.196414 0.0826734
0.719432 0.1935 0.0866255
0.765927 0.190936 0.0912947
0.810422 0.188968 0.096849
0.852491 0.187716 0.103426
0.892058 0.187152 0.110964
0.929107 0.18732 0.119417
0.96405 0.188083 0.128634
0.997528 0.189242 0.13843
1 0.190677 0.148562
1 0.192157 0.158846
1 0.193759 0.168978
0 0.24799 0
0 0.248112 0
0 0.248508 0.000228885
0.00231937 0.250385 0.00410468
0.0285496 0.251423 0.00772107
0.0567941 0.251987 0.0115969
0.0867475 0.252338 0.0160678
0.118013 0.252598 0.0211032
0.149996 0.252857 0.0266423
0.182528 0.253132 0.0325017
0.215717 0.253391 0.0384527
0.249653 0.253498 0.0441749
0.285008 0.2533 0.0494392
0.322042 0.252689 0.054078
0.361227 0.251484 0.0579385
0.401617 0.249897 0.0610666
0.443565 0.247944 0.0636759
0.486732 0.245914 0.0661326
0.531441 0.243824 0.0687724
0.577295 0.241627 0.0713359
0.623941 0.239277 0.0737469
0.671412 0.236744 0.0764019
0.718715 0.234287 0.0795605
0.764965 0.232151 0.0834211
0.809293 0.230518 0.0882429
0.851179 0.229572 0.0940261
0.890547 0.229313 0.100755
0.927428 0.229709 0.108431
0.962219 0.230655 0.116854
0.995529 0.231983 0.125872
1 0.233524 0.135241
1 0.23508 0.144747
1 0.236728 0.154131
0 0.280064 0
0 0.280186 0
0 0.282155 0
0 0.284901 0
0.0205692 0.286656 0.00148013
0.0484321 0.287938 0.00552377
0.0781109 0.289006 0.0100404
0.109316 0.289891 0.0150454
0.141558 0.2907 0.0205539
0.17464 0.291447 0.0263981
0.208652 0.292058 0.0323644
0.24358 0.292454 0.0381323
0.279988 0.29247 0.043534
0.31809 0.292027 0.0483711
0.358297 0.290974 0.0524605
0.399603 0.289525 0.055848
0.44239 0.287709 0.0587472
0.486244 0.285801 0.0614939
0.531334 0.283909 0.0643168
0.577447 0.281895 0.0670481
0.624323 0.279728 0.0695506
0.671778 0.27744 0.0719921
0.718791 0.275288 0.0745708
0.76466 0.273472 0.0776532
0.808576 0.27216 0.0816052
0.850065 0.271473 0.0865034
0.889097 0.271397 0.0923934
0.925658 0.271962 0.0992447
0.960098 0.27303 0.106813
0.993072 0.274434 0.114946
1 0.27602 0.12343
1 0.277592 0.132082
1 0.279225 0.140688
0 0.314443 0
0 0.315084 0
0 0.317617 0
0 0.321019 0
0.0141909 0.323461 0
0.0417639 0.325444 0.00077821
0.0711986 0.327184 0.00543221
0.102266 0.328695 0.0104829
0.134524 0.330053 0.0159304
0.16788 0.331228 0.0216831
0.202365 0.332189 0.0275578
0.23798 0.332815 0.0332647
0.275181 0.333028 0.0386358
0.314137 0.332723 0.0434882
0.355184 0.331777 0.0476387
0.397314 0.330388 0.0511482
0.440848 0.328603 0.0541848
0.485328 0.326726 0.0570535
0.530999 0.324849 0.060029
0.577508 0.322866 0.0628824
0.624537 0.32076 0.0654154
0.672099 0.318517 0.0678569
0.719203 0.316396 0.0704204
0.765011 0.314611 0.0733196
0.808637 0.31339 0.0767529
0.849653 0.312856 0.0808728
0.888167 0.312917 0.0858778
0.924178 0.313573 0.0917525
0.958114 0.314687 0.0983902
0.990677 0.316182 0.105684
1 0.317937 0.113466
1 0.319753 0.121508
1 0.321691 0.129564
0 0.350301 0
0 0.351446 0
0 0.354559 0
0 0.358557 0
0.00985733 0.361608 0
0.0371862 0.364202 0
0.066331 0.366522 0.00257877
0.0971542 0.368566 0.00764477
0.12929 0.370382 0.0130159
0.162661 0.371954 0.018616
0.197375 0.37322 0.0243229
0.233371 0.374075 0.0298466
0.271092 0.374426 0.0350652
0.310674 0.374212 0.0397955
0.352377 0.373297 0.0438544
0.395163 0.371908 0.0473182
0.439292 0.370108 0.0503243
0.484337 0.36817 0.0531777
0.530465 0.366217 0.0561685
0.577356 0.364141 0.0589761
0.62472 0.361929 0.0615244
0.672419 0.359594 0.0639353
0.719509 0.357397 0.0663615
0.76527 0.35552 0.0691234
0.80882 0.354162 0.0723888
0.849729 0.353506 0.0763104
0.88806 0.353582 0.0809796
0.923796 0.354421 0.0863508
0.957488 0.355886 0.0924392
0.989792 0.357717 0.0991226
1 0.359792 0.106294
1 0.361898 0.113725
1 0.364111 0.121187
0 0.387564 0
0 0.389181 0
0 0.392767 0
0 0.397269 0
0.0074464 0.400809 0
0.0345006 0.403891 0
0.0633402 0.406683 0.00134279
0.093843 0.409171 0.00637827
0.125719 0.411383 0.0116274
0.158968 0.413275 0.0170596
0.193668 0.414786 0.0225223
0.229831 0.415824 0.0278019
0.267842 0.416281 0.0327611
0.30779 0.416114 0.037232
0.34995 0.415183 0.0410773
0.39321 0.413748 0.0443275
0.437812 0.411841 0.0471504
0.483253 0.409781 0.0498512
0.529717 0.407675 0.0526589
0.576913 0.405417 0.0553445
0.624521 0.402991 0.0577554
0.672389 0.400427 0.0599832
0.719615 0.398047 0.0623178
0.765469 0.396124 0.0650187
0.809155 0.394842 0.0683299
0.850248 0.394308 0.072343
0.888762 0.394537 0.0771191
0.924681 0.395499 0.0825971
0.958419 0.397086 0.0886244
0.990662 0.399115 0.0950942
1 0.401404 0.101793
1 0.403738 0.108644
1 0.406149 0.115541
0 0.426383 0
0 0.428351 0
0 0.432319 0
0 0.437201 0
0.00575265 0.441138 0
0.0325475 0.444602 0
0.0610361 0.447761 0.000564584
0.0911727 0.450584 0.00552377
0.122728 0.453101 0.0106203
0.155688 0.455238 0.0158236
0.190204 0.456947 0.0209964
0.226322 0.458106 0.0259403
0.264393 0.458625 0.0305486
0.304524 0.458442 0.0346685
0.346914 0.457465 0.0381476
0.390463 0.455909 0.0410773
0.435355 0.453834 0.0435798
0.481056 0.451591 0.0459754
0.527733 0.449271 0.0484932
0.575204 0.446845 0.0509804
0.623163 0.444358 0.053315
0.671458 0.441825 0.0556039
0.719127 0.439521 0.0580606
0.765362 0.437675 0.0608682
0.809339 0.436469 0.0642863
0.850614 0.436042 0.0683757
0.88925 0.436347 0.073167
0.925261 0.437385 0.0786603
0.959121 0.439017 0.0847334
0.991424 0.441077 0.0911879
1 0.443397 0.0978561
1 0.445792 0.104524
1 0.44828 0.111101
0 0.466178 0
0 0.468513 0
0 0.472801 0
0 0.478004 0
0.00468452 0.482231 0
0.0311742 0.485985 0
0.0592813 0.489418 0.000122072
0.0890059 0.492485 0.00495918
0.12015 0.495201 0.00985733
0.152728 0.49752 0.0147707
0.186938 0.499336 0.0196078
0.222827 0.500542 0.024155
0.260792 0.50106 0.028336
0.300877 0.500816 0.0320134
0.343297 0.499702 0.0350195
0.386999 0.497993 0.0375219
0.432135 0.495827 0.0397192
0.478202 0.493568 0.0419318
0.525322 0.491295 0.0443885
0.573251 0.488945 0.0468605
0.621622 0.486488 0.0491951
0.670344 0.48397 0.0515145
0.718395 0.481682 0.0540017
0.764965 0.479805 0.0568551
0.809232 0.478584 0.0602884
0.850767 0.478111 0.0644236
0.88954 0.478401 0.0692149
0.925628 0.479408 0.0746929
0.959518 0.480995 0.0807202
0.991836 0.482994 0.0871138
1 0.485237 0.0937057
1 0.487526 0.100282
1 0.489891 0.106752
0 0.506279 0
0 0.508843 0
0 0.513329 0
0 0.5187 0
0.00425727 0.52311 0
0.030396 0.527001 0
0.0580758 0.530556 7.62951e-05
0.0873426 0.53373 0.0047303
0.117998 0.536507 0.00936904
0.150103 0.538842 0.013962
0.183886 0.540627 0.0184024
0.219425 0.541756 0.0225071
0.257176 0.542199 0.0262608
0.29723 0.541955 0.0295872
0.339834 0.540902 0.0323796
0.383856 0.5393 0.0347295
0.429358 0.537224 0.0367742
0.475776 0.535012 0.0388647
0.523232 0.532769 0.0411994
0.571511 0.530419 0.0435645
0.620249 0.527947 0.0458228
0.669276 0.525399 0.0480507
0.717632 0.523049 0.0504768
0.764492 0.521096 0.0532998
0.809018 0.519768 0.0567025
0.850752 0.519203 0.0607919
0.889693 0.519371 0.0655375
0.925872 0.520272 0.0709392
0.959762 0.521752 0.0768597
0.99205 0.523644 0.0831464
1 0.525734 0.089601
1 0.527871 0.0960403
1 0.530053 0.102342
0 0.546319 0
0 0.548989 0
0 0.553552 0
0 0.558968 0
0.00444038 0.563378 0
0.0301823 0.567285 0
0.0574044 0.570825 0.000488289
0.0861524 0.573953 0.00495918
0.116258 0.576654 0.00926223
0.147951 0.578988 0.0134737
0.18143 0.58085 0.0176852
0.216831 0.582132 0.0216373
0.254566 0.582742 0.0252537
0.294682 0.58262 0.028397
0.337407 0.581674 0.0310063
0.381643 0.580133 0.0331579
0.427375 0.578088 0.0350195
0.474037 0.57586 0.0369116
0.521721 0.573602 0.0390478
0.570245 0.571191 0.0412299
0.619226 0.568643 0.0433051
0.668498 0.566003 0.0453803
0.717083 0.563531 0.0476692
0.764141 0.561456 0.0503395
0.808835 0.559991 0.0536049
0.850721 0.559258 0.0575723
0.889769 0.559243 0.0621958
0.926055 0.559945 0.0674907
0.959976 0.561242 0.0732738
0.992218 0.562921 0.0793774
1 0.564843 0.0856336
1 0.566751 0.0918898
1 0.568704 0.0979477
0 0.585885 0
0 0.58854 0
0 0.593042 0
0 0.598383 0
0.0052491 0.602701 0
0.0305486 0.606516 0
0.0573892 0.610056 0.00155642
0.0858473 0.613275 0.00593576
0.115724 0.616175 0.0102998
0.147204 0.618677 0.0146029
0.180499 0.620691 0.0185702
0.215763 0.622095 0.0222477
0.253407 0.622797 0.0256962
0.293492 0.622721 0.0286412
0.336248 0.621805 0.0310216
0.38056 0.620264 0.0329442
0.426413 0.618173 0.0345464
0.473182 0.6159 0.0361791
0.520974 0.61355 0.038056
0.569635 0.611032 0.0399786
0.618769 0.608347 0.0417945
0.668193 0.605554 0.0436408
0.716899 0.602914 0.0456855
0.76408 0.600641 0.048127
0.808865 0.598978 0.0511788
0.850843 0.598016 0.0549325
0.889952 0.597772 0.0593576
0.926223 0.59823 0.0644236
0.960159 0.599252 0.0700084
0.992355 0.600656 0.0758984
1 0.602274 0.0819409
1 0.603906 0.0879072
1 0.605554 0.0936751
0 0.624231 0
0 0.626917 0
0 0.631388 0
0 0.636744 0
0.00723278 0.641184 0
0.0324407 0.645167 0
0.0591135 0.648859 0.0040589
0.0873426 0.652201 0.00846876
0.117006 0.655222 0.0128023
0.148226 0.657816 0.0170443
0.181277 0.659892 0.021088
0.216342 0.661326 0.0247807
0.253819 0.662028 0.0277104
0.293797 0.661936 0.0304112
0.336492 0.66096 0.0325322
0.380789 0.659327 0.0341802
0.426642 0.657115 0.0354925
0.473442 0.654688 0.0368048
0.521218 0.652155 0.0383612
0.569909 0.649439 0.0399634
0.619089 0.646525 0.041474
0.668559 0.643473 0.0429999
0.717311 0.640558 0.0447395
0.764523 0.637995 0.046891
0.809323 0.636011 0.0496223
0.851301 0.634714 0.0530861
0.890394 0.634119 0.0572366
0.926635 0.634195 0.0620279
0.960479 0.634821 0.0673075
0.992584 0.635798 0.0729229
1 0.636988 0.0786755
1 0.638178 0.0843519
1 0.639338 0.0898146
0 0.661387 0
0 0.664073 0
0 0.668605 0
0 0.674037 0
0.0112459 0.678508 0
0.0363165 0.682521 0.00396735
0.0627909 0.686229 0.00846876
0.0907912 0.68957 0.0128634
0.120195 0.692561 0.0171511
0.151156 0.695094 0.0213016
0.183932 0.697108 0.0252079
0.218753 0.698436 0.0287175
0.25597 0.699031 0.031754
0.29575 0.698787 0.0341344
0.338308 0.697627 0.0357214
0.382513 0.695781 0.0370642
0.428275 0.69337 0.0380407
0.474983 0.6907 0.0390173
0.522652 0.687922 0.0402075
0.571267 0.684932 0.041413
0.620386 0.681727 0.0425422
0.669795 0.67837 0.0436866
0.718502 0.675135 0.0450446
0.765652 0.672236 0.0467994
0.810391 0.669902 0.0491798
0.852277 0.668254 0.0522774
0.891264 0.667292 0.0560311
0.927398 0.666987 0.0604562
0.961105 0.667231 0.0653849
0.993027 0.667826 0.0706188
1 0.668605 0.0759747
1 0.669383 0.0812695
1 0.670176 0.0863661
0 0.698451 0
0 0.701183 0
0 0.70573 0
0 0.711162 0.000579843
0.0171054 0.715648 0.00547799
0.0419928 0.719646 0.0100862
0.0682536 0.723308 0.0145571
0.0959945 0.726604 0.0188907
0.125109 0.729519 0.0230869
0.155749 0.731975 0.0270848
0.18822 0.733867 0.030808
0.222736 0.735088 0.0341192
0.259648 0.735515 0.0368963
0.299168 0.735088 0.0390936
0.341466 0.733745 0.0406195
0.385489 0.73167 0.0413519
0.431098 0.729 0.0418402
0.477607 0.72607 0.0423896
0.525078 0.722988 0.0431525
0.573526 0.719676 0.0439307
0.622492 0.716121 0.0446021
0.671748 0.712413 0.0452888
0.720302 0.708797 0.0461891
0.76733 0.705516 0.0475013
0.811902 0.702785 0.049424
0.85362 0.70071 0.0520485
0.892439 0.69929 0.0553597
0.928359 0.698558 0.0593118
0.961883 0.698344 0.063798
0.993606 0.698497 0.0686198
1 0.698833 0.0735637
1 0.699199 0.0784619
1 0.699565 0.0831922
0 0.735241 0
0 0.737942 0
0 0.742473 0.00244144
0.00132753 0.747875 0.00827039
0.0245518 0.752285 0.013138
0.0492409 0.756207 0.0177005
0.075227 0.759793 0.0220798
0.102678 0.762997 0.0263066
0.131456 0.765789 0.0303502
0.161761 0.768109 0.0341802
0.193866 0.769848 0.0376898
0.228031 0.770886 0.0407263
0.264607 0.771099 0.0431983
0.303792 0.770459 0.0450599
0.345769 0.768856 0.0462043
0.389532 0.766522 0.0467994
0.434852 0.763546 0.0469978
0.481117 0.760281 0.0467536
0.528283 0.756848 0.0469825
0.576471 0.75317 0.0472725
0.625193 0.749218 0.047425
0.674205 0.745098 0.0475929
0.722515 0.741054 0.0479591
0.769284 0.737301 0.0487373
0.813642 0.734112 0.0501259
0.855131 0.731563 0.0522469
0.893721 0.729702 0.0550546
0.929458 0.728496 0.0585489
0.962737 0.72784 0.062562
0.994263 0.727535 0.0669413
1 0.727459 0.0714733
1 0.727382 0.0759747
1 0.727337 0.0803235
0 0.771557 0.00445563
0 0.774197 0.00689708
0 0.778637 0.0116732
0.0103304 0.783948 0.0173037
0.033341 0.788266 0.0220951
0.0577859 0.792065 0.0265354
0.0834516 0.795514 0.0307927
0.110567 0.79855 0.0348516
0.138979 0.801175 0.0386969
0.168887 0.803311 0.042298
0.20058 0.804837 0.0455329
0.234363 0.805631 0.048249
0.270542 0.805615 0.0504005
0.309331 0.804685 0.0518807
0.350942 0.802777 0.0526131
0.394354 0.800107 0.0527504
0.439323 0.796796 0.0524605
0.485206 0.793149 0.052079
0.531991 0.789319 0.0518349
0.579858 0.785214 0.0511788
0.628229 0.780819 0.0507515
0.676921 0.776226 0.0503243
0.724941 0.77171 0.0501411
0.77142 0.767498 0.0503548
0.815518 0.763836 0.0512093
0.856764 0.76083 0.0527962
0.89514 0.758511 0.0551156
0.930632 0.756848 0.0581064
0.963714 0.755749 0.061677
0.99501 0.755016 0.0655985
1 0.754498 0.0697032
1 0.754009 0.0738079
1 0.753536 0.0777447
0 0.807263 0.0148928
0 0.809766 0.0172427
0.0009308 0.814084 0.021912
0.0204471 0.819242 0.0274205
0.0431983 0.823392 0.0320745
0.0673381 0.827024 0.036347
0.0926375 0.830274 0.0404212
0.119371 0.833112 0.0442512
0.147387 0.835508 0.0478523
0.176867 0.837385 0.0511635
0.208118 0.838666 0.054078
0.241443 0.83917 0.0564584
0.277165 0.838834 0.0581979
0.315526 0.837583 0.0592508
0.356695 0.835325 0.0595254
0.399695 0.832273 0.0591745
0.444236 0.82855 0.0583658
0.489708 0.82446 0.0574197
0.536019 0.820203 0.0565957
0.583444 0.815656 0.0557565
0.631464 0.810803 0.0547799
0.679835 0.805753 0.0533913
0.727504 0.800793 0.0526284
0.773709 0.796124 0.0523079
0.817533 0.792004 0.0526284
0.858503 0.788556 0.0536812
0.896635 0.785779 0.0554818
0.931899 0.783673 0.0579995
0.964767 0.782132 0.0610971
0.99585 0.780972 0.0645609
1 0.780026 0.0682383
1 0.77911 0.0719005
1 0.778225 0.0754406
0 0.842237 0.0261082
0 0.844572 0.0284123
0.0119631 0.848692 0.0328222
0.0311894 0.853651 0.0381628
0.0536355 0.857588 0.0426032
0.0774243 0.86099 0.0466621
0.102342 0.863981 0.0504768
0.128634 0.86656 0.0540475
0.156191 0.868666 0.0573434
0.185199 0.870253 0.0603037
0.215961 0.871214 0.0628519
0.248783 0.871382 0.0648203
0.284001 0.87068 0.0661173
0.321843 0.869032 0.0666972
0.362539 0.866377 0.0664683
0.405081 0.862898 0.0655985
0.44918 0.858763 0.0642557
0.494179 0.854261 0.0627756
0.540032 0.849577 0.0614023
0.58706 0.844602 0.0599985
0.634684 0.839323 0.0584726
0.682658 0.833844 0.0569467
0.730007 0.828443 0.0556344
0.775921 0.823316 0.0543374
0.81944 0.818769 0.0541238
0.860166 0.814862 0.0546731
0.898024 0.811643 0.0559548
0.933059 0.80911 0.0579843
0.965682 0.807126 0.0605936
0.996551 0.805539 0.0635996
1 0.804166 0.0668345
1 0.802838 0.0700694
1 0.801541 0.0732128
0 0.876402 0.0376593
0.000549325 0.878508 0.039826
0.023209 0.882383 0.0439612
0.0420996 0.887083 0.0490425
0.0641794 0.890745 0.0532387
0.0875868 0.893858 0.0570077
0.112047 0.896544 0.0605173
0.137881 0.898802 0.0637522
0.164935 0.900572 0.0666819
