forest.cube
TITLE "Generated by Resolve"
LUT_3D_SIZE 5
0 0.00483711 0.0429847
0.0916915 0.0140688 0.0522164
0.333471 0 0.032105
0.75436 0 0.201129
1 0 0.300908
0 0.188724 0.0112459
0.14522 0.189609 0.039353
0.444602 0.173404 0.0737621
0.811505 0.147997 0.107607
1 0.150866 0.185061
0 0.466178 0
0.12015 0.495201 0.00985733
0.432135 0.495827 0.0397192
0.809232 0.478584 0.0602884
1 0.489891 0.106752
0 0.771557 0.00445563
0.138979 0.801175 0.0386969
0.439323 0.796796 0.0524605
0.815518 0.763836 0.0512093
1 0.753536 0.0777447
0.0216678 1 0.0913405
0.196445 1 0.10045
0.467033 1 0.0871138
0.820569 0.957839 0.0557107
1 0.926757 0.0578164
0 0.00349432 0.207553
0.0915999 0.013962 0.218021
0.336751 0 0.217273
0.703319 0 0.451881
0.962875 0 0.544778
0 0.191638 0.179797
0.0786755 0.216678 0.205112
0.45275 0.180636 0.260105
0.821729 0.153887 0.333532
1 0.157153 0.430976
0 0.478523 0.148806
0.0973678 0.518059 0.178225
0.433478 0.514687 0.17319
0.809552 0.498558 0.191959
1 0.50811 0.244541
0 0.788937 0.180652
0.130449 0.824353 0.209537
0.430976 0.817197 0.199878
0.812772 0.777722 0.180209
1 0.765194 0.201953
0.0273289 1 0.256672
0.18851 1 0.26598
0.455024 1 0.237781
0.810254 0.969863 0.188693
1 0.935073 0.181094
0 0 0.485634
0.0829175 0.00529488 0.49659
0.335851 0 0.489082
0.608759 0 0.64773
0.846311 0 0.780423
0 0.185946 0.457481
0.122316 0.203616 0.463325
0.374136 0.20528 0.538277
0.72015 0.181842 0.67187
1 0.182452 0.798123
0 0.481315 0.441428
0.0742199 0.526665 0.486717
0.349203 0.540612 0.500984
0.804288 0.498924 0.529595
1 0.501717 0.627359
0 0.79498 0.478157
0.113756 0.83682 0.518318
0.398764 0.833967 0.508736
0.79382 0.780163 0.461311
1 0.765957 0.482582
0.0263676 1 0.550439
0.171923 1 0.566033
0.430137 1 0.538048
0.783902 0.975875 0.475486
1 0.933822 0.457938
0 0 0.770108
0.0741131 0 0.781537
0.382574 0 0.701411
0.668376 0 0.73048
0.827802 0 0.907042
0 0.179751 0.740368
0.122118 0.199832 0.751369
0.411887 0.201831 0.73579
0.725582 0.196521 0.795102
0.923674 0.21471 0.98677
0 0.483299 0.733867
0.0909133 0.524651 0.771237
0.38883 0.533104 0.762524
0.730694 0.521553 0.810224
0.988983 0.524178 0.958938
0 0.797543 0.774853
0.110964 0.840116 0.81738
0.378042 0.845396 0.822614
0.729046 0.819883 0.797391
1 0.756176 0.801404
0.0236362 1 0.844297
0.15996 1 0.865064
0.410132 1 0.847013
0.754467 0.995209 0.784726
1 0.958862 0.757015
0 0 0.972671
0.0904402 0 0.96347
0.382223 0 0.883711
0.713832 0 0.83917
0.921004 0 0.917327
0 0.180255 0.936278
0.12845 0.202914 0.947799
0.412772 0.208331 0.935012
0.778332 0.196414 0.904494
0.993454 0.218952 0.98761
0 0.490684 0.939086
0.108888 0.529397 0.970016
0.398795 0.539651 0.962386
0.775219 0.525017 0.918639
0.992767 0.542931 0.995575
0 0.80383 0.983825
0.123476 0.842115 1
0.392615 0.84097 1
0.752102 0.798703 0.949111
0.965881 0.774578 0.976165
0.0250095 1 1
0.159365 1 1
0.406851 1 1
0.743984 1 1
1 1 1
