forest.cube
TITLE "Generated by Resolve"
LUT_3D_SIZE 9
0 0.00483711 0.0429847
0.0204776 0.0113985 0.049546
0.0916915 0.0140688 0.0522164
0.190143 0.00978103 0.0479286
0.333471 0 0.032105
0.522606 0 0.0594492
0.75436 0 0.201129
0.923735 0 0.311604
1 0 0.300908
0 0.0895857 0.0315862
0.0112306 0.0983139 0.0403143
0.0842603 0.102785 0.04477
0.206775 0.0939193 0.0538186
0.418555 0.0565499 0.098909
0.62887 0.0209659 0.149462
0.808865 1.5259e-05 0.177096
0.955444 0 0.215793
1 0 0.26125
0 0.188724 0.0112459
0.00869764 0.197391 0.023331
0.14522 0.189609 0.039353
0.293156 0.181277 0.062501
0.444602 0.173404 0.0737621
0.624994 0.160449 0.0869764
0.811505 0.147997 0.107607
0.965118 0.145815 0.142184
1 0.150866 0.185061
0 0.314443 0
0.0141909 0.323461 0
0.134524 0.330053 0.0159304
0.275181 0.333028 0.0386358
0.440848 0.328603 0.0541848
0.624537 0.32076 0.0654154
0.808637 0.31339 0.0767529
0.958114 0.314687 0.0983902
1 0.321691 0.129564
0 0.466178 0
0.00468452 0.482231 0
0.12015 0.495201 0.00985733
0.260792 0.50106 0.028336
0.432135 0.495827 0.0397192
0.621622 0.486488 0.0491951
0.809232 0.478584 0.0602884
0.959518 0.480995 0.0807202
1 0.489891 0.106752
0 0.624231 0
0.00723278 0.641184 0
0.117006 0.655222 0.0128023
0.253819 0.662028 0.0277104
0.426642 0.657115 0.0354925
0.619089 0.646525 0.041474
0.809323 0.636011 0.0496223
0.960479 0.634821 0.0673075
1 0.639338 0.0898146
0 0.771557 0.00445563
0.033341 0.788266 0.0220951
0.138979 0.801175 0.0386969
0.270542 0.805615 0.0504005
0.439323 0.796796 0.0524605
0.628229 0.780819 0.0507515
0.815518 0.763836 0.0512093
0.963714 0.755749 0.061677
1 0.753536 0.0777447
0 0.909636 0.0491188
0.074403 0.922744 0.0635233
0.173159 0.93109 0.0754559
0.296712 0.930068 0.0807813
0.458152 0.915038 0.0750591
0.640177 0.892348 0.0650645
0.822171 0.868452 0.0569009
0.96643 0.853544 0.0590829
1 0.845182 0.0686809
0.0216678 1 0.0913405
0.105333 1 0.0944686
0.196445 1 0.10045
0.312306 1 0.0994583
0.467033 1 0.0871138
0.642908 0.986374 0.0703288
0.820569 0.957839 0.0557107
0.962341 0.938903 0.0528115
1 0.926757 0.0578164
0 0.00485237 0.111681
0.0213321 0.012253 0.119081
0.0926528 0.0150301 0.121859
0.191241 0.0108797 0.117708
0.335485 0 0.103883
0.533959 0 0.178744
0.74844 0 0.324941
0.896773 0 0.389792
1 0 0.43093
0 0.0907454 0.101427
0.0126345 0.0997177 0.110384
0.0865339 0.104356 0.115328
0.231495 0.0880598 0.140902
0.43975 0.0503548 0.204288
0.627512 0.0233768 0.245518
0.806104 0.00358587 0.275624
0.951751 0 0.315908
1 0 0.36257
0 0.191104 0.0822614
0.0222019 0.198383 0.0838483
0.163912 0.191852 0.0833295
0.293721 0.190112 0.102724
0.449241 0.181094 0.123049
0.633371 0.166934 0.147173
0.821607 0.15375 0.177264
0.975692 0.151141 0.219379
1 0.155978 0.267582
0 0.320333 0.0521096
0.00231937 0.335012 0.0626993
0.126513 0.342428 0.0691997
0.278202 0.343709 0.0821698
0.444602 0.339574 0.0958572
0.626963 0.332296 0.10724
0.812085 0.324269 0.120912
0.964263 0.32401 0.148409
1 0.330098 0.185489
0 0.473777 0.0434424
0 0.493507 0.0589151
0.113558 0.507668 0.0698253
0.259174 0.512779 0.0779889
0.435294 0.506783 0.0833753
0.625849 0.497566 0.0911269
0.81239 0.490105 0.102037
0.962142 0.492607 0.122576
1 0.50135 0.148745
0 0.632517 0.048249
0.00531014 0.65214 0.0637064
0.113024 0.667338 0.075761
0.251331 0.674144 0.0829633
0.427649 0.668437 0.0835584
0.622431 0.657053 0.0851301
0.812909 0.646128 0.0912642
0.963104 0.644694 0.10808
1 0.64892 0.130022
0 0.781643 0.0751812
0.0335699 0.800351 0.0911269
0.136873 0.81387 0.103166
0.268025 0.817975 0.108293
0.43827 0.80798 0.103304
0.628779 0.790494 0.0961166
0.816815 0.77232 0.0928054
0.964813 0.763485 0.101183
1 0.760891 0.116152
0 0.919844 0.119066
0.0749218 0.934295 0.131609
0.171252 0.942824 0.139574
0.293614 0.941329 0.139437
0.455314 0.925216 0.127535
0.638254 0.901076 0.111681
0.820951 0.875746 0.0988785
0.965545 0.859846 0.0984817
1 0.85095 0.106386
0.0245365 1 0.154101
0.105165 1 0.160983
0.194156 1 0.163653
0.308721 1 0.158221
0.463264 1 0.14078
0.639704 0.994629 0.118807
0.817945 0.964965 0.0996109
0.960357 0.945052 0.0932479
1 0.932372 0.096437
0 0.00349432 0.207553
0.0201572 0.0110933 0.215152
0.0915999 0.013962 0.218021
0.190341 0.00996414 0.214023
0.336751 0 0.217273
0.518212 0 0.323995
0.703319 0 0.451881
0.844617 0 0.497551
0.962875 0 0.544778
0 0.0899214 0.197818
0.0120851 0.0991531 0.207065
0.0913252 0.102403 0.215641
0.231464 0.0854963 0.270527
0.411521 0.055024 0.350545
0.588983 0.0325933 0.386603
0.769543 0.0127871 0.420874
0.916915 0.0049897 0.464302
1 0.00624094 0.513344
0 0.191638 0.179797
0 0.205539 0.193668
0.0786755 0.216678 0.205112
0.296223 0.190784 0.221332
0.45275 0.180636 0.260105
0.635599 0.166567 0.29604
0.821729 0.153887 0.333532
0.973632 0.151888 0.379919
1 0.157153 0.430976
0 0.323415 0.155489
0 0.343465 0.173663
0.096788 0.35581 0.17911
0.276066 0.351385 0.172107
0.441642 0.347784 0.185687
0.626673 0.339147 0.203418
0.81593 0.328542 0.228489
0.970443 0.326558 0.266621
1 0.33167 0.312749
0 0.478523 0.148806
0 0.501625 0.16846
0.0973678 0.518059 0.178225
0.247227 0.522515 0.175982
0.433478 0.514687 0.17319
0.624537 0.505577 0.180407
0.809552 0.498558 0.191959
0.95935 0.500847 0.213489
1 0.50811 0.244541
0 0.638025 0.153506
0.000656138 0.660319 0.171847
0.103365 0.67718 0.183246
0.240955 0.684398 0.185
0.422156 0.677409 0.177783
0.620539 0.664607 0.174716
0.811063 0.653147 0.179782
0.959609 0.651637 0.19649
1 0.655421 0.218204
0 0.788937 0.180652
0.0310979 0.80975 0.198352
0.130449 0.824353 0.209537
0.259571 0.828519 0.21091
0.430976 0.817197 0.199878
0.623621 0.797589 0.186877
0.812772 0.777722 0.180209
0.960464 0.768063 0.187366
1 0.765194 0.201953
0 0.927184 0.223514
0.0726787 0.943114 0.236988
0.165621 0.952239 0.2439
0.28574 0.950683 0.24094
0.447166 0.933593 0.224537
0.630793 0.907652 0.20351
0.814343 0.880385 0.186511
0.959411 0.863157 0.183764
1 0.853666 0.190753
0.0273289 1 0.256672
0.102266 1 0.26421
0.18851 1 0.26598
0.301091 1 0.258473
0.455024 1 0.237781
0.63154 1 0.21178
0.810254 0.969863 0.188693
0.953277 0.948241 0.179507
1 0.935073 0.181094
0 0 0.339208
0.0162509 0.007187 0.346929
0.0878004 0.0101778 0.34992
0.186725 0.00636301 0.346105
0.328023 0 0.364797
0.480735 0 0.471275
0.645457 0 0.558816
0.784527 0 0.61146
0.902373 0 0.666712
0 0.0863966 0.329992
0.00886549 0.0959487 0.339529
0.102342 0.0970169 0.333349
0.214908 0.089662 0.383124
0.356909 0.071519 0.458656
0.529793 0.0499733 0.508949
0.710185 0.0299382 0.5561
0.858656 0.0218051 0.609888
0.984756 0.0226749 0.666926
0 0.189395 0.310521
0.0121004 0.200961 0.318669
0.119631 0.206378 0.315557
0.252125 0.20087 0.385428
0.408972 0.190082 0.439673
0.593545 0.175387 0.484672
0.781323 0.162219 0.52752
0.934554 0.159777 0.577371
1 0.164584 0.630488
0 0.323796 0.291905
0 0.34551 0.313588
0.071107 0.363928 0.331991
0.185458 0.376425 0.344823
0.441611 0.347951 0.34522
0.628519 0.33666 0.383322
0.81622 0.32491 0.421485
0.968627 0.322972 0.467964
1 0.328389 0.519265
0 0.480446 0.289021
0 0.505547 0.313527
0.0780804 0.524895 0.330617
0.215167 0.532525 0.329259
0.427604 0.519341 0.30631
0.617685 0.510597 0.313909
0.804089 0.502754 0.32958
0.958251 0.50251 0.361578
1 0.507622 0.402777
0 0.640482 0.294835
0 0.664897 0.317525
0.0910353 0.683833 0.332921
0.222217 0.692912 0.334966
0.408377 0.684611 0.318624
0.614435 0.668864 0.307256
0.804608 0.65687 0.31165
0.951247 0.655314 0.328573
1 0.658473 0.350271
0 0.792859 0.322759
0.0269627 0.815641 0.343648
0.121462 0.831754 0.356893
0.246189 0.837018 0.358038
0.417319 0.824903 0.342214
0.612985 0.802289 0.32166
0.804456 0.779751 0.310521
0.95172 0.769192 0.316686
1 0.766293 0.331228
0 0.931029 0.364889
0.0682536 0.94847 0.380575
0.157427 0.958587 0.388571
0.274189 0.957732 0.385214
0.434348 0.940276 0.365957
0.618311 0.912367 0.339666
0.803189 0.882353 0.317556
0.949096 0.863157 0.312047
1 0.852979 0.318303
0.027451 1 0.39649
0.0970169 1 0.405844
0.180301 1 0.408331
0.290379 1 0.400595
0.443107 1 0.378195
0.619211 1 0.348791
0.798245 0.972641 0.321523
0.942031 0.94902 0.30901
1 0.9346 0.308934
0 0 0.485634
0.0112459 0.00216678 0.493462
0.0829175 0.00529488 0.49659
0.184314 0.00122072 0.491341
0.335851 0 0.489082
0.46656 0 0.572366
0.608759 0 0.64773
0.73489 0 0.714855
0.846311 0 0.780423
0 0.0818189 0.476967
0.00660716 0.0912184 0.485618
0.118959 0.088304 0.468376
0.254353 0.0814221 0.454231
0.35935 0.0759747 0.520424
0.494972 0.063508 0.600336
0.658701 0.0475471 0.666697
0.800488 0.0411078 0.733562
0.923796 0.042649 0.800427
0 0.185946 0.457481
0.0187839 0.196277 0.46389
0.122316 0.203616 0.463325
0.254185 0.206271 0.461219
0.374136 0.20528 0.538277
0.537606 0.194736 0.611414
0.72015 0.181842 0.67187
0.872206 0.178668 0.734783
1 0.182452 0.798123
0 0.323079 0.441459
0 0.343877 0.46099
0.0869612 0.360754 0.474723
0.227817 0.367514 0.472709
0.397253 0.358511 0.532174
0.582498 0.345861 0.587427
0.770855 0.332815 0.635157
0.924544 0.33022 0.687739
1 0.335134 0.742901
0 0.481315 0.441428
0 0.5066 0.466667
0.0742199 0.526665 0.486717
0.189563 0.539254 0.49929
0.349203 0.540612 0.500984
0.614786 0.510018 0.491325
0.804288 0.498924 0.529595
0.957534 0.497246 0.576608
1 0.501717 0.627359
0 0.641627 0.448905
0 0.66717 0.474281
0.0831006 0.687694 0.494255
0.202914 0.699992 0.504524
0.380011 0.694926 0.491264
0.606027 0.671565 0.460594
0.794507 0.659388 0.465644
0.941939 0.656474 0.486442
1 0.656641 0.518639
0 0.79498 0.478157
0.0236515 0.81915 0.501747
0.113756 0.83682 0.518318
0.232242 0.844343 0.523491
0.398764 0.833967 0.508736
0.596979 0.808042 0.479973
0.79382 0.780163 0.461311
0.940261 0.768719 0.467414
1 0.765957 0.482582
0 0.932906 0.519997
0.0638132 0.951598 0.537911
0.149432 0.962966 0.548165
0.262181 0.963653 0.547066
0.419455 0.947341 0.528389
0.602396 0.918212 0.498329
0.789075 0.884138 0.469703
0.936553 0.861631 0.460761
1 0.850706 0.467063
0.0263676 1 0.550439
0.0913863 1 0.561807
0.171923 1 0.566033
0.279255 1 0.559884
0.430137 1 0.538048
0.604974 1 0.506905
0.783902 0.975875 0.475486
0.928618 0.949172 0.45893
1 0.933822 0.457938
0 0 0.637018
0.00587472 0 0.644953
0.0777142 9.15541e-05 0.648234
0.190158 0 0.635691
0.363729 0 0.600198
0.508812 0 0.625147
0.627543 0 0.702205
0.724453 0 0.789517
0.816236 0 0.871015
0 0.0769665 0.628962
0.0114443 0.0841993 0.633448
0.134615 0.0785992 0.61532
0.254978 0.0764782 0.605844
0.396429 0.0682994 0.601465
0.530388 0.0603799 0.650248
0.657954 0.0540627 0.737453
0.772137 0.0545815 0.825818
0.880461 0.0597696 0.907286
0 0.182086 0.611002
0.0214847 0.19205 0.618387
0.121584 0.200916 0.622522
0.251911 0.204929 0.619272
0.409873 0.201724 0.615045
0.550332 0.19971 0.676463
0.691798 0.196353 0.766812
0.824231 0.197147 0.848981
0.944533 0.202014 0.924163
0 0.32192 0.596582
0 0.341711 0.614969
0.0970474 0.358175 0.628397
0.231739 0.366613 0.630106
0.407279 0.362951 0.618738
0.553918 0.360006 0.686213
0.715892 0.351766 0.763989
0.863111 0.349554 0.834028
0.990921 0.353689 0.901152
0 0.481712 0.597818
0 0.50602 0.621622
0.0818036 0.525093 0.639597
0.204639 0.536248 0.647745
0.385718 0.532158 0.632334
0.570504 0.519997 0.681956
0.757397 0.507652 0.738735
0.911284 0.50454 0.79498
1 0.507774 0.850324
0 0.64213 0.606104
0 0.667781 0.631739
0.0830854 0.688579 0.652506
0.199145 0.7019 0.665797
0.358953 0.702663 0.666545
0.539803 0.696635 0.660807
0.789639 0.656641 0.650675
0.939147 0.650111 0.692882
1 0.6486 0.738033
0 0.795956 0.636362
0.0221561 0.820676 0.661067
0.109667 0.83917 0.679469
0.223285 0.848646 0.68867
0.381369 0.843015 0.681971
0.570825 0.821332 0.656504
0.781949 0.779736 0.618906
0.926497 0.767926 0.625208
1 0.763409 0.645228
0 0.933394 0.677913
0.0602121 0.952834 0.697246
0.143191 0.965209 0.709422
0.252338 0.967788 0.711513
0.405554 0.954498 0.6972
0.584192 0.927718 0.668879
0.771847 0.888975 0.632654
0.922942 0.859373 0.61648
1 0.847715 0.622431
0.024567 1 0.7075
0.0861524 1 0.720562
0.164538 1 0.726696
0.269413 1 0.723156
0.418143 1 0.704265
0.590616 1 0.674601
0.7682 0.982071 0.640299
0.913939 0.950576 0.617807
1 0.944579 0.622187
0 0 0.770108
0.00198367 0 0.778164
0.0741131 0 0.781537
0.202396 0 0.753994
0.382574 0 0.701411
0.536034 0 0.691951
0.668376 0 0.73048
0.756146 0 0.81326
0.827802 0 0.907042
0 0.0736553 0.762753
0.0231937 0.0767681 0.755383
0.131838 0.0751659 0.740795
0.248753 0.0744488 0.732158
0.400824 0.0650797 0.71487
0.560815 0.0552377 0.713237
0.698924 0.05037 0.763561
0.793774 0.0568551 0.858061
0.878401 0.0680552 0.955444
0 0.179751 0.740368
0.0238804 0.189761 0.747127
0.122118 0.199832 0.751369
0.248432 0.205447 0.748745
0.411887 0.201831 0.73579
0.5841 0.196841 0.734417
0.725582 0.196521 0.795102
0.826596 0.204868 0.894957
0.923674 0.21471 0.98677
0 0.322179 0.730037
0.00422675 0.341299 0.746883
0.104173 0.357931 0.758984
0.234241 0.367483 0.760693
0.405402 0.364813 0.746715
0.586786 0.358343 0.737179
0.727581 0.357305 0.804288
0.839887 0.363043 0.899809
0.952193 0.370245 0.982345
0 0.483299 0.733867
0 0.506371 0.755657
0.0909133 0.524651 0.771237
0.215778 0.535485 0.776532
0.38883 0.533104 0.762524
0.583322 0.524605 0.740307
0.730694 0.521553 0.810224
0.865064 0.521477 0.890227
0.988983 0.524178 0.958938
0 0.643778 0.743633
0 0.668849 0.768246
0.0893263 0.689082 0.787671
0.207782 0.701381 0.798321
0.372107 0.699718 0.792248
0.568811 0.68571 0.762341
0.751156 0.664775 0.798764
0.89958 0.656336 0.854444
1 0.653193 0.905577
0 0.797543 0.774853
0.0240635 0.821881 0.799161
0.110964 0.840116 0.81738
0.223194 0.849592 0.826825
0.378042 0.845396 0.822614
0.553689 0.833494 0.810681
0.729046 0.819883 0.797391
0.921691 0.763577 0.763958
1 0.756176 0.801404
0 0.934188 0.815839
0.0591897 0.953689 0.83534
0.140627 0.966415 0.848035
0.247547 0.970108 0.851621
0.39765 0.959731 0.840909
0.570062 0.939864 0.81973
0.750774 0.906752 0.78175
0.911818 0.857786 0.733242
1 0.846006 0.737514
0.0236362 1 0.844297
0.0830549 1 0.857984
0.15996 1 0.865064
0.263096 1 0.863172
0.410132 1 0.847013
0.580041 1 0.820523
0.754467 0.995209 0.784726
0.900816 0.95787 0.747829
1 0.958862 0.757015
0 0 0.87599
0.000274662 0 0.884184
0.0784161 0 0.88191
0.219257 0 0.837003
0.384405 0 0.793103
0.547616 0 0.769543
0.6981 0 0.771176
0.799039 0 0.819379
0.869245 0 0.902525
0 0.0719615 0.866163
0.0391089 0.0701915 0.843244
0.130282 0.0741894 0.840253
0.246082 0.0743572 0.832013
0.398764 0.065568 0.814511
0.572778 0.0540169 0.795392
0.732601 0.0478523 0.801938
0.839536 0.054963 0.860594
0.914183 0.0699626 0.954986
0 0.179599 0.842649
0.0276341 0.189883 0.848875
0.124865 0.200961 0.853483
0.248981 0.207736 0.851682
0.411337 0.204837 0.839002
0.594797 0.198093 0.822599
0.762325 0.195346 0.828916
0.870237 0.204807 0.89453
0.945891 0.219959 0.993729
0 0.324544 0.835676
0.0116426 0.343252 0.851194
0.111406 0.360143 0.862577
0.238712 0.370321 0.8645
0.405783 0.368368 0.851575
0.593149 0.360632 0.831632
0.766079 0.356558 0.830961
0.872694 0.36614 0.902541
0.953017 0.38088 1
0 0.486763 0.841398
0.00453193 0.508644 0.861082
0.100267 0.526558 0.874968
0.224903 0.537545 0.879118
0.3935 0.536095 0.866484
0.585748 0.528206 0.842725
0.766247 0.522454 0.831525
0.871046 0.530373 0.908293
0.961822 0.539879 1
0 0.647303 0.852491
0.00567636 0.671565 0.875517
0.0983902 0.691127 0.893065
0.218479 0.702541 0.900877
0.382986 0.699916 0.891173
0.573327 0.687633 0.864134
0.760143 0.672709 0.832654
0.86685 0.671458 0.903792
0.973541 0.6701 0.977386
0 0.80058 0.884611
0.0292515 0.823957 0.907668
0.116625 0.841199 0.924437
0.229404 0.849363 0.931731
0.385046 0.843107 0.923766
0.563638 0.82681 0.9028
0.748837 0.798886 0.85919
0.883513 0.770397 0.886885
1 0.761227 0.937881
0 0.936019 0.925185
0.061265 0.954849 0.943984
0.142168 0.967102 0.956222
0.248341 0.97052 0.959625
0.397299 0.960433 0.949508
0.567437 0.943023 0.932082
0.738293 0.924193 0.913222
0.876204 0.913771 0.903151
1 0.842756 0.84506
0.0242161 1 0.952865
0.0826886 1 0.966598
0.15877 1 0.974075
0.260929 1 0.973297
0.406928 1 0.959564
0.575143 1 0.93843
0.745602 1 0.912871
0.887678 0.982635 0.876554
1 0.975113 0.873213
0 0 0.972671
0 0 0.981018
0.0904402 0 0.96347
0.236378 0 0.907393
0.382223 0 0.883711
0.548486 0 0.857801
0.713832 0 0.83917
0.830716 0 0.854719
0.921004 0 0.917327
0 0.0696727 0.95317
0.0396735 0.0690623 0.934691
0.130083 0.0738994 0.932418
0.245182 0.0748913 0.924987
0.398184 0.0667735 0.907652
0.574105 0.0555276 0.887556
0.749447 0.0474708 0.873503
0.874449 0.0534676 0.894331
0.961364 0.068513 0.954803
0 0.180255 0.936278
0.0317388 0.190906 0.942489
0.12845 0.202914 0.947799
0.251286 0.210605 0.94696
0.412772 0.208331 0.935012
0.596307 0.201678 0.918303
0.778332 0.196414 0.904494
0.907271 0.203769 0.924056
0.993454 0.218952 0.98761
0 0.327611 0.932113
0.0189059 0.346075 0.946807
0.118334 0.363195 0.957961
0.243778 0.373724 0.960235
0.40827 0.372061 0.948196
0.594186 0.364538 0.928847
0.779293 0.358389 0.91133
0.912016 0.365469 0.926329
0.99765 0.381521 0.994919
0 0.490684 0.939086
0.0124208 0.511513 0.957
0.108888 0.529397 0.970016
0.232837 0.540597 0.973892
0.398795 0.539651 0.962386
0.587549 0.532357 0.941146
0.775219 0.525017 0.918639
0.911498 0.529564 0.924269
0.992767 0.542931 0.995575
0 0.651362 0.951202
0.0136873 0.6748 0.972595
0.107485 0.693782 0.988571
0.227985 0.704631 0.99443
0.39115 0.701686 0.98349
0.577371 0.69012 0.958846
0.763836 0.675792 0.926284
0.901381 0.671763 0.9149
0.975998 0.677821 0.985672
0 0.80383 0.983825
0.0354925 0.826001 1
0.123476 0.842115 1
0.23682 0.84889 1
0.392615 0.84097 1
0.570901 0.823087 0.988296
0.752102 0.798703 0.949111
0.892088 0.779416 0.913222
0.965881 0.774578 0.976165
0 0.937697 1
0.0645914 0.955428 1
0.145556 0.966674 1
0.251789 0.968948 1
0.400687 0.957351 1
0.571252 0.937484 1
0.743893 0.912902 0.990555
0.884901 0.882689 0.943908
0.982406 0.848432 0.961059
0.0250095 1 1
0.0835279 1 1
0.159365 1 1
0.261234 1 1
0.406851 1 1
0.574609 1 1
0.743984 1 1
0.881559 1 1
1 1 1
