nostalgia.cube
LUT_3D_SIZE 6
0.152740 0.110462 0.074975
0.267561 0.153301 0.110328
0.454076 0.186806 0.147727
0.643485 0.281723 0.236593
0.873862 0.369940 0.313386
1.072415 0.406084 0.340396
0.204534 0.185684 0.105305
0.266951 0.184940 0.111310
0.454076 0.220708 0.147727
0.643485 0.306270 0.236593
0.873862 0.394855 0.313386
1.072415 0.426988 0.340396
0.232273 0.348243 0.134721
0.317771 0.348243 0.134721
0.454076 0.321239 0.147727
0.643485 0.390320 0.236593
0.873862 0.476985 0.313386
1.072415 0.504496 0.340396
0.319567 0.509764 0.213155
0.371312 0.509764 0.213155
0.505817 0.509764 0.213155
0.643485 0.513391 0.236593
0.873862 0.605978 0.313386
1.072415 0.628546 0.340396
0.409718 0.704301 0.282967
0.446516 0.704301 0.282967
0.553618 0.704301 0.282967
0.678701 0.704301 0.282967
0.873862 0.766230 0.313386
1.072415 0.784114 0.340396
0.493683 0.937888 0.329552
0.524092 0.937888 0.329552
0.619962 0.937888 0.329552
0.742559 0.937888 0.329552
0.874860 0.937441 0.329379
1.072415 0.964845 0.340396
0.200782 0.149810 0.129560
0.267210 0.159588 0.137556
0.453983 0.203184 0.186136
0.643408 0.292303 0.265988
0.873862 0.370533 0.332430
1.072409 0.403016 0.355648
0.204332 0.185878 0.131241
0.263490 0.188006 0.136876
0.448072 0.212131 0.168252
0.641198 0.297271 0.250152
0.872956 0.384624 0.324624
1.072032 0.418862 0.351612
0.239652 0.347695 0.177891
0.283666 0.341173 0.157138
0.448072 0.318863 0.168252
0.641198 0.385390 0.250152
0.872956 0.470450 0.324624
1.072032 0.498584 0.351612
0.327962 0.509516 0.247213
0.345298 0.506369 0.227738
0.495063 0.506866 0.227786
0.641198 0.512123 0.250152
0.872956 0.602372 0.324624
1.072032 0.625030 0.351612
0.413500 0.704091 0.306533
0.429055 0.701993 0.294655
0.544607 0.702485 0.295003
0.674426 0.702485 0.295003
0.872956 0.765058 0.324624
1.072032 0.782541 0.351612
0.492942 0.937755 0.345898
0.511644 0.937711 0.340480
0.612653 0.937266 0.340865
0.738617 0.937266 0.340865
0.871979 0.936635 0.340615
1.072032 0.964959 0.351612
0.237642 0.182908 0.278603
0.323830 0.182908 0.273602
0.453983 0.203184 0.256941
0.643408 0.297665 0.336363
0.873862 0.370414 0.407956
1.072409 0.394807 0.423158
0.243138 0.237983 0.278141
0.289385 0.212567 0.269388
0.447359 0.228694 0.258815
0.640987 0.312253 0.333697
0.872956 0.380724 0.399356
1.072023 0.406148 0.415086
0.249622 0.347695 0.273551
0.293249 0.338251 0.268249
0.436423 0.333689 0.276846
0.627166 0.382336 0.327319
0.867116 0.461255 0.393549
1.069286 0.495466 0.421551
0.347929 0.509516 0.337318
0.365777 0.504411 0.330079
0.466450 0.491143 0.310309
0.627166 0.505299 0.327319
0.867116 0.596066 0.393549
1.069286 0.623616 0.421551
0.419288 0.704091 0.380522
0.437763 0.700069 0.374997
0.528607 0.690468 0.365786
0.661312 0.690468 0.365786
0.867116 0.761957 0.393549
1.069286 0.782490 0.421551
0.481795 0.937755 0.402536
0.503551 0.935776 0.400227
0.610066 0.934140 0.410355
0.734826 0.934140 0.410355
0.869077 0.935509 0.409527
1.069286 0.965765 0.421551
0.323614 0.265757 0.447278
0.376439 0.265757 0.447278
0.504420 0.265757 0.439026
0.643408 0.297665 0.450359
0.873862 0.370414 0.537955
1.072409 0.394807 0.553588
0.332611 0.305232 0.447091
0.349942 0.283038 0.444820
0.494314 0.282794 0.437115
0.640987 0.312253 0.449633
0.872956 0.380724 0.533096
1.072023 0.406148 0.548756
0.338948 0.393984 0.447091
0.361771 0.387577 0.442825
0.465354 0.369491 0.423644
0.625903 0.389535 0.444886
0.867116 0.449237 0.521729
1.068963 0.475643 0.539240
0.347929 0.509516 0.444978
0.369642 0.504411 0.442803
0.472753 0.486963 0.427832
0.620528 0.511737 0.454358
0.857411 0.595444 0.528045
1.061462 0.641408 0.570050
0.418621 0.704091 0.495409
0.436083 0.700069 0.490102
0.528388 0.685716 0.475854
0.662614 0.673749 0.492416
0.857411 0.751275 0.528045
1.061462 0.792166 0.570050
0.462907 0.937755 0.517176
0.478341 0.935776 0.507545
0.591512 0.932515 0.505168
0.753127 0.927627 0.552345
0.873862 0.927938 0.551059
1.061462 0.966014 0.570050
0.400559 0.331975 0.633246
0.437351 0.331975 0.633246
0.541910 0.331975 0.633246
0.667871 0.331975 0.637185
0.873862 0.370414 0.708225
1.072409 0.394807 0.722372
0.404448 0.357671 0.633173
0.419926 0.344956 0.631959
0.532615 0.344734 0.630890
0.662645 0.344734 0.634292
0.872956 0.380724 0.707528
1.072023 0.406148 0.720348
0.408281 0.433844 0.633173
0.425742 0.427399 0.630971
0.514852 0.415629 0.615900
0.646525 0.415629 0.618943
0.867116 0.449237 0.702774
1.068963 0.475643 0.717456
0.408281 0.546365 0.633173
0.425742 0.542042 0.630971
0.514298 0.525494 0.611855
0.651361 0.538483 0.602988
0.857411 0.584630 0.687402
1.060355 0.625682 0.725166
0.418621 0.704091 0.649574
0.436083 0.700069 0.646416
0.523196 0.685716 0.629639
0.670579 0.674487 0.618782
0.857411 0.748385 0.690127
1.051152 0.820798 0.766072
0.462907 0.937755 0.691719
0.478341 0.935776 0.686451
0.566963 0.932515 0.669905
0.739548 0.925998 0.685872
0.899129 0.926445 0.730061
1.051152 0.966541 0.766072
0.467951 0.373902 0.855062
0.499345 0.373902 0.855062
0.594410 0.373902 0.855062
0.714868 0.373902 0.855062
0.843845 0.374309 0.856671
1.072409 0.394807 0.916634
0.466240 0.391428 0.854954
0.485920 0.386995 0.854767
0.586507 0.385513 0.853857
0.710544 0.385513 0.853857
0.840018 0.385594 0.853926
1.072023 0.406148 0.916879
0.451539 0.451459 0.854954
0.472783 0.446734 0.854767
0.579730 0.453969 0.845928
0.703120 0.453969 0.845928
0.833195 0.454127 0.846703
1.068963 0.475643 0.917716
0.451539 0.576089 0.854954
0.466932 0.569675 0.854767
0.556615 0.547122 0.843617
0.720830 0.590288 0.832264
0.835091 0.590520 0.833866
1.060355 0.625682 0.917850
0.451539 0.728290 0.854954
0.466932 0.725206 0.854767
0.554823 0.710257 0.843617
0.712605 0.712927 0.830258
0.869077 0.757274 0.836339
1.049335 0.820805 0.921303
0.462907 0.937755 0.888522
0.478341 0.935776 0.887496
0.566963 0.932515 0.881595
0.730571 0.925998 0.874445
0.904949 0.931556 0.887231
1.043486 0.969664 0.928223
