nostalgia.cube
LUT_3D_SIZE 16
0.152740 0.110462 0.074975
0.165732 0.115188 0.078793
0.208014 0.130987 0.093362
0.267561 0.153301 0.110328
0.328984 0.165290 0.124729
0.393059 0.162887 0.123167
0.454076 0.186806 0.147727
0.514302 0.216641 0.176173
0.577622 0.249066 0.206628
0.643485 0.281723 0.236593
0.711441 0.314553 0.265617
0.787965 0.343318 0.290589
0.873862 0.369940 0.313386
0.965075 0.396306 0.332373
1.028431 0.406084 0.340396
1.072415 0.406084 0.340396
0.153757 0.115054 0.075540
0.165732 0.118617 0.078793
0.208074 0.134607 0.092964
0.267561 0.155765 0.110328
0.328984 0.168959 0.124729
0.393059 0.165143 0.123167
0.454076 0.189508 0.147727
0.514302 0.218910 0.176173
0.577622 0.251068 0.206628
0.643485 0.283591 0.236593
0.711441 0.315595 0.265617
0.787965 0.344200 0.290589
0.873862 0.372509 0.313386
0.965075 0.397884 0.332373
1.028431 0.407687 0.340396
1.072415 0.407691 0.340396
0.174739 0.143107 0.087448
0.180471 0.142441 0.087448
0.207704 0.145060 0.091371
0.266790 0.165908 0.110289
0.328984 0.178984 0.124729
0.393059 0.178436 0.123167
0.454076 0.200482 0.147727
0.514302 0.228280 0.176173
0.577622 0.259413 0.206628
0.643485 0.291320 0.236593
0.711441 0.322970 0.265617
0.787965 0.351953 0.290589
0.873862 0.379419 0.313386
0.965075 0.405382 0.332373
1.028431 0.414605 0.340396
1.072415 0.414128 0.340396
0.204534 0.185684 0.105305
0.209725 0.184940 0.105305
0.229758 0.182758 0.105305
0.266951 0.184940 0.111310
0.328984 0.200191 0.124729
0.393059 0.201952 0.123167
0.454076 0.220708 0.147727
0.514302 0.245944 0.176173
0.577622 0.275413 0.206628
0.643485 0.306270 0.236593
0.711441 0.337980 0.265617
0.787965 0.365885 0.290589
0.873862 0.394855 0.313386
0.965075 0.419142 0.332373
1.028431 0.428110 0.340396
1.072415 0.426988 0.340396
0.226815 0.237651 0.120846
0.233312 0.237651 0.120846
0.255909 0.234726 0.120846
0.287610 0.228860 0.120846
0.329945 0.228380 0.124729
0.393059 0.233160 0.123167
0.454076 0.248912 0.147727
0.514302 0.271284 0.176173
0.577622 0.298812 0.206628
0.643485 0.328388 0.236593
0.711441 0.358435 0.265617
0.787965 0.387046 0.290589
0.873862 0.415408 0.313386
0.965075 0.440670 0.332373
1.028431 0.448648 0.340396
1.072415 0.446538 0.340396
0.223966 0.292852 0.123945
0.232038 0.292852 0.123945
0.262768 0.292852 0.123945
0.306704 0.289922 0.123945
0.348369 0.278179 0.124729
0.393059 0.270472 0.123167
0.454076 0.283066 0.147727
0.514302 0.302740 0.176173
0.577622 0.328374 0.206628
0.643485 0.356744 0.236593
0.711441 0.386079 0.265617
0.787965 0.414406 0.290589
0.873862 0.442679 0.313386
0.965075 0.468706 0.332373
1.028431 0.475919 0.340396
1.072415 0.472614 0.340396
0.232273 0.348243 0.134721
0.240185 0.348243 0.134721
0.270093 0.348243 0.134721
0.317771 0.348243 0.134721
0.368764 0.341780 0.135729
0.410560 0.326915 0.135162
0.454076 0.321239 0.147727
0.514302 0.338653 0.176173
0.577622 0.362776 0.206628
0.643485 0.390320 0.236593
0.711441 0.418497 0.265617
0.787965 0.448000 0.290589
0.873862 0.476985 0.313386
0.965075 0.502521 0.332373
1.028431 0.509268 0.340396
1.072415 0.504496 0.340396
0.260678 0.401748 0.159626
0.266998 0.401748 0.159626
0.291704 0.401748 0.159626
0.332959 0.401748 0.159626
0.385666 0.401361 0.159626
0.430896 0.392520 0.159174
0.471016 0.379859 0.159626
0.514302 0.377840 0.176173
0.577622 0.401014 0.206628
0.643485 0.428152 0.236593
0.711441 0.456711 0.265617
0.787965 0.485827 0.290589
0.873862 0.515664 0.313386
0.965075 0.541610 0.332373
1.028431 0.547924 0.340396
1.072415 0.541610 0.340396
0.290014 0.455259 0.186460
0.295165 0.455259 0.186460
0.316200 0.455259 0.186460
0.351415 0.455259 0.186460
0.397351 0.454905 0.186460
0.447442 0.454803 0.186460
0.490460 0.446103 0.186460
0.530858 0.438191 0.186460
0.577622 0.442238 0.206628
0.643485 0.469324 0.236593
0.711441 0.497960 0.265617
0.787965 0.527985 0.290589
0.873862 0.559859 0.313386
0.965075 0.585140 0.332373
1.028431 0.591124 0.340396
1.072415 0.583185 0.340396
0.319567 0.509764 0.213155
0.323781 0.509764 0.213155
0.340897 0.509764 0.213155
0.371312 0.509764 0.213155
0.411735 0.509764 0.213155
0.457844 0.509380 0.213155
0.505817 0.509764 0.213155
0.548031 0.504487 0.213155
0.591290 0.502185 0.213155
0.643485 0.513391 0.236593
0.713490 0.544212 0.265156
0.787965 0.573020 0.290589
0.873862 0.605978 0.313386
0.965075 0.633443 0.332373
1.028431 0.638171 0.340396
1.072415 0.628546 0.340396
0.349321 0.567991 0.238568
0.352905 0.567991 0.238568
0.367739 0.567991 0.238568
0.394617 0.567991 0.238568
0.429232 0.567991 0.238568
0.472315 0.567991 0.238568
0.516500 0.567991 0.238568
0.561522 0.567991 0.238568
0.605819 0.568025 0.238568
0.653937 0.572647 0.241043
0.714401 0.591479 0.264568
0.787709 0.622466 0.289039
0.873862 0.655587 0.313386
0.965075 0.684330 0.332373
1.028431 0.688750 0.340396
1.072415 0.677471 0.340396
0.379550 0.632594 0.262048
0.382684 0.632594 0.262048
0.396028 0.632594 0.262048
0.419569 0.632594 0.262048
0.452456 0.632594 0.262048
0.491515 0.632594 0.262048
0.532937 0.632594 0.262048
0.575879 0.632594 0.262048
0.618537 0.632594 0.262048
0.664546 0.636476 0.262048
0.720300 0.648252 0.268043
0.788694 0.674617 0.291028
0.873862 0.710447 0.313386
0.965075 0.739014 0.332373
1.028431 0.742674 0.340396
1.072415 0.729273 0.340396
0.409718 0.704301 0.282967
0.412587 0.704301 0.282967
0.424290 0.704301 0.282967
0.446516 0.704301 0.282967
0.477033 0.704301 0.282967
0.513857 0.704301 0.282967
0.553618 0.704301 0.282967
0.595329 0.704301 0.282967
0.637156 0.704301 0.282967
0.678701 0.704301 0.282967
0.725434 0.709234 0.282967
0.789294 0.729818 0.291958
0.873862 0.766230 0.313386
0.965075 0.797822 0.332373
1.028431 0.799463 0.340396
1.072415 0.784114 0.340396
0.439708 0.782178 0.301223
0.442332 0.782178 0.301223
0.452321 0.782178 0.301223
0.474344 0.782178 0.301223
0.503310 0.782178 0.301223
0.537529 0.782178 0.301223
0.577026 0.782178 0.301223
0.618029 0.782178 0.301223
0.659561 0.782178 0.301223
0.701177 0.782178 0.301223
0.743949 0.782178 0.301223
0.787514 0.783089 0.301223
0.864227 0.812435 0.310389
0.965075 0.856669 0.332373
1.028431 0.859348 0.340396
1.072415 0.842038 0.340396
0.468378 0.862782 0.316761
0.470833 0.862782 0.316761
0.481956 0.862782 0.316761
0.499929 0.862782 0.316761
0.527772 0.862782 0.316761
0.562500 0.862782 0.316761
0.600483 0.862782 0.316761
0.641069 0.862782 0.316761
0.682553 0.862782 0.316761
0.724361 0.862782 0.316761
0.766860 0.862782 0.316761
0.810720 0.862782 0.316761
0.857411 0.864029 0.316401
0.944722 0.898254 0.328379
1.028431 0.921709 0.340396
1.072415 0.902208 0.340396
0.493683 0.937888 0.329552
0.495957 0.937888 0.329552
0.506281 0.937888 0.329552
0.524092 0.937888 0.329552
0.550166 0.937888 0.329552
0.582161 0.937888 0.329552
0.619962 0.937888 0.329552
0.659756 0.937888 0.329552
0.700864 0.937888 0.329552
0.742559 0.937888 0.329552
0.784259 0.937888 0.329552
0.827865 0.937888 0.329552
0.874860 0.937441 0.329379
0.925353 0.937441 0.329379
1.008250 0.964845 0.340396
1.072415 0.964845 0.340396
0.152791 0.111013 0.077656
0.165736 0.115700 0.081248
0.208074 0.131537 0.094169
0.266601 0.153819 0.113892
0.329876 0.165652 0.126002
0.393014 0.164127 0.126117
0.453983 0.188128 0.150997
0.514220 0.217885 0.179117
0.577565 0.250130 0.209249
0.643408 0.282596 0.238908
0.711433 0.314654 0.266233
0.787900 0.343185 0.291887
0.873862 0.370735 0.315691
0.965075 0.396142 0.334586
1.028429 0.405903 0.341693
1.072409 0.405922 0.341599
0.153994 0.115627 0.078288
0.165802 0.119151 0.081320
0.207333 0.134201 0.094828
0.266652 0.156297 0.113961
0.329573 0.167796 0.125922
0.391842 0.164092 0.124169
0.453710 0.188309 0.148917
0.514027 0.217869 0.177180
0.577410 0.250059 0.207479
0.643391 0.282630 0.237361
0.711238 0.315549 0.266480
0.787881 0.344212 0.291350
0.873862 0.370678 0.313104
0.965075 0.397082 0.333111
1.028423 0.406841 0.341099
1.072394 0.406841 0.341099
0.174772 0.143161 0.089812
0.179865 0.142606 0.089577
0.206772 0.145115 0.094745
0.266186 0.166066 0.112476
0.329573 0.177927 0.125922
0.391842 0.176460 0.124169
0.453710 0.199436 0.148917
0.514027 0.227287 0.177180
0.577410 0.258474 0.207479
0.643391 0.290431 0.237361
0.711238 0.322020 0.266480
0.787881 0.351025 0.291350
0.873862 0.377492 0.313104
0.965075 0.404590 0.333111
1.028423 0.413691 0.341099
1.072394 0.413373 0.341099
0.204332 0.185221 0.107442
0.208344 0.184747 0.106960
0.228573 0.182292 0.107442
0.266536 0.183780 0.113964
0.329573 0.199354 0.125922
0.391842 0.200132 0.124169
0.453710 0.219880 0.148917
0.514027 0.245101 0.177180
0.577410 0.274583 0.207479
0.643391 0.305490 0.237361
0.711238 0.336162 0.266480
0.787881 0.365138 0.291350
0.873862 0.392107 0.313104
0.965075 0.417468 0.333111
1.028423 0.427272 0.341099
1.072394 0.426234 0.341099
0.226466 0.236941 0.123098
0.230677 0.237035 0.122241
0.253622 0.234986 0.122096
0.286924 0.229203 0.122241
0.330550 0.226780 0.125922
0.391842 0.232477 0.124169
0.453710 0.248284 0.148917
0.514027 0.270615 0.177180
0.577410 0.298154 0.207479
0.643391 0.327706 0.237361
0.711238 0.356788 0.266480
0.787881 0.386376 0.291350
0.873862 0.413672 0.313104
0.965075 0.438042 0.333111
1.028423 0.447896 0.341099
1.072394 0.445875 0.341099
0.223557 0.292099 0.126929
0.227858 0.292193 0.125391
0.257506 0.292099 0.124924
0.306426 0.290249 0.125391
0.348983 0.276804 0.125922
0.392827 0.269050 0.124169
0.453710 0.282665 0.148917
0.514027 0.302272 0.177180
0.577410 0.327872 0.207479
0.643391 0.356170 0.237361
0.711238 0.385524 0.266480
0.787881 0.412882 0.291350
0.873862 0.441036 0.313104
0.965075 0.468058 0.333111
1.028423 0.475252 0.341099
1.072394 0.471955 0.341099
0.232230 0.347695 0.138079
0.235643 0.347798 0.136074
0.265211 0.347695 0.134077
0.316132 0.347798 0.136074
0.369314 0.342581 0.136920
0.411254 0.327575 0.136169
0.453710 0.321068 0.148917
0.514027 0.338319 0.177180
0.577410 0.362367 0.207479
0.643391 0.389930 0.237361
0.711238 0.419059 0.266480
0.787881 0.447582 0.291350
0.873862 0.475416 0.313104
0.965075 0.501991 0.333111
1.028423 0.508654 0.341099
1.072394 0.503967 0.341099
0.260969 0.401417 0.162760
0.263136 0.401439 0.160737
0.288125 0.401417 0.160751
0.330056 0.401439 0.160737
0.384161 0.401176 0.160737
0.430619 0.392365 0.160171
0.470462 0.379678 0.160737
0.514027 0.377720 0.177180
0.577410 0.400771 0.207479
0.643391 0.427857 0.237361
0.711238 0.455511 0.266480
0.787881 0.485518 0.291350
0.873862 0.513201 0.313104
0.965075 0.540097 0.333111
1.028423 0.547389 0.341099
1.072394 0.541086 0.341099
0.290534 0.455043 0.189369
0.291890 0.455032 0.187406
0.312858 0.455043 0.187359
0.348160 0.455032 0.187406
0.395745 0.454817 0.187406
0.447006 0.454642 0.187406
0.489772 0.446039 0.187406
0.530395 0.438012 0.187406
0.577410 0.442169 0.207479
0.643391 0.469161 0.237361
0.711238 0.497870 0.266480
0.787881 0.527818 0.291350
0.873862 0.557474 0.313104
0.965075 0.584700 0.333111
1.028423 0.590681 0.341099
1.072394 0.582763 0.341099
0.320149 0.509516 0.215862
0.321089 0.509582 0.214017
0.339544 0.509516 0.213870
0.369605 0.509582 0.214017
0.409970 0.509582 0.214017
0.457332 0.510221 0.214017
0.505012 0.509582 0.214017
0.547528 0.504372 0.214017
0.590975 0.502035 0.214017
0.643391 0.513287 0.237361
0.711244 0.543120 0.267005
0.787881 0.572943 0.291350
0.873862 0.604634 0.313104
0.965075 0.633133 0.333111
1.028423 0.637861 0.341099
1.072394 0.628207 0.341099
0.349926 0.567824 0.241019
0.350663 0.567815 0.239354
0.365479 0.567824 0.240022
0.392371 0.567815 0.239354
0.429428 0.567815 0.239354
0.470676 0.567815 0.239354
0.515741 0.567815 0.239354
0.560911 0.567815 0.239354
0.605383 0.567809 0.239354
0.653584 0.572440 0.241757
0.712147 0.590319 0.264357
0.788312 0.622252 0.291746
0.873862 0.655346 0.313104
0.965075 0.684877 0.333111
1.028423 0.688606 0.341099
1.072394 0.677105 0.341099
0.380143 0.632380 0.264273
0.380745 0.632375 0.262775
0.393684 0.632380 0.262271
0.418591 0.632375 0.262775
0.450702 0.632375 0.262775
0.490837 0.632375 0.262775
0.532164 0.632375 0.262775
0.575207 0.632375 0.262775
0.618035 0.632375 0.262775
0.664242 0.636391 0.262775
0.717935 0.647998 0.268771
0.788337 0.674508 0.291763
0.873862 0.709289 0.313104
0.965075 0.739879 0.333111
1.028423 0.742496 0.341099
1.072394 0.729239 0.341099
0.410222 0.704091 0.284940
0.410858 0.704172 0.283687
0.422841 0.704091 0.283951
0.444787 0.704172 0.283687
0.476289 0.704172 0.283687
0.511358 0.704172 0.283687
0.552917 0.704172 0.283687
0.594750 0.704172 0.283687
0.636707 0.704172 0.283687
0.678308 0.704172 0.283687
0.724009 0.708015 0.283687
0.786943 0.728590 0.290682
0.873862 0.766167 0.313104
0.965075 0.796677 0.333111
1.028423 0.799455 0.341099
1.072394 0.783901 0.341099
0.440147 0.782259 0.302995
0.440817 0.782147 0.301920
0.451782 0.782259 0.302995
0.471860 0.782147 0.301920
0.501637 0.782147 0.301920
0.537937 0.782147 0.301920
0.576325 0.782147 0.301920
0.617483 0.782147 0.301920
0.659110 0.782147 0.301920
0.700860 0.782147 0.301920
0.742589 0.782147 0.301920
0.787133 0.782147 0.301920
0.864227 0.812414 0.311082
0.965075 0.856554 0.333111
1.028423 0.859325 0.341099
1.072394 0.841892 0.341099
0.468694 0.862643 0.318346
0.469427 0.862673 0.317387
0.478387 0.862643 0.317330
0.499501 0.862673 0.317387
0.526080 0.862673 0.317387
0.560955 0.862673 0.317387
0.599797 0.862673 0.317387
0.640464 0.862673 0.317387
0.682102 0.862673 0.317387
0.723965 0.862673 0.317387
0.766513 0.862673 0.317387
0.810221 0.862673 0.317387
0.857411 0.864076 0.317104
0.944722 0.898230 0.328094
1.028423 0.921759 0.341099
1.072394 0.902183 0.341099
0.493980 0.937755 0.331077
0.494717 0.937778 0.330242
0.503680 0.937755 0.330078
0.522857 0.937778 0.330242
0.548490 0.937778 0.330242
0.581628 0.937778 0.330242
0.619309 0.937778 0.330242
0.659181 0.937778 0.330242
0.700438 0.937778 0.330242
0.742230 0.937778 0.330242
0.783786 0.937778 0.330242
0.827610 0.937778 0.330242
0.873862 0.937466 0.330103
0.925353 0.937466 0.330103
1.008180 0.964871 0.341099
1.072394 0.964871 0.341099
0.171718 0.126482 0.097233
0.177608 0.126304 0.097233
0.208572 0.135283 0.103229
0.265867 0.155623 0.122225
0.329876 0.168530 0.136260
0.393014 0.169404 0.141131
0.453983 0.193945 0.164270
0.514220 0.223161 0.191130
0.577565 0.254601 0.220028
0.643408 0.286043 0.248450
0.711433 0.315209 0.273023
0.787900 0.344712 0.299457
0.873862 0.371746 0.320716
0.965075 0.395269 0.339389
1.028429 0.405002 0.346717
1.072409 0.405045 0.346418
0.171790 0.129686 0.097176
0.177091 0.129173 0.097173
0.207661 0.137504 0.103161
0.265340 0.156551 0.121161
0.329454 0.170554 0.136398
0.391731 0.169329 0.139351
0.453593 0.194030 0.162398
0.513956 0.223087 0.189345
0.577378 0.254562 0.218419
0.643272 0.286134 0.247020
0.712138 0.316143 0.273403
0.787707 0.345780 0.299015
0.873862 0.371819 0.319214
0.965075 0.397241 0.339923
1.028419 0.406042 0.346203
1.072415 0.406066 0.345939
0.174787 0.143885 0.098672
0.180066 0.143440 0.098677
0.206788 0.146818 0.103674
0.263464 0.166903 0.120669
0.325928 0.176844 0.132638
0.389697 0.173708 0.132931
0.451974 0.195413 0.154640
0.512890 0.223566 0.181917
0.576574 0.254890 0.211617
0.642688 0.286960 0.241114
0.713255 0.318430 0.268617
0.787170 0.347559 0.293101
0.873862 0.376084 0.317161
0.965075 0.400550 0.336161
1.028383 0.410311 0.344175
1.072286 0.410311 0.344175
0.204332 0.185488 0.116193
0.208226 0.184486 0.115733
0.224687 0.181588 0.115188
0.264459 0.184486 0.119735
0.325928 0.198051 0.132638
0.389697 0.197898 0.132931
0.451974 0.216633 0.154640
0.512890 0.241897 0.181917
0.576574 0.271415 0.211617
0.642688 0.302308 0.241114
0.713255 0.332018 0.268617
0.787170 0.361941 0.293101
0.873862 0.389850 0.317161
0.965075 0.414542 0.336161
1.028383 0.424047 0.344175
1.072286 0.423325 0.344175
0.226757 0.236941 0.133207
0.230386 0.236111 0.132139
0.248095 0.234002 0.129206
0.280816 0.227306 0.129137
0.326887 0.226346 0.132638
0.389697 0.229949 0.132931
0.451974 0.245902 0.154640
0.512890 0.268096 0.181917
0.576574 0.295502 0.211617
0.642688 0.324999 0.241114
0.713255 0.354161 0.268617
0.787170 0.382703 0.293101
0.873862 0.411684 0.317161
0.965075 0.436371 0.336161
1.028383 0.444928 0.344175
1.072286 0.443205 0.344175
0.225161 0.292099 0.140528
0.228382 0.291233 0.138651
0.245511 0.290154 0.132527
0.298214 0.289275 0.132651
0.343389 0.276269 0.132638
0.390670 0.269169 0.132931
0.451974 0.281136 0.154640
0.512890 0.300464 0.181917
0.576574 0.325816 0.211617
0.642688 0.354006 0.241114
0.713255 0.382497 0.268617
0.787170 0.410715 0.293101
0.873862 0.440395 0.317161
0.965075 0.464697 0.336161
1.028383 0.472651 0.344175
1.072286 0.469563 0.344175
0.234949 0.347695 0.152953
0.237325 0.347073 0.150721
0.250459 0.345766 0.142960
0.305221 0.345105 0.143723
0.362777 0.341809 0.143642
0.407165 0.327421 0.143932
0.451974 0.320324 0.154640
0.512890 0.337205 0.181917
0.576574 0.360921 0.211617
0.642688 0.388180 0.241114
0.713255 0.416667 0.268617
0.787170 0.444883 0.293101
0.873862 0.474166 0.317161
0.965075 0.499919 0.336161
1.028383 0.506430 0.344175
1.072286 0.501855 0.344175
0.263855 0.401417 0.176456
0.265417 0.401033 0.174300
0.274510 0.400424 0.166447
0.318742 0.400026 0.165290
0.375880 0.400534 0.165976
0.427562 0.391903 0.166939
0.468005 0.379004 0.165976
0.512890 0.377207 0.181917
0.576574 0.399895 0.211617
0.642688 0.426582 0.241114
0.713255 0.454616 0.268617
0.787170 0.484262 0.293101
0.873862 0.512270 0.317161
0.965075 0.540313 0.336161
1.028383 0.545503 0.344175
1.072286 0.539330 0.344175
0.293460 0.455043 0.201817
0.294547 0.454701 0.199866
0.300240 0.454050 0.192813
0.339152 0.453714 0.192862
0.388124 0.454384 0.191949
0.442223 0.453972 0.191949
0.487050 0.445592 0.191949
0.528518 0.437359 0.191949
0.576574 0.441724 0.211617
0.642688 0.468367 0.241114
0.713255 0.497424 0.268617
0.787170 0.526010 0.293101
0.873862 0.556831 0.317161
0.965075 0.584163 0.336161
1.028383 0.589088 0.344175
1.072286 0.581225 0.344175
0.322866 0.509516 0.227000
0.323729 0.509298 0.225254
0.329681 0.508555 0.218018
0.360612 0.508354 0.217279
0.403701 0.508780 0.218053
0.451320 0.508681 0.218053
0.501631 0.508780 0.218053
0.545389 0.503803 0.218053
0.589462 0.501312 0.218053
0.642688 0.512896 0.241114
0.711617 0.542404 0.269052
0.787170 0.572545 0.293101
0.873862 0.604326 0.317161
0.965075 0.630887 0.336161
1.028383 0.636587 0.344175
1.072286 0.626954 0.344175
0.352265 0.567824 0.250883
0.353085 0.567598 0.249423
0.356111 0.567824 0.241885
0.385087 0.566614 0.242420
0.423258 0.567178 0.243095
0.466395 0.567178 0.243095
0.512497 0.567178 0.243095
0.558499 0.567178 0.243095
0.603626 0.567174 0.243095
0.652284 0.571705 0.245177
0.712189 0.589682 0.269088
0.787052 0.621555 0.294169
0.873862 0.655301 0.317161
0.965075 0.684843 0.336161
1.028383 0.687609 0.344175
1.072286 0.676092 0.344175
0.381917 0.632380 0.272866
0.382769 0.632334 0.271630
0.386786 0.632380 0.266882
0.410876 0.631369 0.266644
0.445660 0.631860 0.266264
0.485604 0.631860 0.266264
0.529047 0.631860 0.266264
0.572910 0.631860 0.266264
0.616240 0.631860 0.266264
0.662793 0.635622 0.266264
0.717188 0.647444 0.271272
0.788884 0.674710 0.294274
0.873862 0.708459 0.317161
0.965075 0.739051 0.336161
1.028383 0.741657 0.344175
1.072286 0.728317 0.344175
0.411471 0.704091 0.292428
0.412407 0.704005 0.291438
0.415357 0.703130 0.286431
0.438563 0.702953 0.286443
0.471433 0.703596 0.286991
0.509019 0.703596 0.286991
0.549970 0.703596 0.286991
0.592431 0.703596 0.286991
0.634920 0.703596 0.286991
0.677002 0.703596 0.286991
0.723218 0.708499 0.286991
0.787606 0.728026 0.294978
0.873862 0.764719 0.317161
0.965075 0.796159 0.336161
1.028383 0.798866 0.344175
1.072286 0.783391 0.344175
0.440745 0.782259 0.309526
0.441760 0.782073 0.308763
0.445597 0.782259 0.304539
0.467940 0.782073 0.304760
0.496857 0.781731 0.305090
0.533733 0.781731 0.305090
0.573472 0.781731 0.305090
0.615190 0.781731 0.305090
0.657387 0.781731 0.305090
0.699468 0.781731 0.305090
0.742792 0.781731 0.305090
0.785690 0.782689 0.305090
0.864227 0.814225 0.313160
0.965075 0.858050 0.336161
1.028383 0.859164 0.344175
1.072286 0.841445 0.344175
0.468820 0.862643 0.324057
0.470006 0.862761 0.323510
0.473641 0.862643 0.320066
0.495221 0.862761 0.321504
0.522364 0.862400 0.320552
0.558752 0.862400 0.320552
0.597033 0.862400 0.320552
0.638231 0.862400 0.320552
0.680349 0.862400 0.320552
0.722571 0.862400 0.320552
0.764779 0.862400 0.320552
0.808898 0.862400 0.320552
0.857411 0.863278 0.320167
0.942827 0.898128 0.331164
1.028383 0.921906 0.344175
1.072286 0.901998 0.344175
0.493704 0.937755 0.336125
0.494953 0.937711 0.335645
0.499520 0.937755 0.333126
0.518208 0.937711 0.332630
0.545951 0.937514 0.333321
0.578613 0.937514 0.333321
0.616710 0.937514 0.333321
0.657168 0.937514 0.333321
0.698661 0.937514 0.333321
0.740822 0.937514 0.333321
0.783095 0.937514 0.333321
0.827144 0.937514 0.333321
0.873862 0.937591 0.332165
0.925353 0.937591 0.332165
1.007901 0.964999 0.344175
1.072286 0.964999 0.344175
0.200782 0.149810 0.129560
0.206131 0.149798 0.129560
0.225999 0.149810 0.129560
0.267210 0.159588 0.137556
0.329876 0.175803 0.155132
0.393014 0.175079 0.161508
0.453983 0.203184 0.186136
0.514220 0.232776 0.212512
0.577565 0.262811 0.239645
0.643408 0.292303 0.265988
0.711433 0.321467 0.290639
0.787900 0.347062 0.314006
0.873862 0.370533 0.332430
0.965075 0.394200 0.349665
1.028429 0.402826 0.356404
1.072409 0.403016 0.355648
0.200679 0.152498 0.129270
0.204751 0.151816 0.129228
0.224921 0.151517 0.129270
0.265830 0.160606 0.137220
0.329454 0.175033 0.154679
0.391731 0.177058 0.162091
0.453593 0.204350 0.185688
0.513956 0.232776 0.211080
0.577378 0.262834 0.238297
0.643272 0.292443 0.264794
0.712138 0.321485 0.289302
0.787707 0.347206 0.310782
0.873862 0.371635 0.331992
0.965075 0.394281 0.349197
1.028419 0.403904 0.356011
1.072415 0.404090 0.355214
0.200679 0.163663 0.129270
0.204701 0.162916 0.128922
0.222988 0.160730 0.128274
0.263853 0.168783 0.136916
0.326619 0.181311 0.151549
0.388540 0.181526 0.157988
0.451707 0.205749 0.179560
0.512662 0.233340 0.204986
0.576414 0.263388 0.232618
0.642619 0.293539 0.259804
0.712156 0.323024 0.285631
0.787108 0.349259 0.308822
0.873862 0.376222 0.328272
0.965075 0.398883 0.347803
1.028376 0.408493 0.354306
1.072267 0.408656 0.353824
0.204332 0.185878 0.131241
0.208226 0.185090 0.130878
0.225676 0.181979 0.130245
0.263490 0.188006 0.136876
0.322009 0.197463 0.147260
0.383052 0.194038 0.148321
0.448072 0.212131 0.168252
0.510124 0.237059 0.193317
0.574542 0.266426 0.221589
0.641198 0.297271 0.250152
0.710306 0.328013 0.277583
0.785743 0.355924 0.301148
0.872956 0.384624 0.324624
0.965075 0.410070 0.344602
1.028295 0.418862 0.351612
1.072032 0.418862 0.351612
0.227241 0.236941 0.150687
0.230749 0.236111 0.149789
0.247603 0.232044 0.146690
0.275352 0.226322 0.144794
0.322009 0.224850 0.147260
0.383052 0.227001 0.148321
0.448072 0.242455 0.168252
0.510124 0.264155 0.193317
0.574542 0.291306 0.221589
0.641198 0.320651 0.250152
0.710306 0.349946 0.277583
0.785743 0.378330 0.301148
0.872956 0.406000 0.324624
0.965075 0.431246 0.344602
1.028295 0.440208 0.351612
1.072032 0.439062 0.351612
0.227823 0.292099 0.163197
0.230912 0.291233 0.161727
0.245282 0.287212 0.156193
0.283260 0.284392 0.148735
0.334602 0.272855 0.148261
0.384035 0.266241 0.148321
0.448072 0.278716 0.168252
0.510124 0.297520 0.193317
0.574542 0.322502 0.221589
0.641198 0.350435 0.250152
0.710306 0.379209 0.277583
0.785743 0.408105 0.301148
0.872956 0.435160 0.324624
0.965075 0.460976 0.344602
1.028295 0.468412 0.351612
1.072032 0.465878 0.351612
0.239652 0.347695 0.177891
0.241955 0.347073 0.176143
0.253225 0.343808 0.168900
0.283666 0.341173 0.157138
0.351084 0.339383 0.157265
0.399563 0.325434 0.157318
0.448072 0.318863 0.168252
0.510124 0.335207 0.193317
0.574542 0.358468 0.221589
0.641198 0.385390 0.250152
0.710306 0.414176 0.277583
0.785743 0.441097 0.301148
0.872956 0.470450 0.324624
0.965075 0.494667 0.344602
1.028295 0.502716 0.351612
1.072032 0.498584 0.351612
0.269079 0.401417 0.200146
0.270607 0.401033 0.198413
0.276836 0.398467 0.190137
0.299698 0.397116 0.178418
0.360940 0.396813 0.178526
0.418966 0.390664 0.178306
0.462772 0.377251 0.178526
0.510124 0.376003 0.193317
