sunrise.cube
LUT_3D_SIZE 16
-0.015018 0.012765 0.035204
0.000709 0.012233 0.035889
0.008217 0.010131 0.035064
0.028122 0.005000 0.035889
0.068687 -0.010035 0.035089
0.134592 -0.014405 0.035088
0.212096 -0.017425 0.035087
0.300987 -0.019857 0.035081
0.400453 -0.021871 0.035075
0.505240 -0.023365 0.035069
0.609227 -0.024428 0.035062
0.714746 -0.025063 0.035054
0.816170 -0.025221 0.035041
0.913968 -0.025207 0.035032
0.976870 -0.025082 0.035022
0.987835 -0.024813 0.035009
-0.015371 0.038938 0.035091
0.000661 0.038572 0.035587
0.007946 0.042975 0.035091
0.028297 0.045847 0.035587
0.068687 0.048302 0.035089
0.134592 0.052336 0.035087
0.212096 0.054042 0.035086
0.300987 0.056452 0.035080
0.400453 0.058609 0.035074
0.505240 0.060286 0.035069
0.609228 0.061097 0.035062
0.714746 0.061949 0.035054
0.816170 0.061119 0.035042
0.913968 0.061641 0.035032
0.976870 0.061950 0.035022
0.987835 0.060808 0.035010
-0.016404 0.081292 0.035090
0.001130 0.081250 0.035090
0.008217 0.080448 0.035090
0.028180 0.087205 0.035089
0.068687 0.096104 0.035088
0.134592 0.102965 0.035086
0.212096 0.108172 0.035085
0.300987 0.114222 0.035079
0.400453 0.119645 0.035075
0.505240 0.123876 0.035067
0.609228 0.126627 0.035060
0.714746 0.128250 0.035052
0.816170 0.129291 0.035041
0.913968 0.128890 0.035031
0.976870 0.128411 0.035021
0.987835 0.126254 0.035009
-0.017810 0.126258 0.035089
0.001416 0.126258 0.035089
0.010563 0.126258 0.035089
0.028128 0.124504 0.035088
0.068687 0.138886 0.035087
0.134592 0.150048 0.035086
0.212096 0.159257 0.035083
0.300986 0.168746 0.035076
0.400453 0.177295 0.035072
0.505240 0.183936 0.035064
0.609227 0.188079 0.035057
0.714746 0.190229 0.035046
0.816170 0.192025 0.035037
0.913968 0.192422 0.035028
0.976870 0.191134 0.035017
0.987835 0.187916 0.035005
-0.019337 0.179597 0.035087
0.001703 0.179597 0.035087
0.013232 0.179597 0.035087
0.035301 0.179597 0.035087
0.066963 0.176950 0.035086
0.134591 0.196070 0.035083
0.212096 0.210370 0.035077
0.300986 0.223303 0.035073
0.400469 0.234996 0.035066
0.505240 0.243994 0.035060
0.609245 0.250609 0.035052
0.714745 0.254106 0.035042
0.816170 0.255867 0.035032
0.913968 0.256038 0.035022
0.976870 0.254021 0.035010
0.987835 0.249598 0.034999
-0.020934 0.241607 0.035080
0.002045 0.241607 0.035080
0.015838 0.241607 0.035079
0.042827 0.241607 0.035079
0.084746 0.241517 0.035078
0.131611 0.239488 0.035077
0.211536 0.260831 0.035073
0.300985 0.278206 0.035067
0.400468 0.293040 0.035061
0.505240 0.304432 0.035053
0.609245 0.312633 0.035042
0.714745 0.316601 0.035033
0.816170 0.320041 0.035023
0.913968 0.317231 0.035012
0.976869 0.317239 0.035002
0.987835 0.311626 0.034993
-0.022496 0.311194 0.035072
0.002428 0.311194 0.035072
0.018277 0.311194 0.035072
0.051928 0.311194 0.035071
0.100772 0.311281 0.035070
0.155978 0.310867 0.035069
0.208025 0.307561 0.035067
0.300351 0.332408 0.035060
0.400468 0.351446 0.035053
0.505240 0.365444 0.035043
0.609244 0.375057 0.035032
0.714745 0.379608 0.035023
0.816170 0.383576 0.035010
0.913968 0.382507 0.035002
0.976869 0.380713 0.034993
0.987835 0.373988 0.034982
-0.023951 0.386732 0.035060
0.002782 0.386732 0.035060
0.020907 0.386732 0.035059
0.059216 0.386732 0.035059
0.114623 0.387096 0.035058
0.175249 0.387514 0.035055
0.237043 0.386147 0.035053
0.296263 0.382764 0.035053
0.399712 0.409055 0.035041
0.505239 0.426428 0.035031
0.609570 0.435786 0.035020
0.714744 0.444603 0.035009
0.816170 0.448170 0.034999
0.913968 0.447044 0.034989
0.976869 0.444337 0.034978
0.987835 0.436487 0.034970
-0.025234 0.467009 0.035042
0.003108 0.467009 0.035042
0.024220 0.467009 0.035041
0.065884 0.467009 0.035040
0.126957 0.467008 0.035039
0.190002 0.467354 0.035037
0.259376 0.467008 0.035034
0.328510 0.466384 0.035031
0.395660 0.463120 0.035030
0.504450 0.486710 0.035016
0.608740 0.500728 0.035003
0.713869 0.507948 0.034993
0.816170 0.511073 0.034983
0.913968 0.510795 0.034971
0.976869 0.508167 0.034964
0.987835 0.499187 0.034955
-0.026262 0.547515 0.035020
0.003377 0.547515 0.035020
0.026749 0.547515 0.035019
0.072543 0.547515 0.035019
0.136629 0.547515 0.035017
0.204422 0.547515 0.035012
0.275828 0.547515 0.035009
0.349882 0.547515 0.035007
0.425901 0.546923 0.035002
0.500911 0.544226 0.034999
0.608810 0.562513 0.034986
0.713728 0.571542 0.034972
0.816170 0.576060 0.034962
0.913968 0.575692 0.034954
0.976869 0.572157 0.034942
0.987835 0.562018 0.034934
-0.027001 0.625092 0.034991
0.003581 0.625092 0.034992
0.027801 0.625092 0.034992
0.076341 0.625092 0.034990
0.145183 0.625092 0.034989
0.213414 0.625092 0.034987
0.286920 0.625092 0.034984
0.363455 0.625092 0.034978
0.443312 0.625092 0.034976
0.525170 0.624644 0.034970
0.605566 0.623119 0.034965
0.713792 0.635464 0.034952
0.816169 0.641142 0.034938
0.913968 0.638585 0.034930
0.976868 0.636230 0.034920
0.987835 0.624865 0.034914
-0.027480 0.699469 0.034962
0.003711 0.699469 0.034962
0.028874 0.699469 0.034962
0.080777 0.699469 0.034961
0.146793 0.699468 0.034959
0.218501 0.699468 0.034956
0.293877 0.699468 0.034955
0.371979 0.699468 0.034951
0.453497 0.699468 0.034944
0.537856 0.699468 0.034939
0.624871 0.699468 0.034933
0.711019 0.698445 0.034925
0.816169 0.705456 0.034911
0.913968 0.703869 0.034901
0.976868 0.700437 0.034892
0.987835 0.687967 0.034887
-0.027736 0.769608 0.034929
0.003764 0.769608 0.034929
0.029417 0.769608 0.034930
0.082007 0.769608 0.034928
0.148852 0.769608 0.034927
0.222368 0.769608 0.034923
0.297096 0.769608 0.034920
0.375939 0.769608 0.034916
0.458235 0.769608 0.034912
0.543469 0.769608 0.034904
0.631941 0.769608 0.034898
0.723472 0.769608 0.034891
0.814976 0.769448 0.034883
0.913968 0.769900 0.034870
0.976862 0.764474 0.034862
0.987835 0.750989 0.034860
-0.027786 0.837273 0.034896
0.003763 0.837273 0.034896
0.029417 0.837273 0.034896
0.081999 0.837273 0.034892
0.148884 0.837273 0.034893
0.223417 0.837273 0.034891
0.297115 0.837273 0.034889
0.375981 0.837273 0.034882
0.458195 0.837273 0.034876
0.543509 0.837273 0.034870
0.631904 0.837273 0.034866
0.723504 0.837273 0.034859
0.815090 0.837468 0.034847
0.917392 0.839081 0.034837
0.976998 0.831474 0.034829
0.987835 0.816019 0.034827
-0.027648 0.883396 0.034859
0.003709 0.883396 0.034859
0.028874 0.883396 0.034859
0.080764 0.883396 0.034860
0.146889 0.883396 0.034858
0.218731 0.883396 0.034855
0.293983 0.883396 0.034852
0.372241 0.883396 0.034850
0.453662 0.883396 0.034843
0.538288 0.883396 0.034837
0.623952 0.883396 0.034829
0.716086 0.883396 0.034821
0.807892 0.882892 0.034815
0.908284 0.884060 0.034802
0.978848 0.884955 0.034790
0.988121 0.874980 0.034793
-0.025322 0.963557 0.031827
0.004811 0.963557 0.031663
0.031086 0.963557 0.031157
0.085341 0.963557 0.030329
0.152107 0.963557 0.029144
0.224116 0.963556 0.027683
0.295231 0.963557 0.026110
0.370281 0.963556 0.024390
0.447621 0.963557 0.022539
0.527609 0.963556 0.020833
0.610023 0.963557 0.019381
0.696155 0.963556 0.018389
0.783566 0.963821 0.018127
0.880931 0.963352 0.018150
0.966771 0.963821 0.018363
0.988345 0.964346 0.018797
-0.018958 -0.414766 0.073479
-0.025056 -0.414757 0.073414
0.003545 -0.414727 0.078175
0.019132 -0.414741 0.081888
0.054344 -0.414719 0.085971
0.120389 -0.414711 0.091834
0.199216 -0.414708 0.095495
0.291161 -0.414708 0.099484
0.394083 -0.414710 0.103042
0.502058 -0.414719 0.105759
0.608192 -0.414724 0.106894
0.714809 -0.414718 0.109617
0.818732 -0.414727 0.108669
0.917392 -0.414746 0.108443
0.978371 -0.414737 0.108669
0.988115 -0.414746 0.107476
-0.014103 0.038732 0.071165
0.000628 0.039055 0.072284
0.009946 0.016573 0.065570
0.031898 -0.024492 0.054656
0.072664 -0.032640 0.034992
0.138415 -0.037103 0.032915
0.214675 -0.041165 0.030975
0.302922 -0.044313 0.029797
0.401957 -0.046863 0.028896
0.506297 -0.048919 0.028096
0.610781 -0.047560 0.033315
0.715782 -0.052235 0.023773
0.815118 -0.051595 0.026820
0.915081 -0.046390 0.048590
0.977031 -0.048975 0.031828
0.987856 -0.047702 0.033578
-0.011513 0.081134 0.075842
-0.024826 0.082828 0.056788
0.008217 0.080287 0.059069
0.028874 0.085376 0.056788
0.071125 0.089731 0.053389
0.135923 0.095604 0.053816
0.213930 0.100882 0.051558
0.302400 0.105940 0.051991
0.401661 0.110662 0.052752
0.505984 0.114282 0.053250
0.610460 0.117611 0.058267
0.713281 0.118631 0.063392
0.815078 0.119555 0.052656
0.915081 0.118696 0.065678
0.976983 0.118685 0.059093
0.987848 0.116951 0.061043
-0.008725 0.126136 0.079821
-0.030340 0.127220 0.043549
0.009349 0.127020 0.054674
0.027273 0.124600 0.053556
0.069757 0.136719 0.052732
0.135608 0.147150 0.050538
0.213355 0.156185 0.051819
0.302069 0.164933 0.052364
0.401405 0.172952 0.053222
0.505782 0.179136 0.053689
0.611324 0.182825 0.056892
0.712983 0.186323 0.057366
0.815098 0.187014 0.048598
0.915081 0.188439 0.065121
0.977007 0.186119 0.059604
0.987846 0.183047 0.061410
-0.007549 0.179496 0.084011
-0.033745 0.180289 0.033691
0.010878 0.180404 0.052323
0.033973 0.179380 0.050413
0.067645 0.178268 0.050470
0.134342 0.194988 0.052124
0.212909 0.208961 0.052300
0.301775 0.221317 0.053039
0.401090 0.232564 0.053998
0.505725 0.241187 0.054140
0.608789 0.249068 0.065079
0.714069 0.249451 0.047751
0.815056 0.252639 0.065875
0.915081 0.251063 0.064782
0.976957 0.250798 0.060313
0.987841 0.246467 0.061998
-0.007430 0.241541 0.088270
-0.036850 0.242166 0.032434
0.013232 0.241541 0.055520
0.040829 0.242166 0.053154
0.083326 0.242015 0.050407
0.131080 0.239399 0.054000
0.212064 0.260419 0.053153
0.301479 0.277191 0.054000
0.400941 0.291613 0.055049
0.505604 0.302739 0.055484
0.609751 0.310265 0.063355
0.713923 0.314876 0.056401
0.815108 0.318633 0.064971
0.915081 0.316895 0.065589
0.977019 0.314896 0.061264
0.987838 0.309396 0.062802
-0.007921 0.311167 0.092326
-0.039530 0.311568 0.031736
0.015451 0.311167 0.054845
0.047651 0.309713 0.048590
0.100181 0.311542 0.057758
0.154204 0.309603 0.048775
0.208418 0.307811 0.054082
0.300618 0.332074 0.055179
0.400762 0.350707 0.056371
0.505444 0.364334 0.057279
0.609605 0.373380 0.057290
0.713785 0.379450 0.061895
0.815063 0.381799 0.065266
0.915081 0.382791 0.064751
0.976966 0.378999 0.062483
0.987834 0.372326 0.063821
-0.008793 0.386655 0.096040
-0.041668 0.386930 0.031620
0.017444 0.388579 0.063040
0.054292 0.386930 0.052239
0.112156 0.387208 0.057736
0.174492 0.387661 0.059235
0.236513 0.386260 0.055895
0.296508 0.382915 0.056469
0.399911 0.408763 0.057866
0.505384 0.425791 0.058642
0.609775 0.435524 0.062489
0.713796 0.443028 0.068852
0.816208 0.445079 0.065879
0.913968 0.446786 0.066126
0.976914 0.443164 0.064023
0.987831 0.435285 0.065193
-0.009881 0.466977 0.099359
-0.043358 0.467195 0.032172
0.020010 0.466040 0.061622
0.062225 0.467195 0.055908
0.122996 0.467072 0.060122
0.190644 0.467444 0.061816
0.258346 0.467072 0.058276
0.328092 0.466474 0.059045
0.395824 0.463290 0.059416
0.504595 0.486516 0.060408
0.608917 0.498978 0.070563
0.714029 0.506798 0.052131
0.816178 0.511168 0.067411
0.913968 0.509905 0.065839
0.976879 0.507314 0.065552
0.987834 0.498276 0.064907
-0.011066 0.547473 0.101892
-0.044385 0.547637 0.033429
0.021826 0.547473 0.069663
0.067267 0.547637 0.058672
0.134288 0.547584 0.061095
0.203647 0.547571 0.062669
0.274414 0.547584 0.061095
0.349045 0.547571 0.061742
0.425578 0.546980 0.062188
0.501073 0.544303 0.062726
0.609612 0.562572 0.059416
0.713873 0.571627 0.059025
0.816180 0.576341 0.067301
0.913968 0.574943 0.065768
0.976880 0.571468 0.065438
0.987834 0.561260 0.064838
-0.012282 0.625081 0.103555
-0.044543 0.625210 0.042872
0.023247 0.625081 0.068478
0.071639 0.624238 0.063009
0.140775 0.625180 0.063952
0.211357 0.625175 0.064491
0.285458 0.625180 0.063952
0.362410 0.625175 0.064491
0.442665 0.625171 0.064984
0.524875 0.624664 0.065761
0.607162 0.623168 0.064984
0.713516 0.634509 0.064831
0.816179 0.640638 0.066338
0.913968 0.639995 0.065742
0.976880 0.635714 0.065407
0.987834 0.624266 0.064811
-0.013242 0.699454 0.104558
-0.043829 0.699533 0.053140
0.023730 0.699454 0.066658
0.076152 0.699533 0.067004
0.145173 0.699494 0.067200
0.216337 0.699491 0.067358
0.292178 0.699494 0.067200
0.370815 0.699491 0.067358
0.452628 0.699492 0.067287
0.537362 0.699492 0.067245
0.624012 0.699492 0.067287
0.711678 0.698536 0.067245
0.816179 0.705940 0.066306
0.913968 0.704326 0.065716
0.976880 0.700038 0.065371
0.987834 0.687555 0.064784
-0.013660 0.769603 0.105038
-0.044141 0.769648 0.053670
0.024220 0.769603 0.067122
0.076152 0.769648 0.066609
0.147171 0.769637 0.066444
0.220071 0.769638 0.066434
0.295323 0.769637 0.066444
0.374687 0.769638 0.066434
0.457244 0.769637 0.066425
0.542724 0.769637 0.066416
0.633189 0.769637 0.066425
0.721700 0.769637 0.066416
0.814906 0.769375 0.066270
0.913968 0.768480 0.065676
0.976873 0.764401 0.065334
0.987834 0.750609 0.064751
-0.013684 0.837270 0.105044
-0.044526 0.837306 0.052157
0.024220 0.837270 0.065263
0.076152 0.837306 0.066003
0.147148 0.837299 0.065878
0.218950 0.837299 0.065865
0.295287 0.837299 0.065878
0.374585 0.837299 0.065865
0.457124 0.837299 0.065858
0.542625 0.837299 0.065853
0.630805 0.837299 0.065858
0.723854 0.837299 0.065853
0.812886 0.838355 0.064357
0.917392 0.837902 0.065640
0.977014 0.831335 0.065286
0.987834 0.815788 0.064710
-0.013631 0.883395 0.104556
-0.044357 0.883406 0.051191
0.023730 0.883395 0.065728
0.075240 0.883406 0.065945
0.145132 0.883403 0.065309
0.216237 0.883403 0.065302
0.292120 0.883403 0.065309
0.370725 0.883403 0.065302
0.452499 0.883403 0.065297
0.537334 0.883403 0.065288
0.624985 0.883403 0.065297
0.713824 0.883403 0.065288
0.808083 0.882949 0.065315
0.906016 0.884070 0.065607
0.978980 0.885013 0.065315
0.988122 0.874991 0.064676
-0.014743 0.963556 0.100035
-0.040120 0.963560 0.019398
0.025723 0.963556 0.028794
0.079879 0.963560 0.025362
0.149152 0.963559 0.014926
0.219358 0.963559 -0.019198
0.293188 0.963559 -0.028384
0.368578 0.963559 -0.034768
0.446315 0.963559 -0.039666
0.526484 0.963559 -0.043152
0.609764 0.963559 -0.045373
0.697218 0.963559 -0.046792
0.783605 0.963826 -0.047676
0.880931 0.963359 -0.047791
0.966818 0.963826 -0.047103
0.988347 0.964353 -0.046253
-0.014894 -0.414784 0.117260
0.000441 -0.414757 0.118188
0.004868 -0.414723 0.118238
0.020180 -0.414741 0.125963
0.055456 -0.414721 0.135632
0.121647 -0.414712 0.144392
0.199668 -0.414709 0.152373
0.291454 -0.414709 0.160207
0.394247 -0.414711 0.167210
0.502231 -0.414715 0.172650
0.608418 -0.414723 0.176180
0.714895 -0.414729 0.177633
0.818734 -0.414736 0.180570
0.917392 -0.414736 0.180161
0.978374 -0.414738 0.178563
0.988116 -0.414736 0.176154
-0.014114 0.045073 0.114418
0.000307 0.035002 0.122870
0.009946 0.017618 0.120233
0.031506 -0.012820 0.122870
0.072242 -0.015120 0.126683
0.137207 0.009394 0.134404
0.213176 0.016348 0.141369
0.301651 0.019847 0.148170
0.400860 0.028884 0.154314
0.505332 0.031862 0.159138
0.609672 0.032836 0.162247
0.711500 0.039850 0.164097
0.815989 0.031990 0.165879
0.913968 0.044576 0.164774
0.976752 0.039983 0.164874
0.987776 0.041341 0.162777
-0.011176 0.081053 0.113691
-0.022455 0.082301 0.115564
0.007946 0.080206 0.113691
0.032801 0.077220 0.111693
0.081703 0.060965 0.098209
0.149421 0.014139 0.080145
0.225779 -0.043531 0.059602
0.312453 -0.053435 0.028464
0.409964 -0.059533 -0.008196
0.512911 -0.063456 -0.025410
0.617954 -0.065983 -0.031298
0.721424 -0.065775 -0.029112
0.820723 -0.065988 -0.029215
0.917392 -0.069890 -0.040382
0.978112 -0.067003 -0.033913
0.987931 -0.066249 -0.033030
-0.008635 0.126150 0.121761
-0.021312 0.126888 0.119260
0.003374 0.129653 0.098595
0.027801 0.126003 0.098043
0.073044 0.131500 0.092227
0.142701 0.135726 0.083363
0.220273 0.141188 0.078012
0.308538 0.146312 0.074874
0.407123 0.151546 0.072633
0.510891 0.155754 0.071201
0.615038 0.157770 0.071700
0.716071 0.160200 0.071201
0.820443 0.161392 0.071045
0.918502 0.160371 0.070419
0.977744 0.159612 0.070115
0.987840 0.156811 0.070419
-0.007537 0.179503 0.129843
-0.015097 0.179935 0.126277
-0.027159 0.183093 0.075132
0.029417 0.182628 0.083961
0.068541 0.180312 0.084770
0.138440 0.191502 0.078989
0.217065 0.202860 0.075337
0.306120 0.212350 0.073350
0.405432 0.221432 0.071876
0.509764 0.228511 0.070951
0.612137 0.233318 0.069078
0.717137 0.236733 0.070951
0.818043 0.236884 0.073871
0.918502 0.238156 0.075450
0.977671 0.235063 0.070120
0.987837 0.230838 0.070759
-0.007434 0.241543 0.138094
-0.005711 0.241858 0.133965
-0.043441 0.243383 0.050510
0.032223 0.243695 0.076281
0.079755 0.243938 0.076072
0.132701 0.240653 0.076984
0.214392 0.258654 0.073254
0.304249 0.272898 0.072290
0.403855 0.285456 0.071396
0.508595 0.295083 0.070807
0.612751 0.302160 0.072335
0.714850 0.305354 0.068936
0.820280 0.307101 0.068951
0.916247 0.306232 0.072206
0.977650 0.304287 0.070824
0.987829 0.298769 0.071273
-0.007930 0.311168 0.146004
0.000173 0.311343 0.141380
-0.049019 0.313947 0.030384
0.034761 0.311343 0.073986
0.090960 0.313966 0.073071
0.150748 0.311995 0.071540
0.209951 0.309269 0.072137
0.302245 0.330731 0.071540
0.402733 0.347508 0.071283
0.507557 0.359685 0.071112
0.611560 0.368266 0.073153
0.715966 0.372928 0.071112
0.817997 0.375298 0.075389
0.916247 0.374123 0.068183
0.977617 0.371504 0.071639
0.987925 0.364653 0.071922
-0.008803 0.386656 0.153288
0.000361 0.386762 0.148320
-0.053311 0.389525 0.022238
0.038815 0.387709 0.067481
0.100339 0.389073 0.068549
0.168566 0.388750 0.070461
0.234340 0.387182 0.071353
0.297728 0.384023 0.071394
0.401082 0.407686 0.071372
0.506686 0.423282 0.071890
0.611029 0.432516 0.065768
0.715034 0.437632 0.075643
0.816558 0.441427 0.067670
0.916247 0.441052 0.076506
0.977322 0.437620 0.072345
0.987917 0.429539 0.072749
-0.009889 0.466977 0.159857
0.000582 0.467045 0.154701
-0.058162 0.467957 -0.021067
0.043995 0.468002 0.072592
0.109804 0.467772 0.073355
0.180871 0.469096 0.074517
0.253743 0.467772 0.071482
0.326416 0.467172 0.071705
0.396796 0.464068 0.071890
0.505375 0.485615 0.072352
0.611035 0.497833 0.069082
0.713784 0.504904 0.063957
0.816459 0.508026 0.077769
0.917392 0.507479 0.072807
0.977265 0.503206 0.073068
0.987888 0.493933 0.073752
-0.011074 0.547473 0.164921
0.000810 0.547453 0.159723
-0.059726 0.548474 -0.022108
0.046925 0.548453 0.065181
0.119471 0.548181 0.078316
0.193025 0.548122 0.069814
0.268169 0.548181 0.072682
0.345465 0.548122 0.072619
0.424172 0.547469 0.072877
0.501759 0.544994 0.072727
0.610369 0.560127 0.079458
0.716790 0.570326 0.075543
0.818637 0.574345 0.075227
0.915081 0.572654 0.086219
0.977138 0.568489 0.074287
0.987880 0.558003 0.074890
-0.012288 0.625081 0.168307
0.001048 0.625052 0.163230
-0.060045 0.626083 -0.016408
0.048957 0.625052 0.073135
0.124681 0.625583 0.064716
0.199397 0.625544 0.063629
0.277879 0.625583 0.074055
0.357442 0.625544 0.073893
0.439717 0.625540 0.074179
0.523619 0.625039 0.074162
0.608549 0.623566 0.080768
0.713324 0.633911 0.076983
0.816290 0.637426 0.069390
0.915081 0.637552 0.065928
0.977061 0.633514 0.075947
0.987877 0.621835 0.076217
-0.013247 0.699454 0.170387
0.001338 0.699402 0.165562
-0.059721 0.701388 0.011157
0.051187 0.701336 0.081002
0.128345 0.699886 0.077931
0.205445 0.699931 0.079155
0.283857 0.699886 0.075114
0.364839 0.699931 0.075387
0.448547 0.699834 0.075677
0.534920 0.699795 0.076319
0.624269 0.699834 0.070054
0.713711 0.697792 0.068822
0.815124 0.704450 0.088176
0.915081 0.702562 0.087113
0.977087 0.698567 0.077764
0.987878 0.685756 0.077663
-0.013661 0.769602 0.171372
0.001325 0.769603 0.166440
-0.060361 0.769602 0.010280
0.053325 0.769603 0.080889
0.128826 0.769939 0.078372
0.205451 0.769886 0.077914
0.286476 0.769939 0.076488
0.368012 0.769886 0.076973
0.452396 0.769856 0.077256
0.539485 0.769907 0.078115
0.628184 0.769856 0.073501
0.720661 0.769907 0.073412
0.815063 0.769428 0.062825
0.915081 0.767271 0.055021
0.976966 0.763477 0.079667
0.987856 0.749405 0.079234
-0.013684 0.837270 0.171383
0.001139 0.837306 0.166157
-0.057779 0.837270 0.027800
0.054158 0.837306 0.084394
0.129400 0.837586 0.079104
0.207062 0.837537 0.079534
0.286049 0.837586 0.078160
0.367563 0.837537 0.078592
0.451882 0.837564 0.078865
0.538804 0.837568 0.079605
0.626550 0.837564 0.075100
0.721050 0.837568 0.095759
0.814112 0.837992 0.085733
0.918502 0.839079 0.087554
0.977099 0.830970 0.080997
0.987861 0.814993 0.080926
-0.013630 0.883395 0.170431
0.000962 0.883406 0.164972
-0.049434 0.883395 0.066830
0.053403 0.883406 0.094687
0.126314 0.883456 0.077833
0.205147 0.883436 0.082022
0.282750 0.883456 0.079716
0.363441 0.883436 0.080137
0.446858 0.883413 0.080390
0.533060 0.883432 0.081045
0.621445 0.883413 0.076625
0.712839 0.883432 0.078212
0.806905 0.883080 0.084289
0.906016 0.883800 0.088455
0.979026 0.885144 0.083341
0.988095 0.874719 0.082760
-0.015161 0.963556 0.167891
0.000365 0.963560 0.160192
-0.050758 0.963556 -0.038518
0.055048 0.963560 0.030220
0.130329 0.963690 -0.037051
0.205341 0.963675 -0.044145
0.282797 0.963690 -0.054564
0.360393 0.963675 -0.061217
0.439652 0.963658 -0.066840
0.521261 0.963636 -0.070823
0.605170 0.963658 -0.074738
0.693080 0.963636 -0.077329
0.782244 0.963863 -0.073241
0.878614 0.964322 -0.089340
0.966557 0.963863 -0.073716
0.988380 0.964322 -0.072944
-0.015328 -0.414801 0.165589
0.002018 -0.414743 0.167162
0.010252 -0.414703 0.170563
0.024126 -0.414704 0.171155
0.058461 -0.414726 0.185966
0.122866 -0.414735 0.200544
0.201530 -0.414732 0.211154
0.292724 -0.414730 0.222832
0.395164 -0.414727 0.233267
0.502920 -0.414729 0.241357
0.609387 -0.414739 0.245530
0.716837 -0.414737 0.249545
0.818852 -0.414723 0.251295
0.917392 -0.414724 0.250713
0.978504 -0.414726 0.250266
0.988128 -0.414722 0.246616
-0.013607 0.047897 0.164889
-0.020554 -0.008646 0.178930
0.011856 -0.010956 0.173859
0.029967 -0.011457 0.167960
0.072189 -0.011288 0.178303
0.135225 0.011782 0.188634
0.213101 0.016777 0.199391
0.301660 0.020675 0.209807
0.400820 0.029077 0.219271
0.505412 0.031658 0.226584
0.609670 0.034621 0.231483
0.711606 0.042064 0.234726
0.815988 0.032868 0.236856
0.913968 0.045438 0.237593
0.976752 0.040066 0.234801
0.987777 0.041382 0.231475
-0.010177 0.089367 0.165121
-0.024564 0.088193 0.169559
0.006911 0.078323 0.175071
0.032801 0.073782 0.173539
0.081085 0.063334 0.178037
0.146813 0.051379 0.182308
0.223042 0.043601 0.186026
0.309691 0.042417 0.192332
0.407475 0.042561 0.198745
0.510812 0.043070 0.203911
0.614292 0.046617 0.206834
0.718252 0.043070 0.208951
0.819109 0.049750 0.211742
0.916247 0.037945 0.208627
0.977625 0.046485 0.208697
0.987851 0.046839 0.205609
-0.008324 0.125699 0.163860
-0.020687 0.126461 0.164673
0.003545 0.128329 0.167841
0.027273 0.125586 0.165669
0.077778 0.120637 0.161085
0.154638 0.106668 0.146825
0.238009 0.084440 0.126635
0.327494 0.059170 0.107806
0.425089 -0.034097 0.088522
0.526956 -0.056524 0.066764
0.629075 -0.066868 0.021904
0.731372 -0.071332 -0.025842
0.830853 -0.074726 -0.037563
0.928832 -0.074873 -0.039142
0.980385 -0.075927 -0.043747
0.988207 -0.075642 -0.044660
-0.007515 0.179515 0.177281
-0.014879 0.179895 0.176161
0.001063 0.182198 0.169299
0.016232 0.184385 0.144423
0.069924 0.182249 0.144488
0.144996 0.186053 0.136998
0.226941 0.188563 0.123916
0.317283 0.191467 0.115546
0.416638 0.195000 0.108589
0.520351 0.197904 0.103265
0.623661 0.199538 0.098969
0.725774 0.200601 0.096558
0.827729 0.201466 0.094975
0.926526 0.199370 0.091751
0.979457 0.196933 0.090215
0.988042 0.193059 0.088896
-0.007442 0.241546 0.189630
-0.005125 0.241842 0.187801
0.000665 0.243386 0.175603
0.004665 0.248274 0.112821
0.067374 0.247310 0.120669
0.136330 0.244430 0.119209
0.219779 0.254675 0.114855
0.311281 0.263769 0.109520
0.411623 0.272085 0.104357
0.516382 0.278485 0.100409
0.621894 0.282273 0.097648
0.723851 0.284979 0.095616
0.826414 0.284582 0.091137
0.924221 0.283606 0.087889
0.979232 0.280869 0.090191
0.988022 0.275259 0.088840
-0.007946 0.311169 0.201457
0.000192 0.311333 0.199216
0.000975 0.313035 0.181359
-0.036147 0.315996 0.089161
0.069622 0.316135 0.108156
0.143647 0.313965 0.107545
0.213201 0.312417 0.106230
0.306371 0.328003 0.103694
0.407706 0.340935 0.101084
0.513051 0.350237 0.098156
0.615582 0.356936 0.095330
0.722701 0.359696 0.094331
0.821571 0.360234 0.094905
0.923125 0.357786 0.089807
0.978981 0.355531 0.090133
