sunrise.cube
LUT_3D_SIZE 6
-0.015018 0.012765 0.035204
0.028122 0.005000 0.035889
0.212096 -0.017425 0.035087
0.505240 -0.023365 0.035069
0.816170 -0.025221 0.035041
0.987835 -0.024813 0.035009
-0.017810 0.126258 0.035089
0.028128 0.124504 0.035088
0.212096 0.159257 0.035083
0.505240 0.183936 0.035064
0.816170 0.192025 0.035037
0.987835 0.187916 0.035005
-0.022496 0.311194 0.035072
0.051928 0.311194 0.035071
0.208025 0.307561 0.035067
0.505240 0.365444 0.035043
0.816170 0.383576 0.035010
0.987835 0.373988 0.034982
-0.026262 0.547515 0.035020
0.072543 0.547515 0.035019
0.275828 0.547515 0.035009
0.500911 0.544226 0.034999
0.816170 0.576060 0.034962
0.987835 0.562018 0.034934
-0.027736 0.769608 0.034929
0.082007 0.769608 0.034928
0.297096 0.769608 0.034920
0.543469 0.769608 0.034904
0.814976 0.769448 0.034883
0.987835 0.750989 0.034860
-0.025322 0.963557 0.031827
0.085341 0.963557 0.030329
0.295231 0.963557 0.026110
0.527609 0.963556 0.020833
0.783566 0.963821 0.018127
0.988345 0.964346 0.018797
-0.015328 -0.414801 0.165589
0.024126 -0.414704 0.171155
0.201530 -0.414732 0.211154
0.502920 -0.414729 0.241357
0.818852 -0.414723 0.251295
0.988128 -0.414722 0.246616
-0.008324 0.125699 0.163860
0.027273 0.125586 0.165669
0.238009 0.084440 0.126635
0.526956 -0.056524 0.066764
0.830853 -0.074726 -0.037563
0.988207 -0.075642 -0.044660
-0.007946 0.311169 0.201457
-0.036147 0.315996 0.089161
0.213201 0.312417 0.106230
0.513051 0.350237 0.098156
0.821571 0.360234 0.094905
0.988004 0.348371 0.088862
-0.011091 0.547473 0.229704
-0.067948 0.550389 -0.027855
0.254600 0.549725 0.094237
0.503609 0.546334 0.094073
0.819473 0.569270 0.084123
0.987903 0.551472 0.089677
-0.013664 0.769603 0.239403
-0.072583 0.770583 -0.038411
0.266989 0.770782 0.091846
0.532562 0.770551 0.092821
0.814314 0.769762 0.083223
0.987929 0.747007 0.091891
-0.015661 0.963556 0.235503
-0.074514 0.963560 -0.079118
0.259609 0.963888 -0.079769
0.509845 0.963903 -0.100021
0.777127 0.963907 -0.100758
0.988460 0.964503 -0.102892
-0.017798 -0.414843 0.367171
0.059484 -0.414800 0.372590
0.217979 -0.415522 0.384166
0.510105 -0.415365 0.444428
0.822705 -0.415159 0.464762
0.988176 -0.414990 0.454689
-0.007082 0.159758 0.366890
0.012881 0.096738 0.398426
0.230680 0.087810 0.382676
0.521686 0.069172 0.411648
0.826413 0.062593 0.419079
0.987952 0.060834 0.406271
-0.008065 0.309138 0.363921
0.005325 0.315882 0.369338
0.212748 0.310655 0.368474
0.554050 0.276879 0.332329
0.891149 0.221684 0.274426
0.987689 0.239606 0.291575
-0.011201 0.547475 0.421551
0.004630 0.550379 0.404789
0.092429 0.564193 0.259719
0.516625 0.556436 0.259500
0.846135 0.542649 0.246530
0.988089 0.512401 0.257315
-0.013696 0.769603 0.439997
0.004252 0.770583 0.415805
0.036452 0.781033 0.195806
0.480837 0.777674 0.216722
0.824811 0.777236 0.213394
0.988279 0.733097 0.204214
-0.017359 0.963556 0.428376
-0.056679 0.963560 0.398322
-0.113494 0.967726 -0.115501
0.424523 0.966831 -0.114894
0.744049 0.966215 -0.134386
0.988739 0.965483 -0.132975
-0.020410 -0.414929 0.605713
0.084572 -0.414771 0.606816
0.297273 -0.416355 0.616419
0.522500 -0.418498 0.625194
0.827323 -0.417028 0.654639
0.988360 -0.415766 0.642169
-0.007261 0.184222 0.599245
-0.046329 -0.036697 0.634775
0.269986 0.074652 0.618066
0.516366 0.068554 0.607189
0.826271 0.061506 0.622925
0.987941 0.060956 0.604698
-0.008880 0.364953 0.599412
0.004547 0.352950 0.607157
0.166264 0.272468 0.640827
0.553372 0.254755 0.632453
0.882078 0.221285 0.612684
0.987698 0.240001 0.573849
-0.011469 0.545138 0.597448
0.003413 0.548109 0.599706
0.102857 0.561232 0.611677
0.506894 0.547377 0.600400
0.871808 0.525269 0.579216
0.987635 0.511850 0.566114
-0.013759 0.769603 0.625390
0.005744 0.770583 0.618565
0.060573 0.779275 0.584613
0.379417 0.789573 0.509998
0.834057 0.782171 0.493858
0.987961 0.730600 0.543498
-0.018587 0.963556 0.603658
-0.070977 0.963560 0.592094
-0.113248 0.967111 0.530104
0.274138 0.975215 0.414137
0.690124 0.970534 0.374292
0.989267 0.967642 0.362754
-0.021398 -0.414973 0.799221
0.095182 -0.414825 0.799209
0.320528 -0.416214 0.802787
0.568165 -0.419048 0.806911
0.827743 -0.418207 0.808350
0.988342 -0.416201 0.794155
-0.007833 0.192910 0.789934
-0.075331 -0.076638 0.813702
0.277920 0.066651 0.803910
0.542020 0.064260 0.798171
0.823794 0.063627 0.794950
0.987924 0.061166 0.774522
-0.009553 0.383022 0.790023
0.004268 0.363151 0.796816
0.136512 0.246192 0.840046
0.534001 0.232465 0.832767
0.874066 0.208393 0.820860
0.987724 0.232472 0.769427
-0.012156 0.575461 0.790070
0.004019 0.569222 0.791181
0.086039 0.549208 0.814304
0.452933 0.508585 0.828025
0.877514 0.491552 0.823160
0.987645 0.498816 0.762996
-0.013762 0.768869 0.790073
0.004364 0.770988 0.791195
0.059639 0.778569 0.797492
0.375113 0.787922 0.804731
0.818357 0.771006 0.790400
0.988080 0.760062 0.782826
-0.018877 0.963556 0.765332
-0.076518 0.963560 0.761699
-0.122073 0.966776 0.743751
0.246485 0.974708 0.716382
0.723696 0.970468 0.731021
0.989141 0.966773 0.711288
-0.021033 -0.414955 0.930297
0.090133 -0.414746 0.930246
0.310410 -0.416075 0.930527
0.551655 -0.418453 0.930749
0.798178 -0.417426 0.930354
0.988852 -0.415258 0.930385
-0.008413 0.189119 0.924238
-0.080691 -0.082398 0.962648
0.262743 0.048073 0.945757
0.519275 0.055558 0.935352
0.791803 0.060663 0.930560
0.988983 0.061627 0.927861
-0.009950 0.375051 0.924345
0.002093 0.352210 0.934151
0.139745 0.247519 0.956337
0.476992 0.250496 0.955724
0.782628 0.238333 0.954037
0.989433 0.214516 0.954384
-0.012281 0.563357 0.924403
0.004555 0.555086 0.928037
0.123195 0.520942 0.954857
0.433176 0.492651 0.955443
0.766531 0.487622 0.956951
0.989771 0.477529 0.953361
-0.013232 0.752675 0.924415
0.006184 0.749409 0.925365
0.041026 0.740692 0.949496
0.405050 0.729828 0.952098
0.786385 0.750174 0.950712
0.989528 0.740245 0.947140
-0.013683 0.908159 0.924412
0.007789 0.908165 0.924420
0.041690 0.911045 0.928272
0.274417 0.917777 0.938881
0.721164 0.914568 0.934276
0.988567 0.907373 0.922335
